(tuerschild_1.gcode)
(Bearbeiten)
(  Hersteller: OpenBuilds)
(  model: OX-CNC)
(  description: Pinas OX-CNC)
(T6  D=3.175 CR=0 - ZMIN=-18 - Schaftfraser)
G90 G94
G17
G21
(When using Fusion 360 for Personal Use, the feedrate of)
(rapid moves is reduced to match the feedrate of cutting)
(moves, which can increase machining time. Unrestricted rapid)
(moves are available with a Fusion 360 Subscription.)
G28 G91 Z0
G90

(Planen1)
T6
S25000 M3
G54
G0 X138.072 Y340.398
Z7
G1 Z2 F800
Z-1.183 F600
G19 G2 Y340.08 Z-1.5 J-0.318 K0
G1 Y339.219
Y10.782 F800
G2 Y10.464 Z-1.183 J0 K0.317
G1 Z5
X136.571 Y341.674
Z2
Z-1.183 F600
G2 Y341.357 Z-1.5 J-0.318 K0
G1 Y340.225
Y9.775 F800
G2 Y9.457 Z-1.183 J0 K0.317
G1 Z5
X135.071 Y342.373
Z2
Z-1.183 F600
G2 Y342.055 Z-1.5 J-0.318 K0
G1 Y340.627
Y9.374 F800
G2 Y9.056 Z-1.183 J0 K0.317
G1 Z5
X133.57 Y342.701
Z2
Z-1.183 F600
G2 Y342.384 Z-1.5 J-0.317 K0
G1 Y340.995
Y9.006 F800
G2 Y8.688 Z-1.183 J0 K0.317
G1 Z5
X132.07 Y343.144
Z2
Z-1.183 F600
G2 Y342.826 Z-1.5 J-0.318 K0
G1 Y341.649
Y8.351 F800
G2 Y8.034 Z-1.183 J0 K0.317
G1 Z5
X130.569 Y343.957
Z2
Z-1.183 F600
G2 Y343.639 Z-1.5 J-0.318 K0
G1 Y342.656
Y7.344 F800
G2 Y7.026 Z-1.183 J0 K0.317
G1 Z5
X129.069 Y345.329
Z2
Z-1.183 F600
G2 Y345.012 Z-1.5 J-0.318 K0
G1 Y344.195
Y5.806 F800
G2 Y5.488 Z-1.183 J0 K0.317
G1 Z5
X127.568 Y348.118
Z2
Z-1.183 F600
G2 Y347.8 Z-1.5 J-0.318 K0
G1 Y347.028
Y2.972 F800
G2 Y2.654 Z-1.183 J0 K0.317
G1 Z5
X126.068 Y352.315
Z2
Z-1.183 F600
G2 Y351.997 Z-1.5 J-0.317 K0
G1 Y351.194
Y-1.194 F800
G2 Y-1.512 Z-1.183 J0 K0.317
G1 Z5
X124.567 Y353.798
Z2
Z-1.183 F600
G2 Y353.48 Z-1.5 J-0.318 K0
G1 Y352.415
Y-2.415 F800
G2 Y-2.732 Z-1.183 J0 K0.317
G1 Z5
X123.067 Y354.61
Z2
Z-1.183 F600
G2 Y354.292 Z-1.5 J-0.318 K0
G1 Y352.929
Y-2.929 F800
G2 Y-3.246 Z-1.183 J0 K0.317
G1 Z5
X121.566 Y354.997
Z2
Z-1.183 F600
G2 Y354.68 Z-1.5 J-0.318 K0
G1 Y353
Y-3 F800
G2 Y-3.318 Z-1.183 J0 K0.317
G1 Z5
X120.066 Y355.064
Z2
Z-1.183 F600
G2 Y354.746 Z-1.5 J-0.318 K0
G1 Y353
Y-3 F800
G2 Y-3.318 Z-1.183 J0 K0.317
G1 Z5
X118.565 Y355.064
Z2
Z-1.183 F600
G2 Y354.746 Z-1.5 J-0.318 K0
G1 Y353
Y-3 F800
G2 Y-3.318 Z-1.183 J0 K0.317
G1 Z5
X117.065 Y355.064
Z2
Z-1.183 F600
G2 Y354.746 Z-1.5 J-0.318 K0
G1 Y353
Y-3 F800
G2 Y-3.318 Z-1.183 J0 K0.317
G1 Z5
X115.564 Y355.064
Z2
Z-1.183 F600
G2 Y354.746 Z-1.5 J-0.318 K0
G1 Y353
Y-3 F800
G2 Y-3.318 Z-1.183 J0 K0.317
G1 Z5
X114.064 Y355.064
Z2
Z-1.183 F600
G2 Y354.746 Z-1.5 J-0.318 K0
G1 Y353
Y-3 F800
G2 Y-3.318 Z-1.183 J0 K0.317
G1 Z5
X112.563 Y355.064
Z2
Z-1.183 F600
G2 Y354.746 Z-1.5 J-0.318 K0
G1 Y353
Y-3 F800
G2 Y-3.318 Z-1.183 J0 K0.317
G1 Z5
X111.062 Y355.064
Z2
Z-1.183 F600
G2 Y354.746 Z-1.5 J-0.318 K0
G1 Y353
Y-3 F800
G2 Y-3.318 Z-1.183 J0 K0.317
G1 Z5
X109.562 Y355.064
Z2
Z-1.183 F600
G2 Y354.746 Z-1.5 J-0.318 K0
G1 Y353
Y-3 F800
G2 Y-3.318 Z-1.183 J0 K0.317
G1 Z5
X108.061 Y355.064
Z2
Z-1.183 F600
G2 Y354.746 Z-1.5 J-0.318 K0
G1 Y353
Y-3 F800
G2 Y-3.318 Z-1.183 J0 K0.317
G1 Z5
X106.561 Y355.064
Z2
Z-1.183 F600
G2 Y354.746 Z-1.5 J-0.318 K0
G1 Y353
Y-3 F800
G2 Y-3.318 Z-1.183 J0 K0.317
G1 Z5
X105.06 Y355.064
Z2
Z-1.183 F600
G2 Y354.746 Z-1.5 J-0.318 K0
G1 Y353
Y-3 F800
G2 Y-3.318 Z-1.183 J0 K0.317
G1 Z5
X103.56 Y355.064
Z2
Z-1.183 F600
G2 Y354.746 Z-1.5 J-0.318 K0
G1 Y353
Y-3 F800
G2 Y-3.318 Z-1.183 J0 K0.317
G1 Z5
X102.059 Y355.064
Z2
Z-1.183 F600
G2 Y354.746 Z-1.5 J-0.318 K0
G1 Y353
Y-3 F800
G2 Y-3.318 Z-1.183 J0 K0.317
G1 Z5
X100.559 Y355.064
Z2
Z-1.183 F600
G2 Y354.746 Z-1.5 J-0.318 K0
G1 Y353
Y-3 F800
G2 Y-3.318 Z-1.183 J0 K0.317
G1 Z5
X99.058 Y355.064
Z2
Z-1.183 F600
G2 Y354.746 Z-1.5 J-0.318 K0
G1 Y353
Y-3 F800
G2 Y-3.318 Z-1.183 J0 K0.317
G1 Z5
X97.558 Y355.064
Z2
Z-1.183 F600
G2 Y354.746 Z-1.5 J-0.318 K0
G1 Y353
Y-3 F800
G2 Y-3.318 Z-1.183 J0 K0.317
G1 Z5
X96.057 Y355.064
Z2
Z-1.183 F600
G2 Y354.746 Z-1.5 J-0.318 K0
G1 Y353
Y-3 F800
G2 Y-3.318 Z-1.183 J0 K0.317
G1 Z5
X94.557 Y355.064
Z2
Z-1.183 F600
G2 Y354.746 Z-1.5 J-0.318 K0
G1 Y353
Y-3 F800
G2 Y-3.318 Z-1.183 J0 K0.317
G1 Z5
X93.056 Y355.064
Z2
Z-1.183 F600
G2 Y354.746 Z-1.5 J-0.318 K0
G1 Y353
Y-3 F800
G2 Y-3.318 Z-1.183 J0 K0.317
G1 Z5
X91.556 Y355.064
Z2
Z-1.183 F600
G2 Y354.746 Z-1.5 J-0.318 K0
G1 Y353
Y-3 F800
G2 Y-3.318 Z-1.183 J0 K0.317
G1 Z5
X90.055 Y355.064
Z2
Z-1.183 F600
G2 Y354.746 Z-1.5 J-0.318 K0
G1 Y353
Y-3 F800
G2 Y-3.318 Z-1.183 J0 K0.317
G1 Z5
X88.555 Y355.064
Z2
Z-1.183 F600
G2 Y354.746 Z-1.5 J-0.318 K0
G1 Y353
Y-3 F800
G2 Y-3.318 Z-1.183 J0 K0.317
G1 Z5
X87.054 Y355.064
Z2
Z-1.183 F600
G2 Y354.746 Z-1.5 J-0.318 K0
G1 Y353
Y-3 F800
G2 Y-3.318 Z-1.183 J0 K0.317
G1 Z5
X85.554 Y355.064
Z2
Z-1.183 F600
G2 Y354.746 Z-1.5 J-0.318 K0
G1 Y353
Y-3 F800
G2 Y-3.318 Z-1.183 J0 K0.317
G1 Z5
X84.053 Y355.064
Z2
Z-1.183 F600
G2 Y354.746 Z-1.5 J-0.318 K0
G1 Y353
Y-3 F800
G2 Y-3.318 Z-1.183 J0 K0.317
G1 Z5
X82.553 Y355.064
Z2
Z-1.183 F600
G2 Y354.746 Z-1.5 J-0.318 K0
G1 Y353
Y-3 F800
G2 Y-3.318 Z-1.183 J0 K0.317
G1 Z5
X81.052 Y355.064
Z2
Z-1.183 F600
G2 Y354.746 Z-1.5 J-0.318 K0
G1 Y353
Y-3 F800
G2 Y-3.318 Z-1.183 J0 K0.317
G1 Z5
X79.551 Y355.064
Z2
Z-1.183 F600
G2 Y354.746 Z-1.5 J-0.318 K0
G1 Y353
Y-3 F800
G2 Y-3.318 Z-1.183 J0 K0.317
G1 Z5
X78.051 Y355.064
Z2
Z-1.183 F600
G2 Y354.746 Z-1.5 J-0.318 K0
G1 Y353
Y-3 F800
G2 Y-3.318 Z-1.183 J0 K0.317
G1 Z5
X76.55 Y355.064
Z2
Z-1.183 F600
G2 Y354.746 Z-1.5 J-0.318 K0
G1 Y353
Y-3 F800
G2 Y-3.318 Z-1.183 J0 K0.317
G1 Z5
X75.05 Y355.064
Z2
Z-1.183 F600
G2 Y354.746 Z-1.5 J-0.318 K0
G1 Y353
Y-3 F800
G2 Y-3.318 Z-1.183 J0 K0.317
G1 Z5
X73.549 Y355.064
Z2
Z-1.183 F600
G2 Y354.746 Z-1.5 J-0.318 K0
G1 Y353
Y-3 F800
G2 Y-3.318 Z-1.183 J0 K0.317
G1 Z5
X72.049 Y355.064
Z2
Z-1.183 F600
G2 Y354.746 Z-1.5 J-0.318 K0
G1 Y353
Y-3 F800
G2 Y-3.318 Z-1.183 J0 K0.317
G1 Z5
X70.548 Y355.064
Z2
Z-1.183 F600
G2 Y354.746 Z-1.5 J-0.318 K0
G1 Y353
Y-3 F800
G2 Y-3.318 Z-1.183 J0 K0.317
G1 Z5
X69.048 Y355.064
Z2
Z-1.183 F600
G2 Y354.746 Z-1.5 J-0.318 K0
G1 Y353
Y-3 F800
G2 Y-3.318 Z-1.183 J0 K0.317
G1 Z5
X67.547 Y355.064
Z2
Z-1.183 F600
G2 Y354.746 Z-1.5 J-0.318 K0
G1 Y353
Y-3 F800
G2 Y-3.318 Z-1.183 J0 K0.317
G1 Z5
X66.047 Y355.064
Z2
Z-1.183 F600
G2 Y354.746 Z-1.5 J-0.318 K0
G1 Y353
Y-3 F800
G2 Y-3.318 Z-1.183 J0 K0.317
G1 Z5
X64.546 Y355.064
Z2
Z-1.183 F600
G2 Y354.746 Z-1.5 J-0.318 K0
G1 Y353
Y-3 F800
G2 Y-3.318 Z-1.183 J0 K0.317
G1 Z5
X63.046 Y355.064
Z2
Z-1.183 F600
G2 Y354.746 Z-1.5 J-0.318 K0
G1 Y353
Y-3 F800
G2 Y-3.318 Z-1.183 J0 K0.317
G1 Z5
X61.545 Y355.064
Z2
Z-1.183 F600
G2 Y354.746 Z-1.5 J-0.318 K0
G1 Y353
Y-3 F800
G2 Y-3.318 Z-1.183 J0 K0.317
G1 Z5
X60.045 Y355.064
Z2
Z-1.183 F600
G2 Y354.746 Z-1.5 J-0.318 K0
G1 Y353
Y-3 F800
G2 Y-3.318 Z-1.183 J0 K0.317
G1 Z5
X58.544 Y355.064
Z2
Z-1.183 F600
G2 Y354.746 Z-1.5 J-0.318 K0
G1 Y353
Y-3 F800
G2 Y-3.318 Z-1.183 J0 K0.317
G1 Z5
X57.044 Y355.064
Z2
Z-1.183 F600
G2 Y354.746 Z-1.5 J-0.318 K0
G1 Y353
Y-3 F800
G2 Y-3.318 Z-1.183 J0 K0.317
G1 Z5
X55.543 Y355.064
Z2
Z-1.183 F600
G2 Y354.746 Z-1.5 J-0.318 K0
G1 Y353
Y-3 F800
G2 Y-3.318 Z-1.183 J0 K0.317
G1 Z5
X54.043 Y355.064
Z2
Z-1.183 F600
G2 Y354.746 Z-1.5 J-0.318 K0
G1 Y353
Y-3 F800
G2 Y-3.318 Z-1.183 J0 K0.317
G1 Z5
X52.542 Y355.064
Z2
Z-1.183 F600
G2 Y354.746 Z-1.5 J-0.318 K0
G1 Y353
Y-3 F800
G2 Y-3.318 Z-1.183 J0 K0.317
G1 Z5
X51.042 Y355.064
Z2
Z-1.183 F600
G2 Y354.746 Z-1.5 J-0.318 K0
G1 Y353
Y-3 F800
G2 Y-3.318 Z-1.183 J0 K0.317
G1 Z5
X49.541 Y355.064
Z2
Z-1.183 F600
G2 Y354.746 Z-1.5 J-0.318 K0
G1 Y353
Y-3 F800
G2 Y-3.318 Z-1.183 J0 K0.317
G1 Z5
X48.04 Y355.064
Z2
Z-1.183 F600
G2 Y354.746 Z-1.5 J-0.318 K0
G1 Y353
Y-3 F800
G2 Y-3.318 Z-1.183 J0 K0.317
G1 Z5
X46.54 Y355.064
Z2
Z-1.183 F600
G2 Y354.746 Z-1.5 J-0.318 K0
G1 Y353
Y-3 F800
G2 Y-3.318 Z-1.183 J0 K0.317
G1 Z5
X45.039 Y355.064
Z2
Z-1.183 F600
G2 Y354.746 Z-1.5 J-0.318 K0
G1 Y353
Y-3 F800
G2 Y-3.318 Z-1.183 J0 K0.317
G1 Z5
X43.539 Y355.064
Z2
Z-1.183 F600
G2 Y354.746 Z-1.5 J-0.318 K0
G1 Y353
Y-3 F800
G2 Y-3.318 Z-1.183 J0 K0.317
G1 Z5
X42.038 Y355.064
Z2
Z-1.183 F600
G2 Y354.746 Z-1.5 J-0.318 K0
G1 Y353
Y-3 F800
G2 Y-3.318 Z-1.183 J0 K0.317
G1 Z5
X40.538 Y355.064
Z2
Z-1.183 F600
G2 Y354.746 Z-1.5 J-0.318 K0
G1 Y353
Y-3 F800
G2 Y-3.318 Z-1.183 J0 K0.317
G1 Z5
X39.037 Y355.064
Z2
Z-1.183 F600
G2 Y354.746 Z-1.5 J-0.318 K0
G1 Y353
Y-3 F800
G2 Y-3.318 Z-1.183 J0 K0.317
G1 Z5
X37.537 Y355.064
Z2
Z-1.183 F600
G2 Y354.746 Z-1.5 J-0.318 K0
G1 Y353
Y-3 F800
G2 Y-3.318 Z-1.183 J0 K0.317
G1 Z5
X36.036 Y355.064
Z2
Z-1.183 F600
G2 Y354.746 Z-1.5 J-0.318 K0
G1 Y353
Y-3 F800
G2 Y-3.318 Z-1.183 J0 K0.317
G1 Z5
X34.536 Y355.064
Z2
Z-1.183 F600
G2 Y354.746 Z-1.5 J-0.318 K0
G1 Y353
Y-3 F800
G2 Y-3.318 Z-1.183 J0 K0.317
G1 Z5
X33.035 Y355.064
Z2
Z-1.183 F600
G2 Y354.746 Z-1.5 J-0.318 K0
G1 Y353
Y-3 F800
G2 Y-3.318 Z-1.183 J0 K0.317
G1 Z5
X31.535 Y355.064
Z2
Z-1.183 F600
G2 Y354.746 Z-1.5 J-0.318 K0
G1 Y353
Y-3 F800
G2 Y-3.318 Z-1.183 J0 K0.317
G1 Z5
X30.034 Y355.064
Z2
Z-1.183 F600
G2 Y354.746 Z-1.5 J-0.318 K0
G1 Y353
Y-3 F800
G2 Y-3.318 Z-1.183 J0 K0.317
G1 Z5
X28.534 Y355.064
Z2
Z-1.183 F600
G2 Y354.746 Z-1.5 J-0.318 K0
G1 Y353
Y-3 F800
G2 Y-3.318 Z-1.183 J0 K0.317
G1 Z5
X27.033 Y355.064
Z2
Z-1.183 F600
G2 Y354.746 Z-1.5 J-0.318 K0
G1 Y353
Y-3 F800
G2 Y-3.318 Z-1.183 J0 K0.317
G1 Z5
X25.533 Y355.064
Z2
Z-1.183 F600
G2 Y354.746 Z-1.5 J-0.318 K0
G1 Y353
Y-3 F800
G2 Y-3.318 Z-1.183 J0 K0.317
G1 Z5
X24.032 Y355.064
Z2
Z-1.183 F600
G2 Y354.746 Z-1.5 J-0.318 K0
G1 Y353
Y-3 F800
G2 Y-3.318 Z-1.183 J0 K0.317
G1 Z5
X22.532 Y355.064
Z2
Z-1.183 F600
G2 Y354.746 Z-1.5 J-0.318 K0
G1 Y353
Y-3 F800
G2 Y-3.318 Z-1.183 J0 K0.317
G1 Z5
X21.031 Y355.064
Z2
Z-1.183 F600
G2 Y354.746 Z-1.5 J-0.318 K0
G1 Y353
Y-3 F800
G2 Y-3.318 Z-1.183 J0 K0.317
G1 Z5
X19.531 Y355.064
Z2
Z-1.183 F600
G2 Y354.746 Z-1.5 J-0.318 K0
G1 Y353
Y-3 F800
G2 Y-3.318 Z-1.183 J0 K0.317
G1 Z5
X18.03 Y355.064
Z2
Z-1.183 F600
G2 Y354.746 Z-1.5 J-0.318 K0
G1 Y353
Y-3 F800
G2 Y-3.318 Z-1.183 J0 K0.317
G1 Z5
X16.529 Y355.064
Z2
Z-1.183 F600
G2 Y354.746 Z-1.5 J-0.318 K0
G1 Y353
Y-3 F800
G2 Y-3.318 Z-1.183 J0 K0.317
G1 Z5
X15.029 Y355.064
Z2
Z-1.183 F600
G2 Y354.746 Z-1.5 J-0.318 K0
G1 Y353
Y-3 F800
G2 Y-3.318 Z-1.183 J0 K0.317
G1 Z5
X13.528 Y355.008
Z2
Z-1.183 F600
G2 Y354.69 Z-1.5 J-0.318 K0
G1 Y353
Y-3 F800
G2 Y-3.318 Z-1.183 J0 K0.317
G1 Z5
X12.028 Y354.643
Z2
Z-1.183 F600
G2 Y354.325 Z-1.5 J-0.318 K0
G1 Y352.941
Y-2.941 F800
G2 Y-3.258 Z-1.183 J0 K0.317
G1 Z5
X10.527 Y353.868
Z2
Z-1.183 F600
G2 Y353.55 Z-1.5 J-0.317 K0
G1 Y352.462
Y-2.462 F800
G2 Y-2.779 Z-1.183 J0 K0.317
G1 Z5
X9.027 Y352.444
Z2
Z-1.183 F600
G2 Y352.127 Z-1.5 J-0.318 K0
G1 Y351.309
Y-1.309 F800
G2 Y-1.627 Z-1.183 J0 K0.317
G1 Z5
X7.526 Y348.472
Z2
Z-1.183 F600
G2 Y348.155 Z-1.5 J-0.318 K0
G1 Y347.333
Y2.667 F800
G2 Y2.35 Z-1.183 J0 K0.317
G1 Z5
X6.026 Y345.439
Z2
Z-1.183 F600
G2 Y345.122 Z-1.5 J-0.318 K0
G1 Y344.324
Y5.676 F800
G2 Y5.359 Z-1.183 J0 K0.317
G1 Z5
X4.525 Y344.024
Z2
Z-1.183 F600
G2 Y343.706 Z-1.5 J-0.318 K0
G1 Y342.734
Y7.266 F800
G2 Y6.949 Z-1.183 J0 K0.317
G1 Z5
X3.025 Y343.181
Z2
Z-1.183 F600
G2 Y342.863 Z-1.5 J-0.318 K0
G1 Y341.7
Y8.3 F800
G2 Y7.983 Z-1.183 J0 K0.317
G1 Z5
X1.524 Y342.717
Z2
Z-1.183 F600
G2 Y342.4 Z-1.5 J-0.318 K0
G1 Y341.025
Y8.976 F800
G2 Y8.658 Z-1.183 J0 K0.317
G1 Z5
X0.024 Y342.405
Z2
Z-1.183 F600
G2 Y342.087 Z-1.5 J-0.318 K0
G1 Y340.643
Y9.357 F800
G2 Y9.04 Z-1.183 J0 K0.317
G1 Z5
X-1.477 Y341.733
Z2
Z-1.183 F600
G2 Y341.415 Z-1.5 J-0.318 K0
G1 Y340.268
Y9.733 F800
G2 Y9.415 Z-1.183 J0 K0.317
G1 Z5
X138.072 Y340.398
Z2
Z-2.682 F600
G2 Y340.08 Z-3 J-0.318 K0
G1 Y339.219
Y10.782 F800
G2 Y10.464 Z-2.682 J0 K0.318
G1 Z5
X136.571 Y341.674
Z2
Z-2.682 F600
G2 Y341.357 Z-3 J-0.318 K0
G1 Y340.225
Y9.775 F800
G2 Y9.457 Z-2.682 J0 K0.318
G1 Z5
X135.071 Y342.373
Z2
Z-2.682 F600
G2 Y342.055 Z-3 J-0.318 K0
G1 Y340.627
Y9.374 F800
G2 Y9.056 Z-2.682 J0 K0.318
G1 Z5
X133.57 Y342.701
Z2
Z-2.682 F600
G2 Y342.384 Z-3 J-0.317 K0
G1 Y340.995
Y9.006 F800
G2 Y8.688 Z-2.682 J0 K0.318
G1 Z5
X132.07 Y343.144
Z2
Z-2.682 F600
G2 Y342.826 Z-3 J-0.318 K0
G1 Y341.649
Y8.351 F800
G2 Y8.034 Z-2.682 J0 K0.318
G1 Z5
X130.569 Y343.957
Z2
Z-2.682 F600
G2 Y343.639 Z-3 J-0.318 K0
G1 Y342.656
Y7.344 F800
G2 Y7.026 Z-2.682 J0 K0.318
G1 Z5
X129.069 Y345.329
Z2
Z-2.682 F600
G2 Y345.012 Z-3 J-0.318 K0
G1 Y344.195
Y5.806 F800
G2 Y5.488 Z-2.682 J0 K0.318
G1 Z5
X127.568 Y348.118
Z2
Z-2.682 F600
G2 Y347.8 Z-3 J-0.318 K0
G1 Y347.028
Y2.972 F800
G2 Y2.654 Z-2.682 J0 K0.318
G1 Z5
X126.068 Y352.315
Z2
Z-2.682 F600
G2 Y351.997 Z-3 J-0.317 K0
G1 Y351.194
Y-1.194 F800
G2 Y-1.512 Z-2.682 J0 K0.318
G1 Z5
X124.567 Y353.798
Z2
Z-2.682 F600
G2 Y353.48 Z-3 J-0.318 K0
G1 Y352.415
Y-2.415 F800
G2 Y-2.732 Z-2.682 J0 K0.318
G1 Z5
X123.067 Y354.61
Z2
Z-2.682 F600
G2 Y354.292 Z-3 J-0.318 K0
G1 Y352.929
Y-2.929 F800
G2 Y-3.246 Z-2.682 J0 K0.318
G1 Z5
X121.566 Y354.997
Z2
Z-2.682 F600
G2 Y354.68 Z-3 J-0.318 K0
G1 Y353
Y-3 F800
G2 Y-3.318 Z-2.682 J0 K0.318
G1 Z5
X120.066 Y355.064
Z2
Z-2.682 F600
G2 Y354.746 Z-3 J-0.318 K0
G1 Y353
Y-3 F800
G2 Y-3.318 Z-2.682 J0 K0.318
G1 Z5
X118.565 Y355.064
Z2
Z-2.682 F600
G2 Y354.746 Z-3 J-0.318 K0
G1 Y353
Y-3 F800
G2 Y-3.318 Z-2.682 J0 K0.318
G1 Z5
X117.065 Y355.064
Z2
Z-2.682 F600
G2 Y354.746 Z-3 J-0.318 K0
G1 Y353
Y-3 F800
G2 Y-3.318 Z-2.682 J0 K0.318
G1 Z5
X115.564 Y355.064
Z2
Z-2.682 F600
G2 Y354.746 Z-3 J-0.318 K0
G1 Y353
Y-3 F800
G2 Y-3.318 Z-2.682 J0 K0.318
G1 Z5
X114.064 Y355.064
Z2
Z-2.682 F600
G2 Y354.746 Z-3 J-0.318 K0
G1 Y353
Y-3 F800
G2 Y-3.318 Z-2.682 J0 K0.318
G1 Z5
X112.563 Y355.064
Z2
Z-2.682 F600
G2 Y354.746 Z-3 J-0.318 K0
G1 Y353
Y-3 F800
G2 Y-3.318 Z-2.682 J0 K0.318
G1 Z5
X111.062 Y355.064
Z2
Z-2.682 F600
G2 Y354.746 Z-3 J-0.318 K0
G1 Y353
Y-3 F800
G2 Y-3.318 Z-2.682 J0 K0.318
G1 Z5
X109.562 Y355.064
Z2
Z-2.682 F600
G2 Y354.746 Z-3 J-0.318 K0
G1 Y353
Y-3 F800
G2 Y-3.318 Z-2.682 J0 K0.318
G1 Z5
X108.061 Y355.064
Z2
Z-2.682 F600
G2 Y354.746 Z-3 J-0.318 K0
G1 Y353
Y-3 F800
G2 Y-3.318 Z-2.682 J0 K0.318
G1 Z5
X106.561 Y355.064
Z2
Z-2.682 F600
G2 Y354.746 Z-3 J-0.318 K0
G1 Y353
Y-3 F800
G2 Y-3.318 Z-2.682 J0 K0.318
G1 Z5
X105.06 Y355.064
Z2
Z-2.682 F600
G2 Y354.746 Z-3 J-0.318 K0
G1 Y353
Y-3 F800
G2 Y-3.318 Z-2.682 J0 K0.318
G1 Z5
X103.56 Y355.064
Z2
Z-2.682 F600
G2 Y354.746 Z-3 J-0.318 K0
G1 Y353
Y-3 F800
G2 Y-3.318 Z-2.682 J0 K0.318
G1 Z5
X102.059 Y355.064
Z2
Z-2.682 F600
G2 Y354.746 Z-3 J-0.318 K0
G1 Y353
Y-3 F800
G2 Y-3.318 Z-2.682 J0 K0.318
G1 Z5
X100.559 Y355.064
Z2
Z-2.682 F600
G2 Y354.746 Z-3 J-0.318 K0
G1 Y353
Y-3 F800
G2 Y-3.318 Z-2.682 J0 K0.318
G1 Z5
X99.058 Y355.064
Z2
Z-2.682 F600
G2 Y354.746 Z-3 J-0.318 K0
G1 Y353
Y-3 F800
G2 Y-3.318 Z-2.682 J0 K0.318
G1 Z5
X97.558 Y355.064
Z2
Z-2.682 F600
G2 Y354.746 Z-3 J-0.318 K0
G1 Y353
Y-3 F800
G2 Y-3.318 Z-2.682 J0 K0.318
G1 Z5
X96.057 Y355.064
Z2
Z-2.682 F600
G2 Y354.746 Z-3 J-0.318 K0
G1 Y353
Y-3 F800
G2 Y-3.318 Z-2.682 J0 K0.318
G1 Z5
X94.557 Y355.064
Z2
Z-2.682 F600
G2 Y354.746 Z-3 J-0.318 K0
G1 Y353
Y-3 F800
G2 Y-3.318 Z-2.682 J0 K0.318
G1 Z5
X93.056 Y355.064
Z2
Z-2.682 F600
G2 Y354.746 Z-3 J-0.318 K0
G1 Y353
Y-3 F800
G2 Y-3.318 Z-2.682 J0 K0.318
G1 Z5
X91.556 Y355.064
Z2
Z-2.682 F600
G2 Y354.746 Z-3 J-0.318 K0
G1 Y353
Y-3 F800
G2 Y-3.318 Z-2.682 J0 K0.318
G1 Z5
X90.055 Y355.064
Z2
Z-2.682 F600
G2 Y354.746 Z-3 J-0.318 K0
G1 Y353
Y-3 F800
G2 Y-3.318 Z-2.682 J0 K0.318
G1 Z5
X88.555 Y355.064
Z2
Z-2.682 F600
G2 Y354.746 Z-3 J-0.318 K0
G1 Y353
Y-3 F800
G2 Y-3.318 Z-2.682 J0 K0.318
G1 Z5
X87.054 Y355.064
Z2
Z-2.682 F600
G2 Y354.746 Z-3 J-0.318 K0
G1 Y353
Y-3 F800
G2 Y-3.318 Z-2.682 J0 K0.318
G1 Z5
X85.554 Y355.064
Z2
Z-2.682 F600
G2 Y354.746 Z-3 J-0.318 K0
G1 Y353
Y-3 F800
G2 Y-3.318 Z-2.682 J0 K0.318
G1 Z5
X84.053 Y355.064
Z2
Z-2.682 F600
G2 Y354.746 Z-3 J-0.318 K0
G1 Y353
Y-3 F800
G2 Y-3.318 Z-2.682 J0 K0.318
G1 Z5
X82.553 Y355.064
Z2
Z-2.682 F600
G2 Y354.746 Z-3 J-0.318 K0
G1 Y353
Y-3 F800
G2 Y-3.318 Z-2.682 J0 K0.318
G1 Z5
X81.052 Y355.064
Z2
Z-2.682 F600
G2 Y354.746 Z-3 J-0.318 K0
G1 Y353
Y-3 F800
G2 Y-3.318 Z-2.682 J0 K0.318
G1 Z5
X79.551 Y355.064
Z2
Z-2.682 F600
G2 Y354.746 Z-3 J-0.318 K0
G1 Y353
Y-3 F800
G2 Y-3.318 Z-2.682 J0 K0.318
G1 Z5
X78.051 Y355.064
Z2
Z-2.682 F600
G2 Y354.746 Z-3 J-0.318 K0
G1 Y353
Y-3 F800
G2 Y-3.318 Z-2.682 J0 K0.318
G1 Z5
X76.55 Y355.064
Z2
Z-2.682 F600
G2 Y354.746 Z-3 J-0.318 K0
G1 Y353
Y-3 F800
G2 Y-3.318 Z-2.682 J0 K0.318
G1 Z5
X75.05 Y355.064
Z2
Z-2.682 F600
G2 Y354.746 Z-3 J-0.318 K0
G1 Y353
Y-3 F800
G2 Y-3.318 Z-2.682 J0 K0.318
G1 Z5
X73.549 Y355.064
Z2
Z-2.682 F600
G2 Y354.746 Z-3 J-0.318 K0
G1 Y353
Y-3 F800
G2 Y-3.318 Z-2.682 J0 K0.318
G1 Z5
X72.049 Y355.064
Z2
Z-2.682 F600
G2 Y354.746 Z-3 J-0.318 K0
G1 Y353
Y-3 F800
G2 Y-3.318 Z-2.682 J0 K0.318
G1 Z5
X70.548 Y355.064
Z2
Z-2.682 F600
G2 Y354.746 Z-3 J-0.318 K0
G1 Y353
Y-3 F800
G2 Y-3.318 Z-2.682 J0 K0.318
G1 Z5
X69.048 Y355.064
Z2
Z-2.682 F600
G2 Y354.746 Z-3 J-0.318 K0
G1 Y353
Y-3 F800
G2 Y-3.318 Z-2.682 J0 K0.318
G1 Z5
X67.547 Y355.064
Z2
Z-2.682 F600
G2 Y354.746 Z-3 J-0.318 K0
G1 Y353
Y-3 F800
G2 Y-3.318 Z-2.682 J0 K0.318
G1 Z5
X66.047 Y355.064
Z2
Z-2.682 F600
G2 Y354.746 Z-3 J-0.318 K0
G1 Y353
Y-3 F800
G2 Y-3.318 Z-2.682 J0 K0.318
G1 Z5
X64.546 Y355.064
Z2
Z-2.682 F600
G2 Y354.746 Z-3 J-0.318 K0
G1 Y353
Y-3 F800
G2 Y-3.318 Z-2.682 J0 K0.318
G1 Z5
X63.046 Y355.064
Z2
Z-2.682 F600
G2 Y354.746 Z-3 J-0.318 K0
G1 Y353
Y-3 F800
G2 Y-3.318 Z-2.682 J0 K0.318
G1 Z5
X61.545 Y355.064
Z2
Z-2.682 F600
G2 Y354.746 Z-3 J-0.318 K0
G1 Y353
Y-3 F800
G2 Y-3.318 Z-2.682 J0 K0.318
G1 Z5
X60.045 Y355.064
Z2
Z-2.682 F600
G2 Y354.746 Z-3 J-0.318 K0
G1 Y353
Y-3 F800
G2 Y-3.318 Z-2.682 J0 K0.318
G1 Z5
X58.544 Y355.064
Z2
Z-2.682 F600
G2 Y354.746 Z-3 J-0.318 K0
G1 Y353
Y-3 F800
G2 Y-3.318 Z-2.682 J0 K0.318
G1 Z5
X57.044 Y355.064
Z2
Z-2.682 F600
G2 Y354.746 Z-3 J-0.318 K0
G1 Y353
Y-3 F800
G2 Y-3.318 Z-2.682 J0 K0.318
G1 Z5
X55.543 Y355.064
Z2
Z-2.682 F600
G2 Y354.746 Z-3 J-0.318 K0
G1 Y353
Y-3 F800
G2 Y-3.318 Z-2.682 J0 K0.318
G1 Z5
X54.043 Y355.064
Z2
Z-2.682 F600
G2 Y354.746 Z-3 J-0.318 K0
G1 Y353
Y-3 F800
G2 Y-3.318 Z-2.682 J0 K0.318
G1 Z5
X52.542 Y355.064
Z2
Z-2.682 F600
G2 Y354.746 Z-3 J-0.318 K0
G1 Y353
Y-3 F800
G2 Y-3.318 Z-2.682 J0 K0.318
G1 Z5
X51.042 Y355.064
Z2
Z-2.682 F600
G2 Y354.746 Z-3 J-0.318 K0
G1 Y353
Y-3 F800
G2 Y-3.318 Z-2.682 J0 K0.318
G1 Z5
X49.541 Y355.064
Z2
Z-2.682 F600
G2 Y354.746 Z-3 J-0.318 K0
G1 Y353
Y-3 F800
G2 Y-3.318 Z-2.682 J0 K0.318
G1 Z5
X48.04 Y355.064
Z2
Z-2.682 F600
G2 Y354.746 Z-3 J-0.318 K0
G1 Y353
Y-3 F800
G2 Y-3.318 Z-2.682 J0 K0.318
G1 Z5
X46.54 Y355.064
Z2
Z-2.682 F600
G2 Y354.746 Z-3 J-0.318 K0
G1 Y353
Y-3 F800
G2 Y-3.318 Z-2.682 J0 K0.318
G1 Z5
X45.039 Y355.064
Z2
Z-2.682 F600
G2 Y354.746 Z-3 J-0.318 K0
G1 Y353
Y-3 F800
G2 Y-3.318 Z-2.682 J0 K0.318
G1 Z5
X43.539 Y355.064
Z2
Z-2.682 F600
G2 Y354.746 Z-3 J-0.318 K0
G1 Y353
Y-3 F800
G2 Y-3.318 Z-2.682 J0 K0.318
G1 Z5
X42.038 Y355.064
Z2
Z-2.682 F600
G2 Y354.746 Z-3 J-0.318 K0
G1 Y353
Y-3 F800
G2 Y-3.318 Z-2.682 J0 K0.318
G1 Z5
X40.538 Y355.064
Z2
Z-2.682 F600
G2 Y354.746 Z-3 J-0.318 K0
G1 Y353
Y-3 F800
G2 Y-3.318 Z-2.682 J0 K0.318
G1 Z5
X39.037 Y355.064
Z2
Z-2.682 F600
G2 Y354.746 Z-3 J-0.318 K0
G1 Y353
Y-3 F800
G2 Y-3.318 Z-2.682 J0 K0.318
G1 Z5
X37.537 Y355.064
Z2
Z-2.682 F600
G2 Y354.746 Z-3 J-0.318 K0
G1 Y353
Y-3 F800
G2 Y-3.318 Z-2.682 J0 K0.318
G1 Z5
X36.036 Y355.064
Z2
Z-2.682 F600
G2 Y354.746 Z-3 J-0.318 K0
G1 Y353
Y-3 F800
G2 Y-3.318 Z-2.682 J0 K0.318
G1 Z5
X34.536 Y355.064
Z2
Z-2.682 F600
G2 Y354.746 Z-3 J-0.318 K0
G1 Y353
Y-3 F800
G2 Y-3.318 Z-2.682 J0 K0.318
G1 Z5
X33.035 Y355.064
Z2
Z-2.682 F600
G2 Y354.746 Z-3 J-0.318 K0
G1 Y353
Y-3 F800
G2 Y-3.318 Z-2.682 J0 K0.318
G1 Z5
X31.535 Y355.064
Z2
Z-2.682 F600
G2 Y354.746 Z-3 J-0.318 K0
G1 Y353
Y-3 F800
G2 Y-3.318 Z-2.682 J0 K0.318
G1 Z5
X30.034 Y355.064
Z2
Z-2.682 F600
G2 Y354.746 Z-3 J-0.318 K0
G1 Y353
Y-3 F800
G2 Y-3.318 Z-2.682 J0 K0.318
G1 Z5
X28.534 Y355.064
Z2
Z-2.682 F600
G2 Y354.746 Z-3 J-0.318 K0
G1 Y353
Y-3 F800
G2 Y-3.318 Z-2.682 J0 K0.318
G1 Z5
X27.033 Y355.064
Z2
Z-2.682 F600
G2 Y354.746 Z-3 J-0.318 K0
G1 Y353
Y-3 F800
G2 Y-3.318 Z-2.682 J0 K0.318
G1 Z5
X25.533 Y355.064
Z2
Z-2.682 F600
G2 Y354.746 Z-3 J-0.318 K0
G1 Y353
Y-3 F800
G2 Y-3.318 Z-2.682 J0 K0.318
G1 Z5
X24.032 Y355.064
Z2
Z-2.682 F600
G2 Y354.746 Z-3 J-0.318 K0
G1 Y353
Y-3 F800
G2 Y-3.318 Z-2.682 J0 K0.318
G1 Z5
X22.532 Y355.064
Z2
Z-2.682 F600
G2 Y354.746 Z-3 J-0.318 K0
G1 Y353
Y-3 F800
G2 Y-3.318 Z-2.682 J0 K0.318
G1 Z5
X21.031 Y355.064
Z2
Z-2.682 F600
G2 Y354.746 Z-3 J-0.318 K0
G1 Y353
Y-3 F800
G2 Y-3.318 Z-2.682 J0 K0.318
G1 Z5
X19.531 Y355.064
Z2
Z-2.682 F600
G2 Y354.746 Z-3 J-0.318 K0
G1 Y353
Y-3 F800
G2 Y-3.318 Z-2.682 J0 K0.318
G1 Z5
X18.03 Y355.064
Z2
Z-2.682 F600
G2 Y354.746 Z-3 J-0.318 K0
G1 Y353
Y-3 F800
G2 Y-3.318 Z-2.682 J0 K0.318
G1 Z5
X16.529 Y355.064
Z2
Z-2.682 F600
G2 Y354.746 Z-3 J-0.318 K0
G1 Y353
Y-3 F800
G2 Y-3.318 Z-2.682 J0 K0.318
G1 Z5
X15.029 Y355.064
Z2
Z-2.682 F600
G2 Y354.746 Z-3 J-0.318 K0
G1 Y353
Y-3 F800
G2 Y-3.318 Z-2.682 J0 K0.318
G1 Z5
X13.528 Y355.008
Z2
Z-2.682 F600
G2 Y354.69 Z-3 J-0.318 K0
G1 Y353
Y-3 F800
G2 Y-3.318 Z-2.682 J0 K0.318
G1 Z5
X12.028 Y354.643
Z2
Z-2.682 F600
G2 Y354.325 Z-3 J-0.318 K0
G1 Y352.941
Y-2.941 F800
G2 Y-3.258 Z-2.682 J0 K0.318
G1 Z5
X10.527 Y353.868
Z2
Z-2.682 F600
G2 Y353.55 Z-3 J-0.317 K0
G1 Y352.462
Y-2.462 F800
G2 Y-2.779 Z-2.682 J0 K0.318
G1 Z5
X9.027 Y352.444
Z2
Z-2.682 F600
G2 Y352.127 Z-3 J-0.318 K0
G1 Y351.309
Y-1.309 F800
G2 Y-1.627 Z-2.682 J0 K0.318
G1 Z5
X7.526 Y348.472
Z2
Z-2.682 F600
G2 Y348.155 Z-3 J-0.318 K0
G1 Y347.333
Y2.667 F800
G2 Y2.35 Z-2.682 J0 K0.318
G1 Z5
X6.026 Y345.439
Z2
Z-2.682 F600
G2 Y345.122 Z-3 J-0.318 K0
G1 Y344.324
Y5.676 F800
G2 Y5.359 Z-2.682 J0 K0.318
G1 Z5
X4.525 Y344.024
Z2
Z-2.682 F600
G2 Y343.706 Z-3 J-0.318 K0
G1 Y342.734
Y7.266 F800
G2 Y6.949 Z-2.682 J0 K0.318
G1 Z5
X3.025 Y343.181
Z2
Z-2.682 F600
G2 Y342.863 Z-3 J-0.318 K0
G1 Y341.7
Y8.3 F800
G2 Y7.983 Z-2.682 J0 K0.318
G1 Z5
X1.524 Y342.717
Z2
Z-2.682 F600
G2 Y342.4 Z-3 J-0.318 K0
G1 Y341.025
Y8.976 F800
G2 Y8.658 Z-2.682 J0 K0.318
G1 Z5
X0.024 Y342.405
Z2
Z-2.682 F600
G2 Y342.087 Z-3 J-0.318 K0
G1 Y340.643
Y9.357 F800
G2 Y9.04 Z-2.682 J0 K0.318
G1 Z5
X-1.477 Y341.733
Z2
Z-2.682 F600
G2 Y341.415 Z-3 J-0.318 K0
G1 Y340.268
Y9.733 F800
G2 Y9.415 Z-2.682 J0 K0.318
G1 Z5
X138.072 Y340.398
Z2
Z-3.182 F600
G2 Y340.08 Z-3.5 J-0.318 K0
G1 Y339.219
Y10.782 F800
G2 Y10.464 Z-3.182 J0 K0.318
G1 Z5
X136.571 Y341.674
Z2
Z-3.182 F600
G2 Y341.357 Z-3.5 J-0.318 K0
G1 Y340.225
Y9.775 F800
G2 Y9.457 Z-3.182 J0 K0.318
G1 Z5
X135.071 Y342.373
Z2
Z-3.182 F600
G2 Y342.055 Z-3.5 J-0.318 K0
G1 Y340.627
Y9.374 F800
G2 Y9.056 Z-3.182 J0 K0.318
G1 Z5
X133.57 Y342.701
Z2
Z-3.182 F600
G2 Y342.384 Z-3.5 J-0.317 K0
G1 Y340.995
Y9.006 F800
G2 Y8.688 Z-3.182 J0 K0.318
G1 Z5
X132.07 Y343.144
Z2
Z-3.182 F600
G2 Y342.826 Z-3.5 J-0.318 K0
G1 Y341.649
Y8.351 F800
G2 Y8.034 Z-3.182 J0 K0.318
G1 Z5
X130.569 Y343.957
Z2
Z-3.182 F600
G2 Y343.639 Z-3.5 J-0.318 K0
G1 Y342.656
Y7.344 F800
G2 Y7.026 Z-3.182 J0 K0.318
G1 Z5
X129.069 Y345.329
Z2
Z-3.182 F600
G2 Y345.012 Z-3.5 J-0.318 K0
G1 Y344.195
Y5.806 F800
G2 Y5.488 Z-3.182 J0 K0.318
G1 Z5
X127.568 Y348.118
Z2
Z-3.182 F600
G2 Y347.8 Z-3.5 J-0.318 K0
G1 Y347.028
Y2.972 F800
G2 Y2.654 Z-3.182 J0 K0.318
G1 Z5
X126.068 Y352.315
Z2
Z-3.182 F600
G2 Y351.997 Z-3.5 J-0.317 K0
G1 Y351.194
Y-1.194 F800
G2 Y-1.512 Z-3.182 J0 K0.318
G1 Z5
X124.567 Y353.798
Z2
Z-3.182 F600
G2 Y353.48 Z-3.5 J-0.318 K0
G1 Y352.415
Y-2.415 F800
G2 Y-2.732 Z-3.182 J0 K0.318
G1 Z5
X123.067 Y354.61
Z2
Z-3.182 F600
G2 Y354.292 Z-3.5 J-0.318 K0
G1 Y352.929
Y-2.929 F800
G2 Y-3.246 Z-3.182 J0 K0.318
G1 Z5
X121.566 Y354.997
Z2
Z-3.182 F600
G2 Y354.68 Z-3.5 J-0.318 K0
G1 Y353
Y-3 F800
G2 Y-3.318 Z-3.182 J0 K0.318
G1 Z5
X120.066 Y355.064
Z2
Z-3.182 F600
G2 Y354.746 Z-3.5 J-0.318 K0
G1 Y353
Y-3 F800
G2 Y-3.318 Z-3.182 J0 K0.318
G1 Z5
X118.565 Y355.064
Z2
Z-3.182 F600
G2 Y354.746 Z-3.5 J-0.318 K0
G1 Y353
Y-3 F800
G2 Y-3.318 Z-3.182 J0 K0.318
G1 Z5
X117.065 Y355.064
Z2
Z-3.182 F600
G2 Y354.746 Z-3.5 J-0.318 K0
G1 Y353
Y-3 F800
G2 Y-3.318 Z-3.182 J0 K0.318
G1 Z5
X115.564 Y355.064
Z2
Z-3.182 F600
G2 Y354.746 Z-3.5 J-0.318 K0
G1 Y353
Y-3 F800
G2 Y-3.318 Z-3.182 J0 K0.318
G1 Z5
X114.064 Y355.064
Z2
Z-3.182 F600
G2 Y354.746 Z-3.5 J-0.318 K0
G1 Y353
Y-3 F800
G2 Y-3.318 Z-3.182 J0 K0.318
G1 Z5
X112.563 Y355.064
Z2
Z-3.182 F600
G2 Y354.746 Z-3.5 J-0.318 K0
G1 Y353
Y-3 F800
G2 Y-3.318 Z-3.182 J0 K0.318
G1 Z5
X111.062 Y355.064
Z2
Z-3.182 F600
G2 Y354.746 Z-3.5 J-0.318 K0
G1 Y353
Y-3 F800
G2 Y-3.318 Z-3.182 J0 K0.318
G1 Z5
X109.562 Y355.064
Z2
Z-3.182 F600
G2 Y354.746 Z-3.5 J-0.318 K0
G1 Y353
Y-3 F800
G2 Y-3.318 Z-3.182 J0 K0.318
G1 Z5
X108.061 Y355.064
Z2
Z-3.182 F600
G2 Y354.746 Z-3.5 J-0.318 K0
G1 Y353
Y-3 F800
G2 Y-3.318 Z-3.182 J0 K0.318
G1 Z5
X106.561 Y355.064
Z2
Z-3.182 F600
G2 Y354.746 Z-3.5 J-0.318 K0
G1 Y353
Y-3 F800
G2 Y-3.318 Z-3.182 J0 K0.318
G1 Z5
X105.06 Y355.064
Z2
Z-3.182 F600
G2 Y354.746 Z-3.5 J-0.318 K0
G1 Y353
Y-3 F800
G2 Y-3.318 Z-3.182 J0 K0.318
G1 Z5
X103.56 Y355.064
Z2
Z-3.182 F600
G2 Y354.746 Z-3.5 J-0.318 K0
G1 Y353
Y-3 F800
G2 Y-3.318 Z-3.182 J0 K0.318
G1 Z5
X102.059 Y355.064
Z2
Z-3.182 F600
G2 Y354.746 Z-3.5 J-0.318 K0
G1 Y353
Y-3 F800
G2 Y-3.318 Z-3.182 J0 K0.318
G1 Z5
X100.559 Y355.064
Z2
Z-3.182 F600
G2 Y354.746 Z-3.5 J-0.318 K0
G1 Y353
Y-3 F800
G2 Y-3.318 Z-3.182 J0 K0.318
G1 Z5
X99.058 Y355.064
Z2
Z-3.182 F600
G2 Y354.746 Z-3.5 J-0.318 K0
G1 Y353
Y-3 F800
G2 Y-3.318 Z-3.182 J0 K0.318
G1 Z5
X97.558 Y355.064
Z2
Z-3.182 F600
G2 Y354.746 Z-3.5 J-0.318 K0
G1 Y353
Y-3 F800
G2 Y-3.318 Z-3.182 J0 K0.318
G1 Z5
X96.057 Y355.064
Z2
Z-3.182 F600
G2 Y354.746 Z-3.5 J-0.318 K0
G1 Y353
Y-3 F800
G2 Y-3.318 Z-3.182 J0 K0.318
G1 Z5
X94.557 Y355.064
Z2
Z-3.182 F600
G2 Y354.746 Z-3.5 J-0.318 K0
G1 Y353
Y-3 F800
G2 Y-3.318 Z-3.182 J0 K0.318
G1 Z5
X93.056 Y355.064
Z2
Z-3.182 F600
G2 Y354.746 Z-3.5 J-0.318 K0
G1 Y353
Y-3 F800
G2 Y-3.318 Z-3.182 J0 K0.318
G1 Z5
X91.556 Y355.064
Z2
Z-3.182 F600
G2 Y354.746 Z-3.5 J-0.318 K0
G1 Y353
Y-3 F800
G2 Y-3.318 Z-3.182 J0 K0.318
G1 Z5
X90.055 Y355.064
Z2
Z-3.182 F600
G2 Y354.746 Z-3.5 J-0.318 K0
G1 Y353
Y-3 F800
G2 Y-3.318 Z-3.182 J0 K0.318
G1 Z5
X88.555 Y355.064
Z2
Z-3.182 F600
G2 Y354.746 Z-3.5 J-0.318 K0
G1 Y353
Y-3 F800
G2 Y-3.318 Z-3.182 J0 K0.318
G1 Z5
X87.054 Y355.064
Z2
Z-3.182 F600
G2 Y354.746 Z-3.5 J-0.318 K0
G1 Y353
Y-3 F800
G2 Y-3.318 Z-3.182 J0 K0.318
G1 Z5
X85.554 Y355.064
Z2
Z-3.182 F600
G2 Y354.746 Z-3.5 J-0.318 K0
G1 Y353
Y-3 F800
G2 Y-3.318 Z-3.182 J0 K0.318
G1 Z5
X84.053 Y355.064
Z2
Z-3.182 F600
G2 Y354.746 Z-3.5 J-0.318 K0
G1 Y353
Y-3 F800
G2 Y-3.318 Z-3.182 J0 K0.318
G1 Z5
X82.553 Y355.064
Z2
Z-3.182 F600
G2 Y354.746 Z-3.5 J-0.318 K0
G1 Y353
Y-3 F800
G2 Y-3.318 Z-3.182 J0 K0.318
G1 Z5
X81.052 Y355.064
Z2
Z-3.182 F600
G2 Y354.746 Z-3.5 J-0.318 K0
G1 Y353
Y-3 F800
G2 Y-3.318 Z-3.182 J0 K0.318
G1 Z5
X79.551 Y355.064
Z2
Z-3.182 F600
G2 Y354.746 Z-3.5 J-0.318 K0
G1 Y353
Y-3 F800
G2 Y-3.318 Z-3.182 J0 K0.318
G1 Z5
X78.051 Y355.064
Z2
Z-3.182 F600
G2 Y354.746 Z-3.5 J-0.318 K0
G1 Y353
Y-3 F800
G2 Y-3.318 Z-3.182 J0 K0.318
G1 Z5
X76.55 Y355.064
Z2
Z-3.182 F600
G2 Y354.746 Z-3.5 J-0.318 K0
G1 Y353
Y-3 F800
G2 Y-3.318 Z-3.182 J0 K0.318
G1 Z5
X75.05 Y355.064
Z2
Z-3.182 F600
G2 Y354.746 Z-3.5 J-0.318 K0
G1 Y353
Y-3 F800
G2 Y-3.318 Z-3.182 J0 K0.318
G1 Z5
X73.549 Y355.064
Z2
Z-3.182 F600
G2 Y354.746 Z-3.5 J-0.318 K0
G1 Y353
Y-3 F800
G2 Y-3.318 Z-3.182 J0 K0.318
G1 Z5
X72.049 Y355.064
Z2
Z-3.182 F600
G2 Y354.746 Z-3.5 J-0.318 K0
G1 Y353
Y-3 F800
G2 Y-3.318 Z-3.182 J0 K0.318
G1 Z5
X70.548 Y355.064
Z2
Z-3.182 F600
G2 Y354.746 Z-3.5 J-0.318 K0
G1 Y353
Y-3 F800
G2 Y-3.318 Z-3.182 J0 K0.318
G1 Z5
X69.048 Y355.064
Z2
Z-3.182 F600
G2 Y354.746 Z-3.5 J-0.318 K0
G1 Y353
Y-3 F800
G2 Y-3.318 Z-3.182 J0 K0.318
G1 Z5
X67.547 Y355.064
Z2
Z-3.182 F600
G2 Y354.746 Z-3.5 J-0.318 K0
G1 Y353
Y-3 F800
G2 Y-3.318 Z-3.182 J0 K0.318
G1 Z5
X66.047 Y355.064
Z2
Z-3.182 F600
G2 Y354.746 Z-3.5 J-0.318 K0
G1 Y353
Y-3 F800
G2 Y-3.318 Z-3.182 J0 K0.318
G1 Z5
X64.546 Y355.064
Z2
Z-3.182 F600
G2 Y354.746 Z-3.5 J-0.318 K0
G1 Y353
Y-3 F800
G2 Y-3.318 Z-3.182 J0 K0.318
G1 Z5
X63.046 Y355.064
Z2
Z-3.182 F600
G2 Y354.746 Z-3.5 J-0.318 K0
G1 Y353
Y-3 F800
G2 Y-3.318 Z-3.182 J0 K0.318
G1 Z5
X61.545 Y355.064
Z2
Z-3.182 F600
G2 Y354.746 Z-3.5 J-0.318 K0
G1 Y353
Y-3 F800
G2 Y-3.318 Z-3.182 J0 K0.318
G1 Z5
X60.045 Y355.064
Z2
Z-3.182 F600
G2 Y354.746 Z-3.5 J-0.318 K0
G1 Y353
Y-3 F800
G2 Y-3.318 Z-3.182 J0 K0.318
G1 Z5
X58.544 Y355.064
Z2
Z-3.182 F600
G2 Y354.746 Z-3.5 J-0.318 K0
G1 Y353
Y-3 F800
G2 Y-3.318 Z-3.182 J0 K0.318
G1 Z5
X57.044 Y355.064
Z2
Z-3.182 F600
G2 Y354.746 Z-3.5 J-0.318 K0
G1 Y353
Y-3 F800
G2 Y-3.318 Z-3.182 J0 K0.318
G1 Z5
X55.543 Y355.064
Z2
Z-3.182 F600
G2 Y354.746 Z-3.5 J-0.318 K0
G1 Y353
Y-3 F800
G2 Y-3.318 Z-3.182 J0 K0.318
G1 Z5
X54.043 Y355.064
Z2
Z-3.182 F600
G2 Y354.746 Z-3.5 J-0.318 K0
G1 Y353
Y-3 F800
G2 Y-3.318 Z-3.182 J0 K0.318
G1 Z5
X52.542 Y355.064
Z2
Z-3.182 F600
G2 Y354.746 Z-3.5 J-0.318 K0
G1 Y353
Y-3 F800
G2 Y-3.318 Z-3.182 J0 K0.318
G1 Z5
X51.042 Y355.064
Z2
Z-3.182 F600
G2 Y354.746 Z-3.5 J-0.318 K0
G1 Y353
Y-3 F800
G2 Y-3.318 Z-3.182 J0 K0.318
G1 Z5
X49.541 Y355.064
Z2
Z-3.182 F600
G2 Y354.746 Z-3.5 J-0.318 K0
G1 Y353
Y-3 F800
G2 Y-3.318 Z-3.182 J0 K0.318
G1 Z5
X48.04 Y355.064
Z2
Z-3.182 F600
G2 Y354.746 Z-3.5 J-0.318 K0
G1 Y353
Y-3 F800
G2 Y-3.318 Z-3.182 J0 K0.318
G1 Z5
X46.54 Y355.064
Z2
Z-3.182 F600
G2 Y354.746 Z-3.5 J-0.318 K0
G1 Y353
Y-3 F800
G2 Y-3.318 Z-3.182 J0 K0.318
G1 Z5
X45.039 Y355.064
Z2
Z-3.182 F600
G2 Y354.746 Z-3.5 J-0.318 K0
G1 Y353
Y-3 F800
G2 Y-3.318 Z-3.182 J0 K0.318
G1 Z5
X43.539 Y355.064
Z2
Z-3.182 F600
G2 Y354.746 Z-3.5 J-0.318 K0
G1 Y353
Y-3 F800
G2 Y-3.318 Z-3.182 J0 K0.318
G1 Z5
X42.038 Y355.064
Z2
Z-3.182 F600
G2 Y354.746 Z-3.5 J-0.318 K0
G1 Y353
Y-3 F800
G2 Y-3.318 Z-3.182 J0 K0.318
G1 Z5
X40.538 Y355.064
Z2
Z-3.182 F600
G2 Y354.746 Z-3.5 J-0.318 K0
G1 Y353
Y-3 F800
G2 Y-3.318 Z-3.182 J0 K0.318
G1 Z5
X39.037 Y355.064
Z2
Z-3.182 F600
G2 Y354.746 Z-3.5 J-0.318 K0
G1 Y353
Y-3 F800
G2 Y-3.318 Z-3.182 J0 K0.318
G1 Z5
X37.537 Y355.064
Z2
Z-3.182 F600
G2 Y354.746 Z-3.5 J-0.318 K0
G1 Y353
Y-3 F800
G2 Y-3.318 Z-3.182 J0 K0.318
G1 Z5
X36.036 Y355.064
Z2
Z-3.182 F600
G2 Y354.746 Z-3.5 J-0.318 K0
G1 Y353
Y-3 F800
G2 Y-3.318 Z-3.182 J0 K0.318
G1 Z5
X34.536 Y355.064
Z2
Z-3.182 F600
G2 Y354.746 Z-3.5 J-0.318 K0
G1 Y353
Y-3 F800
G2 Y-3.318 Z-3.182 J0 K0.318
G1 Z5
X33.035 Y355.064
Z2
Z-3.182 F600
G2 Y354.746 Z-3.5 J-0.318 K0
G1 Y353
Y-3 F800
G2 Y-3.318 Z-3.182 J0 K0.318
G1 Z5
X31.535 Y355.064
Z2
Z-3.182 F600
G2 Y354.746 Z-3.5 J-0.318 K0
G1 Y353
Y-3 F800
G2 Y-3.318 Z-3.182 J0 K0.318
G1 Z5
X30.034 Y355.064
Z2
Z-3.182 F600
G2 Y354.746 Z-3.5 J-0.318 K0
G1 Y353
Y-3 F800
G2 Y-3.318 Z-3.182 J0 K0.318
G1 Z5
X28.534 Y355.064
Z2
Z-3.182 F600
G2 Y354.746 Z-3.5 J-0.318 K0
G1 Y353
Y-3 F800
G2 Y-3.318 Z-3.182 J0 K0.318
G1 Z5
X27.033 Y355.064
Z2
Z-3.182 F600
G2 Y354.746 Z-3.5 J-0.318 K0
G1 Y353
Y-3 F800
G2 Y-3.318 Z-3.182 J0 K0.318
G1 Z5
X25.533 Y355.064
Z2
Z-3.182 F600
G2 Y354.746 Z-3.5 J-0.318 K0
G1 Y353
Y-3 F800
G2 Y-3.318 Z-3.182 J0 K0.318
G1 Z5
X24.032 Y355.064
Z2
Z-3.182 F600
G2 Y354.746 Z-3.5 J-0.318 K0
G1 Y353
Y-3 F800
G2 Y-3.318 Z-3.182 J0 K0.318
G1 Z5
X22.532 Y355.064
Z2
Z-3.182 F600
G2 Y354.746 Z-3.5 J-0.318 K0
G1 Y353
Y-3 F800
G2 Y-3.318 Z-3.182 J0 K0.318
G1 Z5
X21.031 Y355.064
Z2
Z-3.182 F600
G2 Y354.746 Z-3.5 J-0.318 K0
G1 Y353
Y-3 F800
G2 Y-3.318 Z-3.182 J0 K0.318
G1 Z5
X19.531 Y355.064
Z2
Z-3.182 F600
G2 Y354.746 Z-3.5 J-0.318 K0
G1 Y353
Y-3 F800
G2 Y-3.318 Z-3.182 J0 K0.318
G1 Z5
X18.03 Y355.064
Z2
Z-3.182 F600
G2 Y354.746 Z-3.5 J-0.318 K0
G1 Y353
Y-3 F800
G2 Y-3.318 Z-3.182 J0 K0.318
G1 Z5
X16.529 Y355.064
Z2
Z-3.182 F600
G2 Y354.746 Z-3.5 J-0.318 K0
G1 Y353
Y-3 F800
G2 Y-3.318 Z-3.182 J0 K0.318
G1 Z5
X15.029 Y355.064
Z2
Z-3.182 F600
G2 Y354.746 Z-3.5 J-0.318 K0
G1 Y353
Y-3 F800
G2 Y-3.318 Z-3.182 J0 K0.318
G1 Z5
X13.528 Y355.008
Z2
Z-3.182 F600
G2 Y354.69 Z-3.5 J-0.318 K0
G1 Y353
Y-3 F800
G2 Y-3.318 Z-3.182 J0 K0.318
G1 Z5
X12.028 Y354.643
Z2
Z-3.182 F600
G2 Y354.325 Z-3.5 J-0.318 K0
G1 Y352.941
Y-2.941 F800
G2 Y-3.258 Z-3.182 J0 K0.318
G1 Z5
X10.527 Y353.868
Z2
Z-3.182 F600
G2 Y353.55 Z-3.5 J-0.317 K0
G1 Y352.462
Y-2.462 F800
G2 Y-2.779 Z-3.182 J0 K0.318
G1 Z5
X9.027 Y352.444
Z2
Z-3.182 F600
G2 Y352.127 Z-3.5 J-0.318 K0
G1 Y351.309
Y-1.309 F800
G2 Y-1.627 Z-3.182 J0 K0.318
G1 Z5
X7.526 Y348.472
Z2
Z-3.182 F600
G2 Y348.155 Z-3.5 J-0.318 K0
G1 Y347.333
Y2.667 F800
G2 Y2.35 Z-3.182 J0 K0.318
G1 Z5
X6.026 Y345.439
Z2
Z-3.182 F600
G2 Y345.122 Z-3.5 J-0.318 K0
G1 Y344.324
Y5.676 F800
G2 Y5.359 Z-3.182 J0 K0.318
G1 Z5
X4.525 Y344.024
Z2
Z-3.182 F600
G2 Y343.706 Z-3.5 J-0.318 K0
G1 Y342.734
Y7.266 F800
G2 Y6.949 Z-3.182 J0 K0.318
G1 Z5
X3.025 Y343.181
Z2
Z-3.182 F600
G2 Y342.863 Z-3.5 J-0.318 K0
G1 Y341.7
Y8.3 F800
G2 Y7.983 Z-3.182 J0 K0.318
G1 Z5
X1.524 Y342.717
Z2
Z-3.182 F600
G2 Y342.4 Z-3.5 J-0.318 K0
G1 Y341.025
Y8.976 F800
G2 Y8.658 Z-3.182 J0 K0.318
G1 Z5
X0.024 Y342.405
Z2
Z-3.182 F600
G2 Y342.087 Z-3.5 J-0.318 K0
G1 Y340.643
Y9.357 F800
G2 Y9.04 Z-3.182 J0 K0.318
G1 Z5
X-1.477 Y341.733
Z2
Z-3.182 F600
G2 Y341.415 Z-3.5 J-0.318 K0
G1 Y340.268
Y9.733 F800
G2 Y9.415 Z-3.182 J0 K0.318
G1 Z7
G17
(When using Fusion 360 for Personal Use, the feedrate of)
(rapid moves is reduced to match the feedrate of cutting)
(moves, which can increase machining time. Unrestricted rapid)
(moves are available with a Fusion 360 Subscription.)

(2D-Tasche1)
G0 X66.12 Y67.59
G1 Z7 F800
Z-1.5
Z-2.193 F600
S5000
X66.119 Y67.566 Z-2.313 F200
X66.118 Y67.5 Z-2.414
X66.119 Y67.433 Z-2.467
X66.125 Y67.355 Z-2.5
G3 X69.127 Y67.645 Z-3.77 I1.501 J0.145
X66.118 Y67.5 Z-5 I-1.501 J-0.145
S25000
G1 Y66.437 F800
G3 X66.437 Y66.118 I0.319 J0
G1 X68.563
G3 X68.882 Y66.437 I0 J0.319
G1 Y283.563
G3 X68.563 Y283.883 I-0.319 J0
G1 X66.437
G3 X66.118 Y283.563 I0 J-0.319
G1 Y67.5
G2 X65.374 Y66.384 I-1.209 J0
G3 X64.63 Y65.269 I0.465 J-1.116
G1 Y64.949
G3 X64.949 Y64.63 I0.319 J0
G1 X70.051
G3 X70.37 Y64.949 I0 J0.319
G1 Y285.051
G3 X70.051 Y285.37 I-0.319 J0
G1 X64.949
G3 X64.63 Y285.051 I0 J-0.319
G1 Y65.269
G2 X63.939 Y64.31 I-1.011 J0
G3 X64.128 Y63.143 I0.19 J-0.568
G1 X71.538
G3 X71.857 Y63.462 I0 J0.319
G1 Y286.538
G3 X71.538 Y286.858 I-0.319 J0
G1 X63.462
G3 X63.143 Y286.538 I0 J-0.319
G1 Y63.462
G3 X63.462 Y63.143 I0.319 J0
G1 X64.128
G2 X65.244 Y62.399 I0 J-1.209
G3 X66.36 Y61.655 I1.116 J0.465
G1 X73.026
G3 X73.345 Y61.974 I0 J0.319
G1 Y288.026
G3 X73.026 Y288.345 I-0.319 J0
G1 X61.974
G3 X61.655 Y288.026 I0 J-0.319
G1 Y61.974
G3 X61.974 Y61.655 I0.319 J0
G1 X66.36
G2 X67.475 Y60.911 I0 J-1.209
G3 X68.591 Y60.167 I1.116 J0.465
G1 X74.513
G3 X74.832 Y60.487 I0 J0.319
G1 Y289.513
G3 X74.513 Y289.832 I-0.319 J0
G1 X60.487
G3 X60.167 Y289.513 I0 J-0.319
G1 Y60.487
G3 X60.487 Y60.167 I0.319 J0
G1 X68.591
G2 X69.706 Y59.424 I0 J-1.209
G3 X70.822 Y58.68 I1.116 J0.465
G1 X76.001
G3 X76.32 Y58.999 I0 J0.319
G1 Y291.001
G3 X76.001 Y291.32 I-0.319 J0
G1 X58.999
G3 X58.68 Y291.001 I0 J-0.319
G1 Y58.999
G3 X58.999 Y58.68 I0.319 J0
G1 X70.822
G2 X71.938 Y57.936 I0 J-1.209
G3 X73.053 Y57.193 I1.116 J0.465
G1 X77.488
G3 X77.808 Y57.512 I0 J0.319
G1 Y292.488
G3 X77.488 Y292.807 I-0.319 J0
G1 X57.512
G3 X57.193 Y292.488 I0 J-0.319
G1 Y57.512
G3 X57.512 Y57.193 I0.319 J0
G1 X73.053
G2 X74.169 Y56.449 I0 J-1.209
G3 X75.285 Y55.705 I1.116 J0.465
G1 X78.976
G3 X79.295 Y56.024 I0 J0.319
G1 Y293.976
G3 X78.976 Y294.295 I-0.319 J0
G1 X56.024
G3 X55.705 Y293.976 I0 J-0.319
G1 Y56.024
G3 X56.024 Y55.705 I0.319 J0
G1 X75.285
G2 X76.4 Y54.961 I0 J-1.209
G3 X77.516 Y54.217 I1.116 J0.465
G1 X80.463
G3 X80.783 Y54.537 I0 J0.319
G1 Y295.463
G3 X80.463 Y295.783 I-0.319 J0
G1 X54.537
G3 X54.217 Y295.463 I0 J-0.319
G1 Y54.537
G3 X54.537 Y54.217 I0.319 J0
G1 X77.516
G2 X78.631 Y53.474 I0 J-1.209
G3 X79.747 Y52.73 I1.116 J0.465
G1 X81.951
G3 X82.27 Y53.049 I0 J0.319
G1 Y296.951
G3 X81.951 Y297.27 I-0.319 J0
G1 X53.049
G3 X52.73 Y296.951 I0 J-0.319
G1 Y53.049
G3 X53.049 Y52.73 I0.319 J0
G1 X79.747
G2 X80.863 Y51.986 I0 J-1.209
G3 X81.978 Y51.243 I1.116 J0.465
G1 X83.438
G3 X83.757 Y51.562 I0 J0.319
G1 Y298.438
G3 X83.438 Y298.758 I-0.319 J0
G1 X51.562
G3 X51.243 Y298.438 I0 J-0.319
G1 Y51.562
G3 X51.562 Y51.243 I0.319 J0
G1 X81.978
G2 X83.094 Y50.499 I0 J-1.209
G3 X84.21 Y49.755 I1.116 J0.465
G1 X84.926
G3 X85.245 Y50.074 I0 J0.319
G1 Y299.926
G3 X84.926 Y300.245 I-0.319 J0
G1 X50.074
G3 X49.755 Y299.926 I0 J-0.319
G1 Y50.074
G3 X50.074 Y49.755 I0.319 J0
G1 X84.21
G2 X85.362 Y48.969 I0 J-1.238
G3 X86.732 Y49.229 I0.661 J0.259
G1 Y301.413
G3 X86.413 Y301.733 I-0.319 J0
G1 X48.587
G3 X48.268 Y301.413 I0 J-0.319
G1 Y48.587
G3 X48.587 Y48.268 I0.319 J0
G1 X86.413
G3 X86.732 Y48.587 I0 J0.319
G1 Y49.229
G2 X87.476 Y50.344 I1.209 J0
G3 X88.22 Y51.46 I-0.465 J1.116
G1 Y302.901
G3 X87.901 Y303.22 I-0.319 J0
G1 X47.099
G3 X46.78 Y302.901 I0 J-0.319
G1 Y47.099
G3 X47.099 Y46.78 I0.319 J0
G1 X87.901
G3 X88.22 Y47.099 I0 J0.319
G1 Y51.46
G2 X88.964 Y52.575 I1.209 J0
G3 X89.707 Y53.691 I-0.465 J1.116
G1 Y304.388
G3 X89.388 Y304.707 I-0.319 J0
G1 X45.612
G3 X45.292 Y304.388 I0 J-0.319
G1 Y45.612
G3 X45.612 Y45.292 I0.319 J0
G1 X89.388
G3 X89.707 Y45.612 I0 J0.319
G1 Y53.691
G2 X90.451 Y54.807 I1.209 J0
G3 X91.195 Y55.922 I-0.465 J1.116
G1 Y305.876
G3 X90.876 Y306.195 I-0.319 J0
G1 X44.124
G3 X43.805 Y305.876 I0 J-0.319
G1 Y44.124
G3 X44.124 Y43.805 I0.319 J0
G1 X90.876
G3 X91.195 Y44.124 I0 J0.319
G1 Y55.922
G2 X91.939 Y57.038 I1.209 J0
G3 X92.683 Y58.154 I-0.465 J1.116
G1 Y307.363
G3 X92.363 Y307.682 I-0.319 J0
G1 X42.637
G3 X42.318 Y307.363 I0 J-0.319
G1 Y42.637
G3 X42.637 Y42.318 I0.319 J0
G1 X92.363
G3 X92.683 Y42.637 I0 J0.319
G1 Y58.154
G2 X93.426 Y59.269 I1.209 J0
G3 X94.17 Y60.385 I-0.465 J1.116
G1 Y308.851
G3 X93.851 Y309.17 I-0.319 J0
G1 X41.149
G3 X40.83 Y308.851 I0 J-0.319
G1 Y41.149
G3 X41.149 Y40.83 I0.319 J0
G1 X93.851
G3 X94.17 Y41.149 I0 J0.319
G1 Y60.385
G2 X94.914 Y61.5 I1.209 J0
G3 X95.658 Y62.616 I-0.465 J1.116
G1 Y310.338
G3 X95.338 Y310.658 I-0.319 J0
G1 X39.662
G3 X39.342 Y310.338 I0 J-0.319
G1 Y39.662
G3 X39.662 Y39.342 I0.319 J0
G1 X95.338
G3 X95.658 Y39.662 I0 J0.319
G1 Y62.616
G2 X96.401 Y63.732 I1.209 J0
G3 X97.145 Y64.847 I-0.465 J1.116
G1 Y311.826
G3 X96.826 Y312.145 I-0.319 J0
G1 X38.174
G3 X37.855 Y311.826 I0 J-0.319
G1 Y38.174
G3 X38.174 Y37.855 I0.319 J0
G1 X96.826
G3 X97.145 Y38.174 I0 J0.319
G1 Y64.847
G2 X97.889 Y65.963 I1.209 J0
G3 X98.632 Y67.079 I-0.465 J1.116
G1 Y313.313
G3 X98.313 Y313.633 I-0.319 J0
G1 X36.687
G3 X36.368 Y313.313 I0 J-0.319
G1 Y36.687
G3 X36.687 Y36.368 I0.319 J0
G1 X98.313
G3 X98.632 Y36.687 I0 J0.319
G1 Y67.079
G2 X99.376 Y68.194 I1.209 J0
G3 X100.12 Y69.31 I-0.465 J1.116
G1 Y314.801
G3 X99.801 Y315.12 I-0.319 J0
G1 X35.199
G3 X34.88 Y314.801 I0 J-0.319
G1 Y35.199
G3 X35.199 Y34.88 I0.319 J0
G1 X99.801
G3 X100.12 Y35.199 I0 J0.319
G1 Y69.31
G2 X100.864 Y70.425 I1.209 J0
G3 X101.607 Y71.541 I-0.465 J1.116
G1 Y316.288
G3 X101.288 Y316.608 I-0.319 J0
G1 X33.712
G3 X33.393 Y316.288 I0 J-0.319
G1 Y33.712
G3 X33.712 Y33.393 I0.319 J0
G1 X101.288
G3 X101.607 Y33.712 I0 J0.319
G1 Y71.541
G2 X102.351 Y72.657 I1.209 J0
G3 X103.095 Y73.772 I-0.465 J1.116
G1 Y317.776
G3 X102.776 Y318.095 I-0.319 J0
G1 X32.224
G3 X31.905 Y317.776 I0 J-0.319
G1 Y32.224
G3 X32.224 Y31.905 I0.319 J0
G1 X102.776
G3 X103.095 Y32.224 I0 J0.319
G1 Y73.772
G2 X103.839 Y74.888 I1.209 J0
G3 X104.582 Y76.004 I-0.465 J1.116
G1 Y319.263
G3 X104.263 Y319.582 I-0.319 J0
G1 X30.737
G3 X30.417 Y319.263 I0 J-0.319
G1 Y30.737
G3 X30.737 Y30.417 I0.319 J0
G1 X104.263
G3 X104.582 Y30.737 I0 J0.319
G1 Y76.004
G2 X105.326 Y77.119 I1.209 J0
G3 X106.07 Y78.235 I-0.465 J1.116
G1 Y319.831
G3 X105.711 Y320.697 I-1.224 J0
G1 X105.697 Y320.711
G3 X104.831 Y321.07 I-0.866 J-0.865
G1 X30.169
G3 X29.303 Y320.711 I0 J-1.224
G1 X29.289 Y320.697
G3 X28.93 Y319.831 I0.865 J-0.866
G1 Y30.169
G3 X29.289 Y29.303 I1.224 J0
G1 X29.303 Y29.289
G3 X30.169 Y28.93 I0.866 J0.865
G1 X104.831
G3 X105.697 Y29.289 I0 J1.224
G1 X105.711 Y29.303
G3 X106.07 Y30.169 I-0.865 J0.866
G1 Y78.235
G2 X106.814 Y79.35 I1.209 J0
G3 X107.558 Y80.466 I-0.465 J1.116
G1 Y320.473
G3 X107.198 Y321.321 I-1.179 J0
G2 X106.321 Y322.198 I25.121 J25.998
G3 X105.473 Y322.557 I-0.848 J-0.819
G1 X29.527
G3 X28.679 Y322.198 I0 J-1.179
G2 X27.802 Y321.321 I-26.013 J25.136
G3 X27.442 Y320.473 I0.819 J-0.848
G1 Y29.527
G3 X27.802 Y28.679 I1.179 J0
G2 X28.679 Y27.802 I-25.133 J-26.01
G3 X29.527 Y27.442 I0.848 J0.819
G1 X105.473
G3 X106.321 Y27.802 I0 J1.179
G2 X107.198 Y28.679 I25.995 J-25.119
G3 X107.558 Y29.527 I-0.819 J0.848
G1 Y80.466
G2 X108.301 Y81.582 I1.209 J0
G3 X109.045 Y82.697 I-0.465 J1.116
G1 Y321.129
G3 X108.684 Y321.959 I-1.134 J0
G2 X106.959 Y323.684 I23.807 J25.532
G3 X106.129 Y324.045 I-0.83 J-0.774
G1 X28.871
G3 X28.041 Y323.684 I0 J-1.134
G2 X26.316 Y321.959 I-25.524 J23.799
G3 X25.955 Y321.129 I0.774 J-0.83
G1 Y28.87
G3 X26.316 Y28.041 I1.135 J0
G2 X28.041 Y26.316 I-23.8 J-25.525
G3 X28.87 Y25.955 I0.83 J0.774
G1 X106.129
G3 X106.959 Y26.316 I0 J1.135
G2 X108.684 Y28.041 I25.533 J-23.809
G3 X109.045 Y28.871 I-0.774 J0.83
G1 Y82.697
G2 X109.789 Y83.813 I1.209 J0
G3 X110.533 Y84.929 I-0.465 J1.116
G1 Y321.802
G3 X110.175 Y322.607 I-1.087 J0
G2 X107.607 Y325.176 I24.936 J27.504
G3 X106.802 Y325.533 I-0.806 J-0.73
G1 X28.198
G3 X27.393 Y325.175 I0 J-1.087
G2 X24.825 Y322.607 I-27.499 J24.93
G3 X24.468 Y321.802 I0.73 J-0.806
G1 Y28.198
G3 X24.825 Y27.392 I1.087 J0
G2 X27.392 Y24.825 I-24.931 J-27.499
G3 X28.198 Y24.468 I0.806 J0.73
G1 X106.802
G3 X107.607 Y24.825 I0 J1.087
G2 X110.175 Y27.393 I27.505 J-24.937
G3 X110.533 Y28.198 I-0.73 J0.806
G1 Y84.929
G2 X111.276 Y86.044 I1.209 J0
G3 X112.02 Y87.16 I-0.465 J1.116
G1 Y322.49
G3 X111.666 Y323.271 I-1.04 J0
G2 X108.271 Y326.666 I24.498 J27.894
G3 X107.49 Y327.02 I-0.781 J-0.686
G1 X27.51
G3 X26.729 Y326.666 I0 J-1.04
G2 X23.334 Y323.271 I-27.899 J24.503
G3 X22.98 Y322.49 I0.686 J-0.781
G1 Y27.509
G3 X23.334 Y26.728 I1.04 J0
G2 X26.728 Y23.334 I-24.503 J-27.897
G3 X27.509 Y22.98 I0.781 J0.686
G1 X107.49
G3 X108.271 Y23.334 I0 J1.04
G2 X111.666 Y26.729 I27.892 J-24.498
G3 X112.02 Y27.51 I-0.686 J0.781
G1 Y87.16
G2 X112.764 Y88.275 I1.209 J0
G3 X113.507 Y89.391 I-0.465 J1.116
G1 Y323.195
G3 X113.149 Y323.96 I-0.996 J0
G2 X108.96 Y328.149 I20.886 J25.075
G3 X108.195 Y328.508 I-0.765 J-0.637
G1 X26.805
G3 X26.039 Y328.149 I0 J-0.996
G2 X21.851 Y323.961 I-25.072 J20.883
G3 X21.493 Y323.195 I0.637 J-0.765
G1 Y26.804
G3 X21.851 Y26.039 I0.996 J0
G2 X26.039 Y21.851 I-20.884 J-25.072
G3 X26.804 Y21.493 I0.765 J0.637
G1 X108.195
G3 X108.961 Y21.851 I0 J0.996
G2 X113.149 Y26.039 I25.074 J-20.887
G3 X113.507 Y26.805 I-0.637 J0.765
G1 Y89.391
G2 X114.251 Y90.507 I1.209 J0
G3 X114.995 Y91.622 I-0.465 J1.116
G1 Y323.921
G3 X114.643 Y324.658 I-0.948 J0
G2 X112.015 Y327.015 I21.99 J27.163
X109.658 Y329.643 I22.985 J22.985
G3 X108.921 Y329.995 I-0.737 J-0.597
G1 X26.079
G3 X25.342 Y329.643 I0 J-0.948
G2 X22.985 Y327.015 I-27.159 J21.986
X20.357 Y324.658 I-22.985 J22.984
G3 X20.005 Y323.921 I0.597 J-0.737
G1 Y26.079
G3 X20.357 Y25.342 I0.948 J0
G2 X22.985 Y22.985 I-21.987 J-27.159
X25.342 Y20.357 I-22.985 J-22.985
G3 X26.079 Y20.005 I0.737 J0.597
G1 X108.921
G3 X109.658 Y20.357 I0 J0.948
G2 X112.015 Y22.985 I27.163 J-21.991
X114.643 Y25.342 I22.984 J-22.985
G3 X114.995 Y26.079 I-0.597 J0.737
G1 Y91.622
G2 X115.739 Y92.738 I1.209 J0
G3 X116.482 Y93.854 I-0.465 J1.116
G1 Y324.666
G3 X116.128 Y325.384 I-0.903 J0
G2 X110.384 Y331.128 I18.622 J24.365
G3 X109.666 Y331.483 I-0.718 J-0.548
G1 X25.333
G3 X24.616 Y331.128 I0 J-0.903
G2 X18.872 Y325.384 I-24.364 J18.62
G3 X18.517 Y324.667 I0.548 J-0.718
G1 Y25.333
G3 X18.872 Y24.616 I0.903 J0
G2 X24.616 Y18.872 I-18.62 J-24.364
G3 X25.333 Y18.517 I0.718 J0.548
G1 X109.666
G3 X110.384 Y18.872 I0 J0.903
G2 X116.128 Y24.616 I24.365 J-18.622
G3 X116.482 Y25.333 I-0.548 J0.718
G1 Y93.854
G2 X117.226 Y94.969 I1.209 J0
G3 X117.97 Y96.085 I-0.465 J1.116
G1 Y325.434
G3 X117.614 Y326.13 I-0.857 J0
G2 X111.13 Y332.614 I16.764 J23.249
G3 X110.434 Y332.97 I-0.695 J-0.501
G1 X24.565
G3 X23.87 Y332.614 I0 J-0.857
G2 X17.386 Y326.13 I-23.25 J16.765
G3 X17.03 Y325.434 I0.501 J-0.695
G1 Y24.565
G3 X17.386 Y23.87 I0.857 J0
G2 X23.87 Y17.386 I-16.766 J-23.25
G3 X24.565 Y17.03 I0.695 J0.501
G1 X110.434
G3 X111.13 Y17.386 I0 J0.857
G2 X117.614 Y23.87 I23.248 J-16.764
G3 X117.97 Y24.565 I-0.501 J0.695
G1 Y96.085
G2 X118.714 Y97.2 I1.209 J0
G3 X119.457 Y98.316 I-0.465 J1.116
G1 Y326.228
G3 X119.104 Y326.897 I-0.811 J0
G2 X111.897 Y334.104 I15.606 J22.814
G3 X111.228 Y334.457 I-0.669 J-0.458
G1 X23.772
G3 X23.103 Y334.104 I0 J-0.811
G2 X15.896 Y326.897 I-22.816 J15.608
G3 X15.542 Y326.228 I0.458 J-0.669
G1 Y23.772
G3 X15.896 Y23.103 I0.811 J0
G2 X23.103 Y15.896 I-15.608 J-22.815
G3 X23.772 Y15.542 I0.669 J0.458
G1 X111.228
G3 X111.897 Y15.896 I0 J0.811
G2 X119.104 Y23.103 I22.813 J-15.606
G3 X119.457 Y23.772 I-0.458 J0.669
G1 Y98.316
G2 X120.201 Y99.432 I1.209 J0
G3 X120.945 Y100.547 I-0.465 J1.116
G1 Y327.048
G3 X120.592 Y327.693 I-0.765 J0
G2 X112.693 Y335.592 I13.989 J21.888
G3 X112.048 Y335.945 I-0.644 J-0.412
G1 X22.951
G3 X22.307 Y335.592 I0 J-0.765
G2 X14.408 Y327.693 I-21.888 J13.988
G3 X14.055 Y327.048 I0.412 J-0.644
G1 Y22.951
G3 X14.408 Y22.307 I0.765 J0
G2 X22.307 Y14.408 I-13.988 J-21.887
G3 X22.951 Y14.055 I0.644 J0.412
G1 X112.048
G3 X112.693 Y14.408 I0 J0.765
G2 X120.592 Y22.307 I21.888 J-13.989
G3 X120.945 Y22.951 I-0.412 J0.644
G1 Y100.547
G2 X121.689 Y101.663 I1.209 J0
G3 X122.433 Y102.779 I-0.465 J1.116
G1 Y327.9
G3 X122.084 Y328.516 I-0.718 J0
G2 X113.516 Y337.084 I12.873 J21.441
G3 X112.9 Y337.432 I-0.616 J-0.37
G1 X22.1
G3 X21.484 Y337.084 I0 J-0.718
G2 X12.916 Y328.516 I-21.441 J12.873
G3 X12.568 Y327.9 I0.37 J-0.616
G1 Y22.1
G3 X12.916 Y21.484 I0.718 J0
G2 X21.484 Y12.916 I-12.873 J-21.441
G3 X22.1 Y12.568 I0.616 J0.37
G1 X112.9
G3 X113.516 Y12.916 I0 J0.718
G2 X122.084 Y21.484 I21.441 J-12.874
G3 X122.433 Y22.1 I-0.37 J0.616
G1 Y102.779
G2 X123.176 Y103.894 I1.209 J0
G3 X123.92 Y105.01 I-0.465 J1.116
G1 Y328.784
G3 X123.574 Y329.372 I-0.672 J0
G2 X114.372 Y338.574 I11.464 J20.666
G3 X113.784 Y338.92 I-0.588 J-0.326
G1 X21.215
G3 X20.627 Y338.574 I0 J-0.672
G2 X11.426 Y329.372 I-20.667 J11.465
G3 X11.08 Y328.785 I0.326 J-0.588
G1 Y21.215
G3 X11.426 Y20.627 I0.672 J0
G2 X20.627 Y11.426 I-11.465 J-20.667
G3 X21.215 Y11.08 I0.588 J0.326
G1 X113.785
G3 X114.372 Y11.426 I0 J0.672
G2 X123.574 Y20.627 I20.666 J-11.465
G3 X123.92 Y21.215 I-0.326 J0.588
G1 Y105.01
G2 X124.666 Y106.129 I1.213 J0
G3 X125.412 Y107.249 I-0.466 J1.119
G1 Y329.466
Y330.101 F200
G2 X115.385 Y339.844 I9.588 J19.899 F800
X115.101 Y340.413 I19.615 J10.156 F200
G1 X20.534 F800
X19.899 F200
G2 X10.156 Y330.385 I-19.899 J9.587 F800
X9.587 Y330.101 I-10.156 J19.615 F200
G1 Y20.534 F800
Y19.899 F200
G2 X19.615 Y10.156 I-9.587 J-19.899 F800
X19.899 Y9.587 I-19.615 J-10.156 F200
G1 X114.466 F800
X115.101 F200
G2 X124.844 Y19.615 I19.899 J-9.588 F800
X125.412 Y19.899 I10.155 J-19.615 F200
G1 Y107.249 F800
X125.407 Y107.309 Z-4.988
X125.39 Y107.367 Z-4.976
X125.367 Y107.413 Z-4.941
X125.336 Y107.455 Z-4.907
X125.286 Y107.502 Z-4.804
X125.267 Y107.516 Z-4.683
Z5
X66.12 Y67.59
Z-1.5
Z-3.693 F600
S5000
X66.119 Y67.566 Z-3.813 F200
X66.118 Y67.5 Z-3.914
X66.119 Y67.433 Z-3.967
X66.125 Y67.355 Z-4
G3 X69.127 Y67.645 Z-5.27 I1.501 J0.145
X66.118 Y67.5 Z-6.5 I-1.501 J-0.145
S25000
G1 Y66.437 F800
G3 X66.437 Y66.118 I0.319 J0
G1 X68.563
G3 X68.882 Y66.437 I0 J0.319
G1 Y283.563
G3 X68.563 Y283.883 I-0.319 J0
G1 X66.437
G3 X66.118 Y283.563 I0 J-0.319
G1 Y67.5
G2 X65.374 Y66.384 I-1.209 J0
G3 X64.63 Y65.269 I0.465 J-1.116
G1 Y64.949
G3 X64.949 Y64.63 I0.319 J0
G1 X70.051
G3 X70.37 Y64.949 I0 J0.319
G1 Y285.051
G3 X70.051 Y285.37 I-0.319 J0
G1 X64.949
G3 X64.63 Y285.051 I0 J-0.319
G1 Y65.269
G2 X63.939 Y64.31 I-1.011 J0
G3 X64.128 Y63.143 I0.19 J-0.568
G1 X71.538
G3 X71.857 Y63.462 I0 J0.319
G1 Y286.538
G3 X71.538 Y286.858 I-0.319 J0
G1 X63.462
G3 X63.143 Y286.538 I0 J-0.319
G1 Y63.462
G3 X63.462 Y63.143 I0.319 J0
G1 X64.128
G2 X65.244 Y62.399 I0 J-1.209
G3 X66.36 Y61.655 I1.116 J0.465
G1 X73.026
G3 X73.345 Y61.974 I0 J0.319
G1 Y288.026
G3 X73.026 Y288.345 I-0.319 J0
G1 X61.974
G3 X61.655 Y288.026 I0 J-0.319
G1 Y61.974
G3 X61.974 Y61.655 I0.319 J0
G1 X66.36
G2 X67.475 Y60.911 I0 J-1.209
G3 X68.591 Y60.167 I1.116 J0.465
G1 X74.513
G3 X74.832 Y60.487 I0 J0.319
G1 Y289.513
G3 X74.513 Y289.832 I-0.319 J0
G1 X60.487
G3 X60.167 Y289.513 I0 J-0.319
G1 Y60.487
G3 X60.487 Y60.167 I0.319 J0
G1 X68.591
G2 X69.706 Y59.424 I0 J-1.209
G3 X70.822 Y58.68 I1.116 J0.465
G1 X76.001
G3 X76.32 Y58.999 I0 J0.319
G1 Y291.001
G3 X76.001 Y291.32 I-0.319 J0
G1 X58.999
G3 X58.68 Y291.001 I0 J-0.319
G1 Y58.999
G3 X58.999 Y58.68 I0.319 J0
G1 X70.822
G2 X71.938 Y57.936 I0 J-1.209
G3 X73.053 Y57.193 I1.116 J0.465
G1 X77.488
G3 X77.808 Y57.512 I0 J0.319
G1 Y292.488
G3 X77.488 Y292.807 I-0.319 J0
G1 X57.512
G3 X57.193 Y292.488 I0 J-0.319
G1 Y57.512
G3 X57.512 Y57.193 I0.319 J0
G1 X73.053
G2 X74.169 Y56.449 I0 J-1.209
G3 X75.285 Y55.705 I1.116 J0.465
G1 X78.976
G3 X79.295 Y56.024 I0 J0.319
G1 Y293.976
G3 X78.976 Y294.295 I-0.319 J0
G1 X56.024
G3 X55.705 Y293.976 I0 J-0.319
G1 Y56.024
G3 X56.024 Y55.705 I0.319 J0
G1 X75.285
G2 X76.4 Y54.961 I0 J-1.209
G3 X77.516 Y54.217 I1.116 J0.465
G1 X80.463
G3 X80.783 Y54.537 I0 J0.319
G1 Y295.463
G3 X80.463 Y295.783 I-0.319 J0
G1 X54.537
G3 X54.217 Y295.463 I0 J-0.319
G1 Y54.537
G3 X54.537 Y54.217 I0.319 J0
G1 X77.516
G2 X78.631 Y53.474 I0 J-1.209
G3 X79.747 Y52.73 I1.116 J0.465
G1 X81.951
G3 X82.27 Y53.049 I0 J0.319
G1 Y296.951
G3 X81.951 Y297.27 I-0.319 J0
G1 X53.049
G3 X52.73 Y296.951 I0 J-0.319
G1 Y53.049
G3 X53.049 Y52.73 I0.319 J0
G1 X79.747
G2 X80.863 Y51.986 I0 J-1.209
G3 X81.978 Y51.243 I1.116 J0.465
G1 X83.438
G3 X83.757 Y51.562 I0 J0.319
G1 Y298.438
G3 X83.438 Y298.758 I-0.319 J0
G1 X51.562
G3 X51.243 Y298.438 I0 J-0.319
G1 Y51.562
G3 X51.562 Y51.243 I0.319 J0
G1 X81.978
G2 X83.094 Y50.499 I0 J-1.209
G3 X84.21 Y49.755 I1.116 J0.465
G1 X84.926
G3 X85.245 Y50.074 I0 J0.319
G1 Y299.926
G3 X84.926 Y300.245 I-0.319 J0
G1 X50.074
G3 X49.755 Y299.926 I0 J-0.319
G1 Y50.074
G3 X50.074 Y49.755 I0.319 J0
G1 X84.21
G2 X85.362 Y48.969 I0 J-1.238
G3 X86.732 Y49.229 I0.661 J0.259
G1 Y301.413
G3 X86.413 Y301.733 I-0.319 J0
G1 X48.587
G3 X48.268 Y301.413 I0 J-0.319
G1 Y48.587
G3 X48.587 Y48.268 I0.319 J0
G1 X86.413
G3 X86.732 Y48.587 I0 J0.319
G1 Y49.229
G2 X87.476 Y50.344 I1.209 J0
G3 X88.22 Y51.46 I-0.465 J1.116
G1 Y302.901
G3 X87.901 Y303.22 I-0.319 J0
G1 X47.099
G3 X46.78 Y302.901 I0 J-0.319
G1 Y47.099
G3 X47.099 Y46.78 I0.319 J0
G1 X87.901
G3 X88.22 Y47.099 I0 J0.319
G1 Y51.46
G2 X88.964 Y52.575 I1.209 J0
G3 X89.707 Y53.691 I-0.465 J1.116
G1 Y304.388
G3 X89.388 Y304.707 I-0.319 J0
G1 X45.612
G3 X45.292 Y304.388 I0 J-0.319
G1 Y45.612
G3 X45.612 Y45.292 I0.319 J0
G1 X89.388
G3 X89.707 Y45.612 I0 J0.319
G1 Y53.691
G2 X90.451 Y54.807 I1.209 J0
G3 X91.195 Y55.922 I-0.465 J1.116
G1 Y305.876
G3 X90.876 Y306.195 I-0.319 J0
G1 X44.124
G3 X43.805 Y305.876 I0 J-0.319
G1 Y44.124
G3 X44.124 Y43.805 I0.319 J0
G1 X90.876
G3 X91.195 Y44.124 I0 J0.319
G1 Y55.922
G2 X91.939 Y57.038 I1.209 J0
G3 X92.683 Y58.154 I-0.465 J1.116
G1 Y307.363
G3 X92.363 Y307.682 I-0.319 J0
G1 X42.637
G3 X42.318 Y307.363 I0 J-0.319
G1 Y42.637
G3 X42.637 Y42.318 I0.319 J0
G1 X92.363
G3 X92.683 Y42.637 I0 J0.319
G1 Y58.154
G2 X93.426 Y59.269 I1.209 J0
G3 X94.17 Y60.385 I-0.465 J1.116
G1 Y308.851
G3 X93.851 Y309.17 I-0.319 J0
G1 X41.149
G3 X40.83 Y308.851 I0 J-0.319
G1 Y41.149
G3 X41.149 Y40.83 I0.319 J0
G1 X93.851
G3 X94.17 Y41.149 I0 J0.319
G1 Y60.385
G2 X94.914 Y61.5 I1.209 J0
G3 X95.658 Y62.616 I-0.465 J1.116
G1 Y310.338
G3 X95.338 Y310.658 I-0.319 J0
G1 X39.662
G3 X39.342 Y310.338 I0 J-0.319
G1 Y39.662
G3 X39.662 Y39.342 I0.319 J0
G1 X95.338
G3 X95.658 Y39.662 I0 J0.319
G1 Y62.616
G2 X96.401 Y63.732 I1.209 J0
G3 X97.145 Y64.847 I-0.465 J1.116
G1 Y311.826
G3 X96.826 Y312.145 I-0.319 J0
G1 X38.174
G3 X37.855 Y311.826 I0 J-0.319
G1 Y38.174
G3 X38.174 Y37.855 I0.319 J0
G1 X96.826
G3 X97.145 Y38.174 I0 J0.319
G1 Y64.847
G2 X97.889 Y65.963 I1.209 J0
G3 X98.632 Y67.079 I-0.465 J1.116
G1 Y313.313
G3 X98.313 Y313.633 I-0.319 J0
G1 X36.687
G3 X36.368 Y313.313 I0 J-0.319
G1 Y36.687
G3 X36.687 Y36.368 I0.319 J0
G1 X98.313
G3 X98.632 Y36.687 I0 J0.319
G1 Y67.079
G2 X99.376 Y68.194 I1.209 J0
G3 X100.12 Y69.31 I-0.465 J1.116
G1 Y314.801
G3 X99.801 Y315.12 I-0.319 J0
G1 X35.199
G3 X34.88 Y314.801 I0 J-0.319
G1 Y35.199
G3 X35.199 Y34.88 I0.319 J0
G1 X99.801
G3 X100.12 Y35.199 I0 J0.319
G1 Y69.31
G2 X100.864 Y70.425 I1.209 J0
G3 X101.607 Y71.541 I-0.465 J1.116
G1 Y316.288
G3 X101.288 Y316.608 I-0.319 J0
G1 X33.712
G3 X33.393 Y316.288 I0 J-0.319
G1 Y33.712
G3 X33.712 Y33.393 I0.319 J0
G1 X101.288
G3 X101.607 Y33.712 I0 J0.319
G1 Y71.541
G2 X102.351 Y72.657 I1.209 J0
G3 X103.095 Y73.772 I-0.465 J1.116
G1 Y317.776
G3 X102.776 Y318.095 I-0.319 J0
G1 X32.224
G3 X31.905 Y317.776 I0 J-0.319
G1 Y32.224
G3 X32.224 Y31.905 I0.319 J0
G1 X102.776
G3 X103.095 Y32.224 I0 J0.319
G1 Y73.772
G2 X103.839 Y74.888 I1.209 J0
G3 X104.582 Y76.004 I-0.465 J1.116
G1 Y319.263
G3 X104.263 Y319.582 I-0.319 J0
G1 X30.737
G3 X30.417 Y319.263 I0 J-0.319
G1 Y30.737
G3 X30.737 Y30.417 I0.319 J0
G1 X104.263
G3 X104.582 Y30.737 I0 J0.319
G1 Y76.004
G2 X105.326 Y77.119 I1.209 J0
G3 X106.07 Y78.235 I-0.465 J1.116
G1 Y319.831
G3 X105.711 Y320.697 I-1.224 J0
G1 X105.697 Y320.711
G3 X104.831 Y321.07 I-0.866 J-0.865
G1 X30.169
G3 X29.303 Y320.711 I0 J-1.224
G1 X29.289 Y320.697
G3 X28.93 Y319.831 I0.865 J-0.866
G1 Y30.169
G3 X29.289 Y29.303 I1.224 J0
G1 X29.303 Y29.289
G3 X30.169 Y28.93 I0.866 J0.865
G1 X104.831
G3 X105.697 Y29.289 I0 J1.224
G1 X105.711 Y29.303
G3 X106.07 Y30.169 I-0.865 J0.866
G1 Y78.235
G2 X106.814 Y79.35 I1.209 J0
G3 X107.558 Y80.466 I-0.465 J1.116
G1 Y320.473
G3 X107.198 Y321.321 I-1.179 J0
G2 X106.321 Y322.198 I25.121 J25.998
G3 X105.473 Y322.557 I-0.848 J-0.819
G1 X29.527
G3 X28.679 Y322.198 I0 J-1.179
G2 X27.802 Y321.321 I-26.013 J25.136
G3 X27.442 Y320.473 I0.819 J-0.848
G1 Y29.527
G3 X27.802 Y28.679 I1.179 J0
G2 X28.679 Y27.802 I-25.133 J-26.01
G3 X29.527 Y27.442 I0.848 J0.819
G1 X105.473
G3 X106.321 Y27.802 I0 J1.179
G2 X107.198 Y28.679 I25.995 J-25.119
G3 X107.558 Y29.527 I-0.819 J0.848
G1 Y80.466
G2 X108.301 Y81.582 I1.209 J0
G3 X109.045 Y82.697 I-0.465 J1.116
G1 Y321.129
G3 X108.684 Y321.959 I-1.134 J0
G2 X106.959 Y323.684 I23.807 J25.532
G3 X106.129 Y324.045 I-0.83 J-0.774
G1 X28.871
G3 X28.041 Y323.684 I0 J-1.134
G2 X26.316 Y321.959 I-25.524 J23.799
G3 X25.955 Y321.129 I0.774 J-0.83
G1 Y28.87
G3 X26.316 Y28.041 I1.135 J0
G2 X28.041 Y26.316 I-23.8 J-25.525
G3 X28.87 Y25.955 I0.83 J0.774
G1 X106.129
G3 X106.959 Y26.316 I0 J1.135
G2 X108.684 Y28.041 I25.533 J-23.809
G3 X109.045 Y28.871 I-0.774 J0.83
G1 Y82.697
G2 X109.789 Y83.813 I1.209 J0
G3 X110.533 Y84.929 I-0.465 J1.116
G1 Y321.802
G3 X110.175 Y322.607 I-1.087 J0
G2 X107.607 Y325.176 I24.936 J27.504
G3 X106.802 Y325.533 I-0.806 J-0.73
G1 X28.198
G3 X27.393 Y325.175 I0 J-1.087
G2 X24.825 Y322.607 I-27.499 J24.93
G3 X24.468 Y321.802 I0.73 J-0.806
G1 Y28.198
G3 X24.825 Y27.392 I1.087 J0
G2 X27.392 Y24.825 I-24.931 J-27.499
G3 X28.198 Y24.468 I0.806 J0.73
G1 X106.802
G3 X107.607 Y24.825 I0 J1.087
G2 X110.175 Y27.393 I27.505 J-24.937
G3 X110.533 Y28.198 I-0.73 J0.806
G1 Y84.929
G2 X111.276 Y86.044 I1.209 J0
G3 X112.02 Y87.16 I-0.465 J1.116
G1 Y322.49
G3 X111.666 Y323.271 I-1.04 J0
G2 X108.271 Y326.666 I24.498 J27.894
G3 X107.49 Y327.02 I-0.781 J-0.686
G1 X27.51
G3 X26.729 Y326.666 I0 J-1.04
G2 X23.334 Y323.271 I-27.899 J24.503
G3 X22.98 Y322.49 I0.686 J-0.781
G1 Y27.509
G3 X23.334 Y26.728 I1.04 J0
G2 X26.728 Y23.334 I-24.503 J-27.897
G3 X27.509 Y22.98 I0.781 J0.686
G1 X107.49
G3 X108.271 Y23.334 I0 J1.04
G2 X111.666 Y26.729 I27.892 J-24.498
G3 X112.02 Y27.51 I-0.686 J0.781
G1 Y87.16
G2 X112.764 Y88.275 I1.209 J0
G3 X113.507 Y89.391 I-0.465 J1.116
G1 Y323.195
G3 X113.149 Y323.96 I-0.996 J0
G2 X108.96 Y328.149 I20.886 J25.075
G3 X108.195 Y328.508 I-0.765 J-0.637
G1 X26.805
G3 X26.039 Y328.149 I0 J-0.996
G2 X21.851 Y323.961 I-25.072 J20.883
G3 X21.493 Y323.195 I0.637 J-0.765
G1 Y26.804
G3 X21.851 Y26.039 I0.996 J0
G2 X26.039 Y21.851 I-20.884 J-25.072
G3 X26.804 Y21.493 I0.765 J0.637
G1 X108.195
G3 X108.961 Y21.851 I0 J0.996
G2 X113.149 Y26.039 I25.074 J-20.887
G3 X113.507 Y26.805 I-0.637 J0.765
G1 Y89.391
G2 X114.251 Y90.507 I1.209 J0
G3 X114.995 Y91.622 I-0.465 J1.116
G1 Y323.921
G3 X114.643 Y324.658 I-0.948 J0
G2 X112.015 Y327.015 I21.99 J27.163
X109.658 Y329.643 I22.985 J22.985
G3 X108.921 Y329.995 I-0.737 J-0.597
G1 X26.079
G3 X25.342 Y329.643 I0 J-0.948
G2 X22.985 Y327.015 I-27.159 J21.986
X20.357 Y324.658 I-22.985 J22.984
G3 X20.005 Y323.921 I0.597 J-0.737
G1 Y26.079
G3 X20.357 Y25.342 I0.948 J0
G2 X22.985 Y22.985 I-21.987 J-27.159
X25.342 Y20.357 I-22.985 J-22.985
G3 X26.079 Y20.005 I0.737 J0.597
G1 X108.921
G3 X109.658 Y20.357 I0 J0.948
G2 X112.015 Y22.985 I27.163 J-21.991
X114.643 Y25.342 I22.984 J-22.985
G3 X114.995 Y26.079 I-0.597 J0.737
G1 Y91.622
G2 X115.739 Y92.738 I1.209 J0
G3 X116.482 Y93.854 I-0.465 J1.116
G1 Y324.666
G3 X116.128 Y325.384 I-0.903 J0
G2 X110.384 Y331.128 I18.622 J24.365
G3 X109.666 Y331.483 I-0.718 J-0.548
G1 X25.333
G3 X24.616 Y331.128 I0 J-0.903
G2 X18.872 Y325.384 I-24.364 J18.62
G3 X18.517 Y324.667 I0.548 J-0.718
G1 Y25.333
G3 X18.872 Y24.616 I0.903 J0
G2 X24.616 Y18.872 I-18.62 J-24.364
G3 X25.333 Y18.517 I0.718 J0.548
G1 X109.666
G3 X110.384 Y18.872 I0 J0.903
G2 X116.128 Y24.616 I24.365 J-18.622
G3 X116.482 Y25.333 I-0.548 J0.718
G1 Y93.854
G2 X117.226 Y94.969 I1.209 J0
G3 X117.97 Y96.085 I-0.465 J1.116
G1 Y325.434
G3 X117.614 Y326.13 I-0.857 J0
G2 X111.13 Y332.614 I16.764 J23.249
G3 X110.434 Y332.97 I-0.695 J-0.501
G1 X24.565
G3 X23.87 Y332.614 I0 J-0.857
G2 X17.386 Y326.13 I-23.25 J16.765
G3 X17.03 Y325.434 I0.501 J-0.695
G1 Y24.565
G3 X17.386 Y23.87 I0.857 J0
G2 X23.87 Y17.386 I-16.766 J-23.25
G3 X24.565 Y17.03 I0.695 J0.501
G1 X110.434
G3 X111.13 Y17.386 I0 J0.857
G2 X117.614 Y23.87 I23.248 J-16.764
G3 X117.97 Y24.565 I-0.501 J0.695
G1 Y96.085
G2 X118.714 Y97.2 I1.209 J0
G3 X119.457 Y98.316 I-0.465 J1.116
G1 Y326.228
G3 X119.104 Y326.897 I-0.811 J0
G2 X111.897 Y334.104 I15.606 J22.814
G3 X111.228 Y334.457 I-0.669 J-0.458
G1 X23.772
G3 X23.103 Y334.104 I0 J-0.811
G2 X15.896 Y326.897 I-22.816 J15.608
G3 X15.542 Y326.228 I0.458 J-0.669
G1 Y23.772
G3 X15.896 Y23.103 I0.811 J0
G2 X23.103 Y15.896 I-15.608 J-22.815
G3 X23.772 Y15.542 I0.669 J0.458
G1 X111.228
G3 X111.897 Y15.896 I0 J0.811
G2 X119.104 Y23.103 I22.813 J-15.606
G3 X119.457 Y23.772 I-0.458 J0.669
G1 Y98.316
G2 X120.201 Y99.432 I1.209 J0
G3 X120.945 Y100.547 I-0.465 J1.116
G1 Y327.048
G3 X120.592 Y327.693 I-0.765 J0
G2 X112.693 Y335.592 I13.989 J21.888
G3 X112.048 Y335.945 I-0.644 J-0.412
G1 X22.951
G3 X22.307 Y335.592 I0 J-0.765
G2 X14.408 Y327.693 I-21.888 J13.988
G3 X14.055 Y327.048 I0.412 J-0.644
G1 Y22.951
G3 X14.408 Y22.307 I0.765 J0
G2 X22.307 Y14.408 I-13.988 J-21.887
G3 X22.951 Y14.055 I0.644 J0.412
G1 X112.048
G3 X112.693 Y14.408 I0 J0.765
G2 X120.592 Y22.307 I21.888 J-13.989
G3 X120.945 Y22.951 I-0.412 J0.644
G1 Y100.547
G2 X121.689 Y101.663 I1.209 J0
G3 X122.433 Y102.779 I-0.465 J1.116
G1 Y327.9
G3 X122.084 Y328.516 I-0.718 J0
G2 X113.516 Y337.084 I12.873 J21.441
G3 X112.9 Y337.432 I-0.616 J-0.37
G1 X22.1
G3 X21.484 Y337.084 I0 J-0.718
G2 X12.916 Y328.516 I-21.441 J12.873
G3 X12.568 Y327.9 I0.37 J-0.616
G1 Y22.1
G3 X12.916 Y21.484 I0.718 J0
G2 X21.484 Y12.916 I-12.873 J-21.441
G3 X22.1 Y12.568 I0.616 J0.37
G1 X112.9
G3 X113.516 Y12.916 I0 J0.718
G2 X122.084 Y21.484 I21.441 J-12.874
G3 X122.433 Y22.1 I-0.37 J0.616
G1 Y102.779
G2 X123.176 Y103.894 I1.209 J0
G3 X123.92 Y105.01 I-0.465 J1.116
G1 Y328.784
G3 X123.574 Y329.372 I-0.672 J0
G2 X114.372 Y338.574 I11.464 J20.666
G3 X113.784 Y338.92 I-0.588 J-0.326
G1 X21.215
G3 X20.627 Y338.574 I0 J-0.672
G2 X11.426 Y329.372 I-20.667 J11.465
G3 X11.08 Y328.785 I0.326 J-0.588
G1 Y21.215
G3 X11.426 Y20.627 I0.672 J0
G2 X20.627 Y11.426 I-11.465 J-20.667
G3 X21.215 Y11.08 I0.588 J0.326
G1 X113.785
G3 X114.372 Y11.426 I0 J0.672
G2 X123.574 Y20.627 I20.666 J-11.465
G3 X123.92 Y21.215 I-0.326 J0.588
G1 Y105.01
G2 X124.666 Y106.129 I1.213 J0
G3 X125.412 Y107.249 I-0.466 J1.119
G1 Y329.466
Y330.101 F200
G2 X115.385 Y339.844 I9.588 J19.899 F800
X115.101 Y340.413 I19.615 J10.156 F200
G1 X20.534 F800
X19.899 F200
G2 X10.156 Y330.385 I-19.899 J9.587 F800
X9.587 Y330.101 I-10.156 J19.615 F200
G1 Y20.534 F800
Y19.899 F200
G2 X19.615 Y10.156 I-9.587 J-19.899 F800
X19.899 Y9.587 I-19.615 J-10.156 F200
G1 X114.466 F800
X115.101 F200
G2 X124.844 Y19.615 I19.899 J-9.588 F800
X125.412 Y19.899 I10.155 J-19.615 F200
G1 Y107.249 F800
X125.407 Y107.309 Z-6.488
X125.39 Y107.367 Z-6.476
X125.367 Y107.413 Z-6.441
X125.336 Y107.455 Z-6.407
X125.286 Y107.502 Z-6.304
X125.267 Y107.516 Z-6.183
Z7
(When using Fusion 360 for Personal Use, the feedrate of)
(rapid moves is reduced to match the feedrate of cutting)
(moves, which can increase machining time. Unrestricted rapid)
(moves are available with a Fusion 360 Subscription.)

(2D-Kontur2)
G0 X136.905 Y184.412
G1 Z7 F800
Z2
Z1.328 F200
G18 G3 X136.587 Z1.011 I-0.318 K0 F600
S5000
G1 Y175.082 Z-1.489 F200
Y175.041 Z-1.497
Y175 Z-1.5
S25000
Y12.5 F800
G17 G2 X135 Y10.913 I-1.587 J0
G3 X124.088 Y0 I0 J-10.913
G2 X122.5 Y-1.587 I-1.588 J0
G1 X12.5
G2 X10.913 Y0 I0 J1.587
G3 X0 Y10.913 I-10.913 J0
G2 X-1.587 Y12.5 I0 J1.587
G1 Y337.5
G2 X0 Y339.087 I1.587 J0
G3 X10.913 Y350 I0 J10.913
G2 X12.5 Y351.587 I1.587 J0
G1 X122.5
G2 X124.088 Y350 I0 J-1.587
G3 X135 Y339.087 I10.912 J0
G2 X136.587 Y337.5 I0 J-1.587
G1 Y175
S5000
Y79.149 Z-3 F200
S25000
Y12.5 F800
G2 X135 Y10.913 I-1.587 J0
G3 X124.088 Y0 I0 J-10.913
G2 X122.5 Y-1.587 I-1.588 J0
G1 X12.5
G2 X10.913 Y0 I0 J1.587
G3 X0 Y10.913 I-10.913 J0
G2 X-1.587 Y12.5 I0 J1.587
G1 Y337.5
G2 X0 Y339.087 I1.587 J0
G3 X10.913 Y350 I0 J10.913
G2 X12.5 Y351.587 I1.587 J0
G1 X122.5
G2 X124.088 Y350 I0 J-1.587
G3 X135 Y339.087 I10.912 J0
G2 X136.587 Y337.5 I0 J-1.587
G1 Y175
Y79.149
S5000
Y12.5 Z-4.043 F200
G2 X135 Y10.913 Z-4.082 I-1.587 J0
G3 X124.088 Y0 Z-4.35 I0 J-10.913
G2 X122.5 Y-1.587 Z-4.389 I-1.588 J0
G1 X115.426 Z-4.5
S25000
X12.5 F800
G2 X10.913 Y0 I0 J1.587
G3 X0 Y10.913 I-10.913 J0
G2 X-1.587 Y12.5 I0 J1.587
G1 Y337.5
G2 X0 Y339.087 I1.587 J0
G3 X10.913 Y350 I0 J10.913
G2 X12.5 Y351.587 I1.587 J0
G1 X122.5
G2 X124.088 Y350 I0 J-1.587
G3 X135 Y339.087 I10.912 J0
G2 X136.587 Y337.5 I0 J-1.587
G1 Y79.149
Y12.5
G2 X135 Y10.913 I-1.587 J0
G3 X124.088 Y0 I0 J-10.913
G2 X122.5 Y-1.587 I-1.588 J0
G1 X115.426
S5000
X19.574 Z-6 F200
S25000
X12.5 F800
G2 X10.913 Y0 I0 J1.587
G3 X0 Y10.913 I-10.913 J0
G2 X-1.587 Y12.5 I0 J1.587
G1 Y337.5
G2 X0 Y339.087 I1.587 J0
G3 X10.913 Y350 I0 J10.913
G2 X12.5 Y351.587 I1.587 J0
G1 X122.5
G2 X124.088 Y350 I0 J-1.587
G3 X135 Y339.087 I10.912 J0
G2 X136.587 Y337.5 I0 J-1.587
G1 Y12.5
G2 X135 Y10.913 I-1.587 J0
G3 X124.088 Y0 I0 J-10.913
G2 X122.5 Y-1.587 I-1.588 J0
G1 X19.574
S5000
X12.5 Z-6.111 F200
G2 X10.913 Y0 Z-6.15 I0 J1.587
G3 X0 Y10.913 Z-6.418 I-10.913 J0
G2 X-1.587 Y12.5 Z-6.457 I0 J1.587
G1 Y79.149 Z-7.5
S25000
Y337.5 F800
G2 X0 Y339.087 I1.587 J0
G3 X10.913 Y350 I0 J10.913
G2 X12.5 Y351.587 I1.587 J0
G1 X122.5
G2 X124.088 Y350 I0 J-1.587
G3 X135 Y339.087 I10.912 J0
G2 X136.587 Y337.5 I0 J-1.587
G1 Y12.5
G2 X135 Y10.913 I-1.587 J0
G3 X124.088 Y0 I0 J-10.913
G2 X122.5 Y-1.587 I-1.588 J0
G1 X19.574
X12.5
G2 X10.913 Y0 I0 J1.587
G3 X0 Y10.913 I-10.913 J0
G2 X-1.587 Y12.5 I0 J1.587
G1 Y79.149
S5000
Y175 Z-9 F200
S25000
Y337.5 F800
G2 X0 Y339.087 I1.587 J0
G3 X10.913 Y350 I0 J10.913
G2 X12.5 Y351.587 I1.587 J0
G1 X122.5
G2 X124.088 Y350 I0 J-1.587
G3 X135 Y339.087 I10.912 J0
G2 X136.587 Y337.5 I0 J-1.587
G1 Y12.5
G2 X135 Y10.913 I-1.587 J0
G3 X124.088 Y0 I0 J-10.913
G2 X122.5 Y-1.587 I-1.588 J0
G1 X12.5
G2 X10.913 Y0 I0 J1.587
G3 X0 Y10.913 I-10.913 J0
G2 X-1.587 Y12.5 I0 J1.587
G1 Y175
S5000
Y270.851 Z-10.5 F200
S25000
Y337.5 F800
G2 X0 Y339.087 I1.587 J0
G3 X10.913 Y350 I0 J10.913
G2 X12.5 Y351.587 I1.587 J0
G1 X122.5
G2 X124.088 Y350 I0 J-1.587
G3 X135 Y339.087 I10.912 J0
G2 X136.587 Y337.5 I0 J-1.587
G1 Y12.5
G2 X135 Y10.913 I-1.587 J0
G3 X124.088 Y0 I0 J-10.913
G2 X122.5 Y-1.587 I-1.588 J0
G1 X12.5
G2 X10.913 Y0 I0 J1.587
G3 X0 Y10.913 I-10.913 J0
G2 X-1.587 Y12.5 I0 J1.587
G1 Y175
Y270.851
S5000
Y337.5 Z-11.543 F200
G2 X0 Y339.087 Z-11.582 I1.587 J0
G3 X10.913 Y350 Z-11.85 I0 J10.913
G2 X12.5 Y351.587 Z-11.889 I1.587 J0
G1 X19.574 Z-12
S25000
X122.5 F800
G2 X124.088 Y350 I0 J-1.587
G3 X135 Y339.087 I10.912 J0
G2 X136.587 Y337.5 I0 J-1.587
G1 Y12.5
G2 X135 Y10.913 I-1.587 J0
G3 X124.088 Y0 I0 J-10.913
G2 X122.5 Y-1.587 I-1.588 J0
G1 X12.5
G2 X10.913 Y0 I0 J1.587
G3 X0 Y10.913 I-10.913 J0
G2 X-1.587 Y12.5 I0 J1.587
G1 Y270.851
Y337.5
G2 X0 Y339.087 I1.587 J0
G3 X10.913 Y350 I0 J10.913
G2 X12.5 Y351.587 I1.587 J0
G1 X19.574
S5000
X115.426 Z-13.5 F200
S25000
X122.5 F800
G2 X124.088 Y350 I0 J-1.587
G3 X135 Y339.087 I10.912 J0
G2 X136.587 Y337.5 I0 J-1.587
G1 Y12.5
G2 X135 Y10.913 I-1.587 J0
G3 X124.088 Y0 I0 J-10.913
G2 X122.5 Y-1.587 I-1.588 J0
G1 X12.5
G2 X10.913 Y0 I0 J1.587
G3 X0 Y10.913 I-10.913 J0
G2 X-1.587 Y12.5 I0 J1.587
G1 Y337.5
G2 X0 Y339.087 I1.587 J0
G3 X10.913 Y350 I0 J10.913
G2 X12.5 Y351.587 I1.587 J0
G1 X115.426
S5000
X122.5 Z-13.611 F200
G2 X124.088 Y350 Z-13.65 I0 J-1.587
G3 X135 Y339.087 Z-13.918 I10.912 J0
G2 X136.587 Y337.5 Z-13.957 I0 J-1.587
G1 Y270.851 Z-15
S25000
Y12.5 F800
G2 X135 Y10.913 I-1.587 J0
G3 X124.088 Y0 I0 J-10.913
G2 X122.5 Y-1.587 I-1.588 J0
G1 X12.5
G2 X10.913 Y0 I0 J1.587
G3 X0 Y10.913 I-10.913 J0
G2 X-1.587 Y12.5 I0 J1.587
G1 Y337.5
G2 X0 Y339.087 I1.587 J0
G3 X10.913 Y350 I0 J10.913
G2 X12.5 Y351.587 I1.587 J0
G1 X115.426
X122.5
G2 X124.088 Y350 I0 J-1.587
G3 X135 Y339.087 I10.912 J0
G2 X136.587 Y337.5 I0 J-1.587
G1 Y270.851
S5000
Y175 Z-16.5 F200
S25000
Y12.5 F800
G2 X135 Y10.913 I-1.587 J0
G3 X124.088 Y0 I0 J-10.913
G2 X122.5 Y-1.587 I-1.588 J0
G1 X12.5
G2 X10.913 Y0 I0 J1.587
G3 X0 Y10.913 I-10.913 J0
G2 X-1.587 Y12.5 I0 J1.587
G1 Y337.5
G2 X0 Y339.087 I1.587 J0
G3 X10.913 Y350 I0 J10.913
G2 X12.5 Y351.587 I1.587 J0
G1 X122.5
G2 X124.088 Y350 I0 J-1.587
G3 X135 Y339.087 I10.912 J0
G2 X136.587 Y337.5 I0 J-1.587
G1 Y175
S5000
Y79.149 Z-18 F200
S25000
Y40.234 F800
Y39.599 F200
Z-17.635 F800
Z-17 F200
Y26.424 F800
Z-18 F200
Y12.5 F800
G2 X135 Y10.913 I-1.587 J0
G3 X124.088 Y0 I0 J-10.913
G2 X122.5 Y-1.587 I-1.588 J0
G1 X106.546
X105.911 F200
Z-17.635 F800
Z-17 F200
X92.736 F800
Z-18 F200
X71.348 F800
X70.713 F200
Z-17.635 F800
Z-17 F200
X57.538 F800
Z-18 F200
X32.437 F800
X31.802 F200
Z-17.635 F800
Z-17 F200
X18.627 F800
Z-18 F200
X12.5 F800
G2 X10.913 Y0 I0 J1.587
G3 X0 Y10.913 I-10.913 J0
G2 X-1.587 Y12.5 I0 J1.587
G1 Y19.782
Y20.417 F200
Z-17.635 F800
Z-17 F200
Y33.592 F800
Z-18 F200
Y143.296 F800
Y143.93 F200
Z-17.635 F800
Z-17 F200
Y157.105 F800
Z-18 F200
Y315.698 F800
Y316.333 F200
Z-17.635 F800
Z-17 F200
Y329.509 F800
Z-18 F200
Y337.5 F800
G2 X0 Y339.087 I1.587 J0
G3 X10.913 Y350 I0 J10.913
G2 X12.5 Y351.587 I1.587 J0
G1 X14.258
X14.893 F200
Z-17.635 F800
Z-17 F200
X28.068 F800
Z-18 F200
X60.069 F800
X60.704 F200
Z-17.635 F800
Z-17 F200
X73.879 F800
Z-18 F200
X98.521 F800
X99.157 F200
Z-17.635 F800
Z-17 F200
X112.331 F800
Z-18 F200
X122.5 F800
G2 X124.088 Y350 I0 J-1.587
G3 X135 Y339.087 I10.912 J0
G2 X136.587 Y337.5 I0 J-1.587
G1 Y319.947
Y319.311 F200
Z-17.635 F800
Z-17 F200
Y306.137 F800
Z-18 F200
Y171.684 F800
Y171.049 F200
Z-17.635 F800
Z-17 F200
Y157.874 F800
Z-18 F200
Y79.149 F800
G19 G2 Y78.831 Z-17.683 J0 K0.317
G1 Z7
G17
G28 G91 Z0
G90
G28 G91 X0 Y0
G90
M5
M30
