(tuerschild_2.gcode)
(Bearbeiten)
(  Hersteller: OpenBuilds)
(  model: OX-CNC)
(  description: Pinas OX-CNC)
(T8  D=10 CR=0 TAPER=30deg - ZMIN=-11.026 - Fasenfraser)
G90 G94
G17
G21
(When using Fusion 360 for Personal Use, the feedrate of)
(rapid moves is reduced to match the feedrate of cutting)
(moves, which can increase machining time. Unrestricted rapid)
(moves are available with a Fusion 360 Subscription.)
G28 G91 Z0
G90

(Projektion1)
T8
S30000 M3
G54
G0 X123.611 Y-0.315
Z7
G1 Z-0.498 F500
Z-9.078
X123.493 Y-0.589
X123.309 Y-0.824
X123.071 Y-1.003
X122.796 Y-1.116
X122.5 Y-1.155
X12.5
X12.204 Y-1.116
X11.929 Y-1.003
X11.691 Y-0.824
X11.507 Y-0.589
X11.389 Y-0.315
X11.345 Y-0.021
X11.338 Y0.405
X11.28 Y1.213
X11.165 Y2.014
X10.993 Y2.806
X10.765 Y3.583
X10.482 Y4.342
X10.145 Y5.078
X9.757 Y5.789
X9.319 Y6.47
X8.834 Y7.119
X8.304 Y7.731
X7.731 Y8.304
X7.119 Y8.834
X6.47 Y9.319
X5.789 Y9.757
X5.078 Y10.145
X4.342 Y10.482
X3.583 Y10.765
X2.806 Y10.993
X2.014 Y11.165
X1.213 Y11.28
X0.405 Y11.338
X-0.021 Y11.345
X-0.315 Y11.389
X-0.589 Y11.507
X-0.824 Y11.691
X-1.003 Y11.929
X-1.116 Y12.204
X-1.155 Y12.5
Y337.5
X-1.116 Y337.796
X-1.003 Y338.071
X-0.824 Y338.309
X-0.589 Y338.493
X-0.315 Y338.611
X-0.021 Y338.655
X0.405 Y338.662
X1.213 Y338.72
X2.014 Y338.835
X2.807 Y339.007
X3.583 Y339.236
X4.341 Y339.519
X5.079 Y339.855
X5.789 Y340.243
X6.47 Y340.68
X7.119 Y341.166
X7.731 Y341.696
X8.304 Y342.269
X8.834 Y342.881
X9.319 Y343.53
X9.757 Y344.211
X10.145 Y344.922
X10.482 Y345.658
X10.765 Y346.418
X10.993 Y347.194
X11.165 Y347.986
X11.28 Y348.787
X11.338 Y349.595
X11.345 Y350.021
X11.389 Y350.315
X11.507 Y350.589
X11.691 Y350.824
X11.929 Y351.003
X12.204 Y351.116
X12.5 Y351.155
X122.5
X122.796 Y351.116
X123.071 Y351.003
X123.309 Y350.824
X123.493 Y350.589
X123.611 Y350.315
X123.655 Y350.021
X123.662 Y349.595
X123.72 Y348.787
X123.835 Y347.987
X124.007 Y347.194
X124.235 Y346.418
X124.519 Y345.658
X124.855 Y344.921
X125.243 Y344.211
X125.68 Y343.53
X126.166 Y342.881
X126.696 Y342.269
X127.269 Y341.696
X127.881 Y341.166
X128.53 Y340.68
X129.211 Y340.243
X129.921 Y339.855
X130.658 Y339.519
X131.418 Y339.235
X132.194 Y339.007
X132.987 Y338.835
X133.787 Y338.72
X134.595 Y338.662
X135.021 Y338.655
X135.315 Y338.611
X135.589 Y338.493
X135.824 Y338.309
X136.003 Y338.071
X136.116 Y337.796
X136.155 Y337.5
Y12.5
X136.116 Y12.204
X136.003 Y11.929
X135.824 Y11.691
X135.589 Y11.507
X135.315 Y11.389
X135.021 Y11.345
X134.595 Y11.338
X133.787 Y11.28
X132.986 Y11.165
X132.194 Y10.993
X131.418 Y10.765
X130.658 Y10.482
X129.922 Y10.145
X129.211 Y9.757
X128.53 Y9.319
X127.881 Y8.834
X127.269 Y8.304
X126.696 Y7.731
X126.166 Y7.119
X125.68 Y6.47
X125.243 Y5.789
X124.855 Y5.079
X124.519 Y4.341
X124.236 Y3.583
X124.007 Y2.807
X123.835 Y2.014
X123.72 Y1.213
X123.662 Y0.405
X123.655 Y-0.021
X123.611 Y-0.315
Z-0.498
Z7
(When using Fusion 360 for Personal Use, the feedrate of)
(rapid moves is reduced to match the feedrate of cutting)
(moves, which can increase machining time. Unrestricted rapid)
(moves are available with a Fusion 360 Subscription.)

(Gravieren1)
G0 X18.963 Y141.186
G1 Z6 F500
Z-5.5
Z-6.501
X19.917 Y142.14 Z-8.153
X20.248 Y141.791 Z-7.549
X20.486 Y141.543 Z-7.12
X20.844 Y141.185 Z-6.5
X20.486 Y141.543 Z-7.12
X20.248 Y141.791 Z-7.549
X19.917 Y142.14 Z-8.153
X19.922 Y142.278 Z-8.162
X19.933 Y142.526 Z-8.182
X19.942 Y142.676 Z-8.197
X19.96 Y142.916 Z-8.228
X19.973 Y143.052 Z-8.25
X19.987 Y143.19 Z-8.276
X20.007 Y143.353 Z-8.31
X20.041 Y143.595 Z-8.369
X20.062 Y143.73 Z-8.405
X20.105 Y143.984 Z-8.479
X20.15 Y144.233 Z-8.557
X20.217 Y144.586 Z-8.674
X20.241 Y144.695 Z-8.714
X20.269 Y144.804 Z-8.763
X20.302 Y144.913 Z-8.821
X20.34 Y145.021 Z-8.887
X20.44 Y145.286 Z-9.059
X20.552 Y145.574 Z-9.253
X20.618 Y145.735 Z-9.368
X20.693 Y145.912 Z-9.498
X20.776 Y146.095 Z-9.641
X20.878 Y146.31 Z-9.819
X20.986 Y146.52 Z-10.005
X21.059 Y146.657 Z-10.132
X21.123 Y146.772 Z-10.243
X21.212 Y146.924 Z-10.396
X21.309 Y147.084 Z-10.565
X18.963 Y149.43 Z-6.501
X21.309 Y147.084 Z-10.565
X21.441 Y147.113 Z-10.514
X21.555 Y147.137 Z-10.474
X21.69 Y147.162 Z-10.429
X21.805 Y147.183 Z-10.394
X21.933 Y147.203 Z-10.359
X22.049 Y147.22 Z-10.33
X22.172 Y147.236 Z-10.301
X22.371 Y147.259 Z-10.262
X22.585 Y147.279 Z-10.228
X22.78 Y147.293 Z-10.203
X22.956 Y147.303 Z-10.186
X23.131 Y147.31 Z-10.173
X23.414 Y147.318 Z-10.159
X23.591 Y147.322 Z-10.153
X23.892 Y147.324 Z-10.149
X27.771 Z-10.147
X28.978 Y147.315 Z-10.132
X30.624 Y147.294 Z-10.096
X31.179 Y147.284 Z-10.079
X32.183 Y147.262 Z-10.04
X32.632 Y147.247 Z-10.015
X32.883 Y147.238 Z-9.999
X33.035 Y147.235 Z-9.994
X33.209 Y147.239 Z-10
X33.382 Y147.25 Z-10.019
X33.556 Y147.269 Z-10.052
X33.73 Y147.295 Z-10.097
X33.903 Y147.328 Z-10.155
X34.077 Y147.37 Z-10.227
X34.251 Y147.418 Z-10.311
X34.424 Y147.474 Z-10.408
X34.598 Y147.538 Z-10.518
X34.772 Y147.609 Z-10.641
X34.945 Y147.687 Z-10.777
X34.898 Y147.842 Z-10.546
X34.848 Y147.992 Z-10.324
X34.773 Y148.206 Z-10.014
X34.715 Y148.356 Z-9.798
X34.656 Y148.5 Z-9.594
X34.578 Y148.675 Z-9.352
X34.514 Y148.805 Z-9.177
X34.449 Y148.928 Z-9.013
X34.377 Y149.056 Z-8.848
X34.314 Y149.156 Z-8.722
X34.25 Y149.252 Z-8.605
X34.126 Y149.431 Z-8.389
X34.067 Y149.512 Z-8.293
X34.007 Y149.589 Z-8.205
X33.928 Y149.68 Z-8.106
X33.849 Y149.762 Z-8.022
X33.767 Y149.837 Z-7.95
X33.679 Y149.909 Z-7.889
X33.592 Y149.97 Z-7.843
X33.503 Y150.025 Z-7.81
X33.474 Y150.042 Z-7.802
X33.405 Y150.081 Z-7.795
X33.341 Y150.119 Z-7.8
X33.095 Y150.283 Z-7.848
X32.811 Y150.478 Z-7.907
X32.539 Y150.672 Z-7.963
X32.282 Y150.866 Z-8.017
X32.254 Y150.889 Z-8.022
X32.072 Y151.037 Z-8.06
X31.926 Y151.163 Z-8.092
X31.873 Y151.212 Z-8.102
X31.71 Y151.367 Z-8.137
X31.645 Y151.433 Z-8.149
X31.505 Y151.583 Z-8.18
X31.451 Y151.643 Z-8.192
X31.306 Y151.816 Z-8.23
X31.13 Y152.044 Z-8.283
X30.96 Y152.288 Z-8.35
X30.798 Y152.542 Z-8.433
X30.703 Y152.701 Z-8.491
X30.658 Y152.799 Z-8.508
X30.542 Y153.07 Z-8.565
X30.521 Y153.122 Z-8.577
X30.438 Y153.337 Z-8.628
X30.35 Y153.585 Z-8.691
X30.328 Y153.651 Z-8.706
X30.259 Y153.877 Z-8.762
X30.219 Y154.023 Z-8.796
X30.188 Y154.146 Z-8.821
X30.156 Y154.288 Z-8.849
X30.131 Y154.412 Z-8.868
X30.108 Y154.549 Z-8.888
X30.089 Y154.677 Z-8.901
X30.069 Y154.83 Z-8.916
X30.057 Y154.938 Z-8.923
X30.037 Y155.132 Z-8.935
X30.032 Y155.192 Z-8.937
X30.013 Y155.443 Z-8.945
X30.008 Y155.539 Z-8.949
X30.006 Y155.624 Z-8.957
X30.011 Y155.882 Z-8.99
X30.021 Y156.266 Z-9.039
X30.044 Y156.506 Z-9.048
X30.079 Y156.823 Z-9.065
X30.113 Y157.094 Z-9.084
X30.152 Y157.355 Z-9.107
X30.199 Y157.621 Z-9.136
X30.256 Y157.894 Z-9.173
X30.326 Y158.175 Z-9.217
X30.349 Y158.262 Z-9.232
X30.41 Y158.46 Z-9.268
X30.428 Y158.519 Z-9.28
X30.513 Y158.755 Z-9.329
X30.559 Y158.866 Z-9.352
X30.607 Y158.979 Z-9.379
X30.641 Y159.054 Z-9.395
X30.691 Y159.157 Z-9.419
X30.807 Y159.377 Z-9.47
X30.917 Y159.558 Z-9.511
X31.009 Y159.696 Z-9.539
X31.132 Y159.865 Z-9.574
X31.317 Y160.097 Z-9.622
X31.481 Y160.286 Z-9.66
X31.506 Y160.313 Z-9.665
X31.658 Y160.475 Z-9.7
X31.85 Y160.668 Z-9.74
X32.056 Y160.866 Z-9.783
X32.269 Y161.063 Z-9.828
X32.626 Y161.382 Z-9.899
X32.734 Y161.474 Z-9.925
X32.748 Y161.485 Z-9.928
X32.86 Y161.548 Z-9.925
X32.977 Y161.609 Z-9.929
X33.095 Y161.665 Z-9.94
X33.381 Y161.794 Z-9.975
X33.667 Y161.922 Z-10.008
X33.966 Y162.053 Z-10.041
X34.272 Y162.182 Z-10.074
X34.608 Y162.319 Z-10.109
X34.942 Y162.447 Z-10.141
X35.266 Y162.563 Z-10.167
X35.586 Y162.668 Z-10.191
X35.899 Y162.761 Z-10.21
X36.251 Y162.853 Z-10.224
X36.595 Y162.93 Z-10.235
X36.901 Y162.989 Z-10.242
X36.956 Y162.998
X37.264 Y163.048 Z-10.247
X37.604 Y163.093 Z-10.251
X37.647 Y163.098
X37.985 Y163.135 Z-10.253
X38.33 Y163.166 Z-10.254
X38.662 Y163.19 Z-10.255
X38.996 Y163.209 Z-10.257
X39.382 Y163.225 Z-10.258
X39.961 Y163.241 Z-10.26
X40.595 Y163.253 Z-10.262
X40.968 Y163.257 Z-10.265
X41.762 Y163.244 Z-10.264
X42.236 Y163.233
X42.867 Y163.208
X42.956 Y163.204 Z-10.265
X43.337 Y163.181 Z-10.267
X43.709 Y163.153 Z-10.268
X43.926 Y163.133 Z-10.266
X44.073 Y163.117 Z-10.267
X44.273 Y163.094 Z-10.266
X44.431 Y163.075 Z-10.267
X44.625 Y163.048 Z-10.265
X44.778 Y163.025 Z-10.266
X44.977 Y162.992 Z-10.262
X45.114 Y162.968 Z-10.263
X45.34 Y162.924 Z-10.257
X45.442 Y162.902
X45.762 Y162.828 Z-10.248
X46.077 Y162.745 Z-10.235
X46.39 Y162.652 Z-10.218
X46.71 Y162.547 Z-10.195
X47.042 Y162.428 Z-10.169
X47.378 Y162.301 Z-10.138
X47.719 Y162.163 Z-10.104
X48.07 Y162.016 Z-10.066
X48.525 Y161.817 Z-10.012
X48.807 Y161.692 Z-9.977
X48.933 Y161.633 Z-9.965
X49.057 Y161.569 Z-9.96
X49.155 Y161.515 Z-9.963
X49.247 Y161.461 Z-9.97
X49.496 Y161.248 Z-9.915
X49.821 Y160.963 Z-9.84
X50.014 Y160.787 Z-9.797
X50.215 Y160.595 Z-9.752
X50.41 Y160.399 Z-9.707
X50.557 Y160.242 Z-9.673
X50.69 Y160.091 Z-9.642
X50.803 Y159.955 Z-9.611
X50.84 Y159.908 Z-9.603
X50.993 Y159.704 Z-9.558
X51.109 Y159.531 Z-9.52
X51.205 Y159.373 Z-9.486
X51.308 Y159.184 Z-9.44
X51.413 Y158.963 Z-9.388
X51.462 Y158.848 Z-9.361
X51.5 Y158.755 Z-9.343
X51.537 Y158.656 Z-9.32
X51.586 Y158.518 Z-9.293
X51.665 Y158.267 Z-9.245
X51.742 Y157.977 Z-9.196
X51.804 Y157.7 Z-9.156
X51.854 Y157.432 Z-9.124
X51.902 Y157.132 Z-9.094
X51.931 Y156.914 Z-9.076
X51.961 Y156.663 Z-9.06
X52.003 Y156.262 Z-9.041
X52.014 Y155.947 Z-8.999
X52.021 Y155.628 Z-8.958
X52.019 Y155.553 Z-8.953
X52.014 Y155.461 Z-8.951
X51.989 Y155.139 Z-8.945
X51.972 Y154.96 Z-8.937
X51.958 Y154.837 Z-8.931
X51.94 Y154.693 Z-8.92
X51.92 Y154.554 Z-8.908
X51.898 Y154.419 Z-8.893
X51.873 Y154.288 Z-8.876
X51.843 Y154.149 Z-8.854
X51.812 Y154.02 Z-8.832
X51.774 Y153.873 Z-8.803
X51.706 Y153.642 Z-8.756
X51.688 Y153.582 Z-8.745
X51.598 Y153.317 Z-8.69
X51.517 Y153.097 Z-8.649
X51.455 Y152.944 Z-8.623
X51.38 Y152.764 Z-8.595
X51.352 Y152.701 Z-8.588
X51.235 Y152.492 Z-8.529
X51.075 Y152.23 Z-8.468
X50.903 Y151.973 Z-8.419
X50.768 Y151.79 Z-8.391
X50.724 Y151.733 Z-8.382
X50.569 Y151.546 Z-8.357
X50.481 Y151.448 Z-8.345
X50.342 Y151.302 Z-8.323
X50.297 Y151.257 Z-8.317
X50.138 Y151.106 Z-8.292
X50.099 Y151.071 Z-8.287
X49.883 Y150.885 Z-8.255
X49.651 Y150.699 Z-8.222
X49.513 Y150.592 Z-8.203
X49.28 Y150.421 Z-8.174
X49.014 Y150.229 Z-8.144
X48.941 Y150.174 Z-8.14
X48.894 Y150.135 Z-8.142
X48.832 Y150.081 Z-8.15
X48.772 Y150.024 Z-8.164
X48.69 Y149.938 Z-8.196
X48.64 Y149.884 Z-8.226
X48.587 Y149.826 Z-8.267
X48.528 Y149.761 Z-8.325
X48.495 Y149.725 Z-8.361
X48.418 Y149.638 Z-8.456
X48.344 Y149.545 Z-8.561
X48.26 Y149.431 Z-8.695
X48.049 Y149.125 Z-9.062
X47.979 Y149.019 Z-9.194
X47.911 Y148.908 Z-9.335
X47.841 Y148.784 Z-9.495
X47.776 Y148.662 Z-9.655
X47.714 Y148.535 Z-9.825
X47.637 Y148.368 Z-10.052
X47.577 Y148.229 Z-10.245
X47.519 Y148.086 Z-10.447
X47.441 Y147.877 Z-10.745
X47.4 Y147.764 Z-10.91
X47.136 Y147.722 Z-10.837
X46.782 Y147.668 Z-10.743
X46.43 Y147.618 Z-10.657
X46.063 Y147.57 Z-10.573
X45.691 Y147.526 Z-10.498
X45.334 Y147.489 Z-10.434
X44.963 Y147.456 Z-10.376
X44.616 Y147.43 Z-10.331
X44.261 Y147.406 Z-10.291
X43.921 Y147.388 Z-10.259
X43.574 Y147.372 Z-10.231
X43.241 Y147.36 Z-10.211
X42.907 Y147.351 Z-10.194
X42.58 Y147.343 Z-10.181
X41.932 Y147.333 Z-10.163
X40.968 Y147.324 Z-10.149
X40.631 Y147.326 Z-10.151
X39.991 Y147.331 Z-10.159
X39.331 Y147.339 Z-10.174
X38.995 Y147.347 Z-10.187
X38.659 Y147.356 Z-10.203
X38.31 Y147.368 Z-10.224
X37.967 Y147.383 Z-10.251
X37.611 Y147.402 Z-10.284
X37.254 Y147.426 Z-10.324
X36.89 Y147.454 Z-10.372
X36.524 Y147.487 Z-10.43
X36.151 Y147.526 Z-10.497
X35.783 Y147.57 Z-10.573
X35.422 Y147.617 Z-10.656
X35.067 Y147.669 Z-10.745
X34.945 Y147.687 Z-10.777
X35.067 Y147.669 Z-10.745
X35.422 Y147.617 Z-10.656
X35.783 Y147.57 Z-10.573
X36.151 Y147.526 Z-10.497
X36.524 Y147.487 Z-10.43
X36.89 Y147.454 Z-10.372
X37.254 Y147.426 Z-10.324
X37.611 Y147.402 Z-10.284
X37.967 Y147.383 Z-10.251
X38.31 Y147.368 Z-10.224
X38.659 Y147.356 Z-10.203
X38.995 Y147.347 Z-10.187
X39.331 Y147.339 Z-10.174
X39.991 Y147.331 Z-10.159
X40.631 Y147.326 Z-10.151
X40.968 Y147.324 Z-10.149
X41.932 Y147.333 Z-10.163
X42.58 Y147.343 Z-10.181
X42.907 Y147.351 Z-10.194
X43.241 Y147.36 Z-10.211
X43.574 Y147.372 Z-10.231
X43.921 Y147.388 Z-10.259
X44.261 Y147.406 Z-10.291
X44.616 Y147.43 Z-10.331
X44.963 Y147.456 Z-10.376
X45.334 Y147.489 Z-10.434
X45.691 Y147.526 Z-10.498
X46.063 Y147.57 Z-10.573
X46.43 Y147.618 Z-10.657
X46.782 Y147.668 Z-10.743
X47.136 Y147.722 Z-10.837
X47.4 Y147.764 Z-10.91
X47.572 Y147.675 Z-10.756
X47.743 Y147.594 Z-10.615
X47.932 Y147.513 Z-10.475
X48.08 Y147.455 Z-10.377
X48.227 Y147.403 Z-10.29
X48.389 Y147.35 Z-10.206
X48.534 Y147.308 Z-10.143
X48.662 Y147.275 Z-10.096
X48.726 Y147.259 Z-10.076
X48.902 Y147.22 Z-10.034
X49.073 Y147.188 Z-10.009
X49.284 Y147.149 Z-9.993
X49.491 Y147.106 Z-9.985
X49.698 Y147.059 Z-9.984
X49.816 Y147.029 Z-9.987
X49.937 Y146.997 Z-9.994
X50.053 Y146.965 Z-10.004
X50.16 Y146.933 Z-10.016
X50.275 Y146.897 Z-10.031
X50.416 Y146.851 Z-10.055
X50.53 Y146.811 Z-10.078
X50.643 Y146.769 Z-10.104
X50.756 Y146.726 Z-10.133
X50.901 Y146.667 Z-10.176
X53.023 Y148.356 Z-6.501
X50.901 Y146.667 Z-10.176
X51.021 Y146.443 Z-9.969
X51.125 Y146.236 Z-9.788
X51.221 Y146.035 Z-9.623
X51.298 Y145.864 Z-9.489
X51.376 Y145.687 Z-9.355
X51.502 Y145.383 Z-9.136
X51.606 Y145.122 Z-8.955
X51.652 Y144.999 Z-8.875
X51.692 Y144.877 Z-8.806
X51.726 Y144.755 Z-8.748
X51.754 Y144.632 Z-8.7
X51.824 Y144.277 Z-8.578
X51.872 Y144.023 Z-8.495
X51.917 Y143.764 Z-8.416
X51.94 Y143.626 Z-8.378
X51.975 Y143.382 Z-8.316
X51.997 Y143.211 Z-8.279
X52.012 Y143.07 Z-8.253
X52.025 Y142.934 Z-8.23
X52.036 Y142.8 Z-8.211
X52.052 Y142.555 Z-8.184
X52.059 Y142.41 Z-8.171
X52.07 Y142.139 Z-8.153
X51.74 Y141.792 Z-7.552
X51.5 Y141.543 Z-7.12
X51.142 Y141.185 Z-6.5
X51.5 Y141.543 Z-7.12
X51.74 Y141.792 Z-7.552
X52.07 Y142.139 Z-8.153
X53.023 Y141.186 Z-6.501
Z4
X98.097 Y288.065
Z-5.5
Z-10.783
X98.206 Y288.036 Z-10.729
X98.34 Y288.004 Z-10.669
X98.474 Y287.976 Z-10.616
X98.608 Y287.951 Z-10.57
X98.741 Y287.931 Z-10.53
X98.874 Y287.915 Z-10.497
X99.007 Y287.903 Z-10.471
X99.139 Y287.895 Z-10.451
X99.27 Y287.891 Z-10.438
X99.432 Z-10.431
X99.846 Y287.9 Z-10.422
X100.556 Y287.92 Z-10.402
X101.13 Y287.945 Z-10.378
X101.302 Y287.954 Z-10.371
X101.671 Y287.977 Z-10.353
X102.034 Y288.004 Z-10.332
X102.444 Y288.041 Z-10.306
X102.853 Y288.084 Z-10.276
X103.105 Y288.116 Z-10.257
X103.334 Y288.147 Z-10.237
X103.465 Y288.165 Z-10.227
X103.827 Y288.222 Z-10.195
X104.232 Y288.292 Z-10.16
X104.683 Y288.379 Z-10.122
X105.133 Y288.475 Z-10.089
X105.591 Y288.581 Z-10.062
X106.08 Y288.705 Z-10.044
X106.479 Y288.812 Z-10.035
X106.736 Y288.884 Z-10.034
X106.902 Y288.942 Z-10.015
X107.387 Y289.117 Z-9.968
X107.86 Y289.298 Z-9.923
X108.139 Y289.409 Z-9.894
X108.314 Y289.482 Z-9.875
X108.535 Y289.576 Z-9.847
X108.732 Y289.664 Z-9.819
X108.933 Y289.756 Z-9.786
X109.128 Y289.85 Z-9.749
X109.316 Y289.945 Z-9.707
X109.499 Y290.041 Z-9.66
X109.684 Y290.142 Z-9.607
X109.776 Y290.197 Z-9.58
X109.867 Y290.255 Z-9.558
X109.998 Y290.349 Z-9.533
X110.047 Y290.385 Z-9.525
X110.231 Y290.528 Z-9.492
X110.416 Y290.674 Z-9.456
X110.603 Y290.828 Z-9.415
X110.799 Y290.994 Z-9.372
X111.007 Y291.176 Z-9.327
X111.214 Y291.364 Z-9.286
X111.423 Y291.56 Z-9.25
X111.469 Y291.606 Z-9.244
X111.614 Y291.78 Z-9.184
X111.811 Y292.028 Z-9.109
X111.983 Y292.261 Z-9.051
X112.159 Y292.516 Z-8.999
X112.189 Y292.563 Z-8.992
X112.296 Y292.735 Z-8.962
X112.324 Y292.784 Z-8.955
X112.43 Y292.973 Z-8.929
X112.488 Y293.085 Z-8.917
X112.572 Y293.259 Z-8.899
X112.606 Y293.335 Z-8.89
X112.643 Y293.423 Z-8.883
X112.718 Y293.612 Z-8.863
X112.79 Y293.82 Z-8.842
X112.827 Y293.941 Z-8.831
X112.886 Y294.155 Z-8.809
X112.948 Y294.416 Z-8.782
X112.969 Y294.517 Z-8.772
X113.01 Y294.724 Z-8.751
X113.047 Y294.94 Z-8.731
X113.085 Y295.188 Z-8.708
X113.14 Y295.602 Z-8.67
X113.178 Y295.909 Z-8.644
X113.187 Y295.998 Z-8.638
X113.188 Y296.077 Z-8.63
X113.185 Y296.179 Z-8.627
X113.182 Y296.24 Z-8.628
X113.152 Y296.629 Z-8.643
X113.114 Y297.026 Z-8.661
X113.089 Y297.237 Z-8.671
X113.058 Y297.457 Z-8.684
X113.021 Y297.672 Z-8.698
X112.977 Y297.891 Z-8.714
X112.938 Y298.061 Z-8.728
X112.904 Y298.189 Z-8.74
X112.853 Y298.364 Z-8.756
X112.774 Y298.592 Z-8.779
X112.712 Y298.752 Z-8.797
X112.659 Y298.874 Z-8.814
X112.571 Y299.061 Z-8.84
X112.456 Y299.282 Z-8.878
X112.337 Y299.489 Z-8.92
X112.214 Y299.689 Z-8.967
X112.084 Y299.887 Z-9.02
X111.933 Y300.104 Z-9.086
X111.803 Y300.285 Z-9.146
X111.742 Y300.366 Z-9.174
X111.685 Y300.431 Z-9.186
X111.549 Y300.583 Z-9.218
X111.278 Y300.877 Z-9.283
X111.145 Y301.016 Z-9.313
X111.079 Y301.081 Z-9.331
X111.011 Y301.145 Z-9.353
X110.943 Y301.203 Z-9.377
X110.874 Y301.261 Z-9.405
X110.732 Y301.368 Z-9.467
X110.598 Y301.466 Z-9.522
X110.387 Y301.613 Z-9.6
X110.338 Y301.647 Z-9.618
X110.15 Y301.768 Z-9.675
X110.086 Y301.808 Z-9.694
X109.897 Y301.921 Z-9.74
X109.821 Y301.964 Z-9.758
X109.639 Y302.065 Z-9.794
X109.372 Y302.204 Z-9.845
X109.038 Y302.365 Z-9.904
X108.821 Y302.464 Z-9.943
X108.491 Y302.608 Z-10.007
X108.425 Y302.635 Z-10.022
X108.218 Y302.704 Z-10.04
X107.892 Y302.806 Z-10.078
X107.602 Y302.889 Z-10.116
X107.263 Y302.979 Z-10.167
X106.991 Y303.042 Z-10.207
X106.699 Y303.104 Z-10.252
X106.673 Y303.109 Z-10.256
X106.404 Y303.157 Z-10.292
X106.314 Y303.172 Z-10.305
X106.107 Y303.201 Z-10.327
X105.957 Y303.22 Z-10.344
X105.773 Y303.24 Z-10.36
X105.533 Y303.262 Z-10.378
X105.258 Y303.282 Z-10.396
X105.183 Y303.286 Z-10.401
X104.768 Y303.307 Z-10.421
X104.325 Y303.322 Z-10.437
X104.095 Y303.327 Z-10.445
X103.736 Y303.332 Z-10.463
X103.236 Y303.311 Z-10.448
X102.792 Y303.285 Z-10.435
X102.519 Y303.265 Z-10.429
X102.277 Y303.243 Z-10.422
X102.132 Y303.229 Z-10.42
X101.885 Y303.199 Z-10.412
X101.644 Y303.164 Z-10.402
X101.407 Y303.124 Z-10.391
X101.21 Y303.084 Z-10.38
X101.007 Y303.037 Z-10.365
X100.808 Y302.984 Z-10.344
X100.635 Y302.932 Z-10.323
X100.419 Y302.856 Z-10.289
X100.257 Y302.794 Z-10.262
X100.113 Y302.734 Z-10.233
X100.054 Y302.708 Z-10.223
X99.837 Y302.609 Z-10.179
X99.557 Y302.469 Z-10.12
X99.287 Y302.324 Z-10.062
X99.046 Y302.187 Z-10.013
X98.794 Y302.037 Z-9.96
X98.355 Y301.766 Z-9.875
X98.087 Y301.542 Z-9.745
X97.744 Y301.248 Z-9.574
X97.652 Y301.165 Z-9.53
X97.555 Y301.07 Z-9.488
X97.462 Y300.972 Z-9.456
X97.375 Y300.869 Z-9.431
X97.25 Y300.716 Z-9.398
X97.116 Y300.546 Z-9.36
X96.989 Y300.38 Z-9.32
X96.852 Y300.19 Z-9.271
X96.724 Y300.002 Z-9.221
X96.6 Y299.805 Z-9.164
X96.482 Y299.597 Z-9.102
X96.367 Y299.374 Z-9.033
X96.263 Y299.145 Z-8.962
X96.192 Y298.975 Z-8.912
X96.164 Y298.902 Z-8.891
X96.101 Y298.729 Z-8.844
X96.078 Y298.658 Z-8.824
X96.023 Y298.485 Z-8.782
X96.001 Y298.407 Z-8.763
X95.938 Y298.165 Z-8.712
X95.885 Y297.926 Z-8.669
X95.841 Y297.695 Z-8.633
X95.797 Y297.425 Z-8.6
X95.773 Y297.244 Z-8.581
X95.747 Y297.026 Z-8.563
X95.724 Y296.812 Z-8.55
X95.704 Y296.594 Z-8.54
X95.692 Y296.194 Z-8.495
X95.689 Y295.995 Z-8.474
X95.688 Y295.728 Z-8.446
X95.696 Y295.583 Z-8.441
X95.718 Y295.304 Z-8.432
X95.747 Y295.033 Z-8.417
X95.764 Y294.903 Z-8.408
X95.786 Y294.754 Z-8.395
X95.814 Y294.597 Z-8.379
X95.858 Y294.378 Z-8.356
X95.889 Y294.24 Z-8.34
X95.924 Y294.101 Z-8.326
X95.965 Y293.95 Z-8.31
X96.013 Y293.785 Z-8.297
X96.065 Y293.623 Z-8.286
X96.149 Y293.376 Z-8.277
X96.186 Y293.275 Z-8.276
X96.268 Y293.086 Z-8.258
X96.319 Y292.97 Z-8.25
X96.427 Y292.738 Z-8.236
X96.559 Y292.468 Z-8.223
X96.641 Y292.306 Z-8.214
X96.757 Y292.085 Z-8.2
X96.809 Y291.993 Z-8.197
X96.929 Y291.797 Z-8.193
X97.067 Y291.579 Z-8.185
X97.21 Y291.361 Z-8.174
X97.361 Y291.139 Z-8.163
X97.515 Y290.921 Z-8.156
X97.624 Y290.77 Z-8.153
X97.677 Y290.694 Z-8.157
X97.751 Y290.577 Z-8.179
X97.82 Y290.448 Z-8.222
X97.879 Y290.32 Z-8.284
X97.932 Y290.185 Z-8.364
X97.978 Y290.045 Z-8.463
X98.015 Y289.905 Z-8.574
X98.048 Y289.751 Z-8.71
X98.075 Y289.591 Z-8.863
X98.092 Y289.443 Z-9.015
X98.105 Y289.272 Z-9.199
X98.111 Y289.095 Z-9.402
Y288.925 Z-9.604
X98.11 Y288.826 Z-9.727
X98.106 Y288.624 Z-9.99
X98.104 Y288.52 Z-10.132
X98.101 Y288.302 Z-10.438
X98.097 Y288.065 Z-10.783
Z4
X97.887 Y312.255
Z-5.5
Z-10.536
X96.854 Y312.273 Z-10.526
X96.143 Y312.29 Z-10.516
X95.671 Y312.307 Z-10.509
X95.121 Y312.333 Z-10.498
X94.764 Y312.353 Z-10.489
X94.298 Y312.385 Z-10.474
X94.124 Y312.4 Z-10.469
X93.797 Y312.429 Z-10.456
X93.371 Y312.475 Z-10.435
X93.153 Y312.501 Z-10.424
X92.827 Y312.544 Z-10.406
X92.429 Y312.602 Z-10.381
X91.965 Y312.679 Z-10.354
X91.487 Y312.765 Z-10.327
X91.033 Y312.855 Z-10.307
X90.453 Y312.978 Z-10.285
X90.099 Y313.057 Z-10.275
X89.849 Y313.114 Z-10.271
X89.419 Y313.237 Z-10.226
X89.16 Y313.313 Z-10.2
X88.662 Y313.466 Z-10.148
X88.372 Y313.559 Z-10.113
X88.195 Y313.618 Z-10.09
X87.954 Y313.701 Z-10.054
X87.752 Y313.773 Z-10.021
X87.534 Y313.854 Z-9.979
X87.337 Y313.931 Z-9.937
X87.126 Y314.018 Z-9.886
X87.034 Y314.058 Z-9.862
X86.944 Y314.101 Z-9.844
X86.829 Y314.162 Z-9.822
X86.757 Y314.202 Z-9.811
X86.567 Y314.312 Z-9.774
X86.322 Y314.46 Z-9.72
X86.063 Y314.623 Z-9.657
X85.833 Y314.774 Z-9.599
X85.752 Y314.829 Z-9.579
X85.53 Y314.983 Z-9.522
X85.269 Y315.173 Z-9.458
X84.999 Y315.379 Z-9.399
X84.813 Y315.527 Z-9.364
X84.739 Y315.602 Z-9.331
X84.498 Y315.856 Z-9.231
X84.33 Y316.046 Z-9.167
X84.216 Y316.18 Z-9.128
X84.06 Y316.374 Z-9.076
X83.917 Y316.567 Z-9.035
X83.891 Y316.602 Z-9.027
X83.821 Y316.704 Z-9.008
X83.784 Y316.759 Z-9
X83.662 Y316.952 Z-8.969
X83.626 Y317.014 Z-8.96
X83.554 Y317.143 Z-8.947
X83.507 Y317.23 Z-8.934
X83.455 Y317.332 Z-8.923
X83.354 Y317.549 Z-8.899
X83.318 Y317.634 Z-8.889
X83.288 Y317.71 Z-8.883
X83.203 Y317.943 Z-8.855
X83.15 Y318.11 Z-8.837
X83.108 Y318.252 Z-8.819
X83.089 Y318.323 Z-8.813
X83.03 Y318.556 Z-8.785
X82.965 Y318.856 Z-8.751
X82.917 Y319.119 Z-8.723
X82.894 Y319.257 Z-8.709
X82.855 Y319.508 Z-8.682
X82.82 Y319.766 Z-8.655
X82.754 Y320.297 Z-8.599
X82.742 Y320.432 Z-8.593
X82.739 Y320.496 Z-8.594
X82.743 Y320.58 Z-8.591
X82.757 Y320.725 Z-8.599
X82.83 Y321.273 Z-8.654
X82.876 Y321.579 Z-8.684
X82.893 Y321.685 Z-8.695
X82.934 Y321.918 Z-8.718
X82.986 Y322.177 Z-8.743
X83.045 Y322.432 Z-8.768
X83.082 Y322.576 Z-8.784
X83.146 Y322.797 Z-8.804
X83.204 Y322.973 Z-8.821
X83.254 Y323.109 Z-8.832
X83.273 Y323.16 Z-8.838
X83.348 Y323.341 Z-8.851
X83.385 Y323.423 Z-8.857
X83.433 Y323.521 Z-8.867
X83.526 Y323.705 Z-8.88
X83.632 Y323.887 Z-8.899
X83.669 Y323.95 Z-8.903
X83.747 Y324.073 Z-8.919
X83.874 Y324.26 Z-8.945
X83.935 Y324.343 Z-8.959
X84.083 Y324.537 Z-8.997
X84.161 Y324.633 Z-9.02
X84.32 Y324.821 Z-9.069
X84.379 Y324.886 Z-9.088
X84.61 Y325.135 Z-9.174
X84.742 Y325.269 Z-9.228
X84.854 Y325.361 Z-9.245
X85.115 Y325.564 Z-9.296
X85.372 Y325.754 Z-9.356
X85.628 Y325.934 Z-9.419
X85.884 Y326.106 Z-9.485
X85.919 Y326.129 Z-9.495
X86.137 Y326.269 Z-9.55
X86.388 Y326.422 Z-9.61
X86.534 Y326.508 Z-9.643
X86.733 Y326.622 Z-9.683
X86.927 Y326.728 Z-9.717
X87.025 Y326.775 Z-9.735
X87.164 Y326.837 Z-9.77
X87.329 Y326.903 Z-9.812
X87.572 Y326.997 Z-9.867
X87.755 Y327.066 Z-9.904
X87.988 Y327.148 Z-9.945
X88.209 Y327.224 Z-9.981
X88.442 Y327.302 Z-10.015
X88.849 Y327.432 Z-10.068
X89.187 Y327.535 Z-10.11
X89.444 Y327.611 Z-10.14
X89.885 Y327.738 Z-10.192
X90.171 Y327.805 Z-10.203
X90.629 Y327.907 Z-10.225
X91.188 Y328.026 Z-10.257
X91.557 Y328.099 Z-10.28
X92.018 Y328.183 Z-10.313
X92.209 Y328.216 Z-10.328
X92.543 Y328.27 Z-10.351
X92.951 Y328.33 Z-10.381
X93.199 Y328.362 Z-10.399
X93.52 Y328.402 Z-10.419
X93.875 Y328.439 Z-10.438
X94.307 Y328.478 Z-10.458
X94.494 Y328.492 Z-10.467
X94.827 Y328.515 Z-10.479
X95.249 Y328.539 Z-10.491
X95.694 Y328.559 Z-10.502
X96.193 Y328.577 Z-10.513
X97.033 Y328.598 Z-10.525
X97.931 Y328.613 Z-10.536
X98.396 Y328.606 Z-10.531
X98.962 Y328.595 Z-10.524
X99.735 Y328.575 Z-10.512
X100.36 Y328.551 Z-10.499
X100.697 Y328.534 Z-10.489
X101.108 Y328.51 Z-10.476
X101.368 Y328.492 Z-10.468
X101.694 Y328.466 Z-10.454
X102.029 Y328.435 Z-10.437
X102.463 Y328.388 Z-10.411
X102.665 Y328.363 Z-10.398
X102.989 Y328.319 Z-10.375
X103.437 Y328.252 Z-10.341
X103.654 Y328.216 Z-10.327
X103.991 Y328.158 Z-10.302
X104.375 Y328.086 Z-10.274
X104.836 Y327.994 Z-10.245
X105.369 Y327.879 Z-10.215
X105.746 Y327.794 Z-10.197
X105.977 Y327.741 Z-10.188
X106.19 Y327.68 Z-10.161
X106.681 Y327.536 Z-10.102
X107.187 Y327.38 Z-10.039
X107.491 Y327.283 Z-9.996
X107.667 Y327.224 Z-9.97
X107.916 Y327.138 Z-9.929
X108.125 Y327.064 Z-9.891
X108.344 Y326.983 Z-9.846
X108.558 Y326.9 Z-9.797
X108.765 Y326.816 Z-9.744
X108.866 Y326.771 Z-9.719
X108.965 Y326.723 Z-9.699
X109.024 Y326.691 Z-9.688
X109.162 Y326.616 Z-9.664
X109.365 Y326.5 Z-9.623
X109.566 Y326.382 Z-9.577
X109.796 Y326.241 Z-9.52
X110.059 Y326.073 Z-9.454
X110.325 Y325.893 Z-9.385
X110.591 Y325.706 Z-9.32
X110.863 Y325.504 Z-9.259
X111.126 Y325.297 Z-9.211
X111.182 Y325.252 Z-9.203
X111.374 Y325.056 Z-9.127
X111.546 Y324.871 Z-9.066
X111.616 Y324.793 Z-9.043
X111.778 Y324.604 Z-8.995
X111.843 Y324.524 Z-8.977
X111.995 Y324.329 Z-8.94
X112.067 Y324.23 Z-8.924
X112.205 Y324.027 Z-8.897
X112.267 Y323.929 Z-8.887
X112.31 Y323.858 Z-8.882
X112.416 Y323.675 Z-8.864
X112.442 Y323.625 Z-8.861
X112.512 Y323.488 Z-8.853
X112.553 Y323.403 Z-8.845
X112.597 Y323.308 Z-8.84
X112.688 Y323.088 Z-8.822
X112.742 Y322.939 Z-8.812
X112.819 Y322.705 Z-8.79
X112.866 Y322.538 Z-8.777
X112.9 Y322.408 Z-8.764
X112.921 Y322.326 Z-8.758
X112.971 Y322.107 Z-8.736
X113.028 Y321.811 Z-8.707
X113.078 Y321.519 Z-8.679
X113.096 Y321.402 Z-8.669
X113.132 Y321.155 Z-8.645
X113.199 Y320.64 Z-8.595
X113.209 Y320.538 Z-8.591
X113.213 Y320.451 Z-8.594
X113.21 Y320.387 Z-8.592
X113.196 Y320.233 Z-8.601
X113.122 Y319.664 Z-8.66
X113.079 Y319.368 Z-8.689
X113.029 Y319.065 Z-8.721
X113.013 Y318.979 Z-8.732
X112.966 Y318.743 Z-8.756
X112.898 Y318.448 Z-8.788
X112.859 Y318.298 Z-8.806
X112.812 Y318.134 Z-8.823
X112.797 Y318.086 Z-8.829
X112.707 Y317.819 Z-8.856
X112.658 Y317.69 Z-8.872
X112.615 Y317.583 Z-8.88
X112.576 Y317.493 Z-8.889
X112.468 Y317.269 Z-8.911
X112.393 Y317.129 Z-8.927
X112.284 Y316.94 Z-8.947
X112.232 Y316.857 Z-8.958
X112.095 Y316.652 Z-8.99
X112.025 Y316.553 Z-9.008
X111.876 Y316.356 Z-9.05
X111.809 Y316.273 Z-9.069
X111.648 Y316.082 Z-9.12
X111.561 Y315.983 Z-9.15
X111.343 Y315.747 Z-9.232
X111.127 Y315.526 Z-9.322
X110.899 Y315.349 Z-9.364
X110.816 Y315.285 Z-9.381
X110.582 Y315.113 Z-9.434
X110.319 Y314.928 Z-9.498
X110.059 Y314.753 Z-9.563
X109.946 Y314.679 Z-9.593
X109.736 Y314.547 Z-9.645
X109.532 Y314.422 Z-9.694
X109.298 Y314.286 Z-9.743
X109.132 Y314.193 Z-9.775
X109.053 Y314.15 Z-9.788
X108.938 Y314.09 Z-9.81
X108.851 Y314.049 Z-9.828
X108.742 Y314.002 Z-9.857
X108.538 Y313.92 Z-9.906
X108.329 Y313.84 Z-9.951
X108.115 Y313.762 Z-9.991
X107.894 Y313.684 Z-10.027
X107.504 Y313.555 Z-10.082
X107.426 Y313.53 Z-10.093
X107.068 Y313.418 Z-10.134
X106.938 Y313.379 Z-10.149
X106.418 Y313.227 Z-10.202
X105.978 Y313.103 Z-10.248
X105.722 Y313.045 Z-10.254
X105.273 Y312.948 Z-10.268
X104.671 Y312.825 Z-10.295
X104.325 Y312.758 Z-10.312
X103.87 Y312.677 Z-10.338
X103.405 Y312.602 Z-10.367
X103.308 Y312.588 Z-10.374
X102.933 Y312.534 Z-10.397
X102.475 Y312.477 Z-10.424
X102.322 Y312.46 Z-10.433
X101.996 Y312.426 Z-10.448
X101.544 Y312.388 Z-10.467
X101.109 Y312.357 Z-10.482
X101.005 Y312.35 Z-10.486
X100.631 Y312.33 Z-10.495
X99.98 Y312.302 Z-10.51
X99.277 Y312.28 Z-10.52
X98.396 Y312.263 Z-10.53
X97.887 Y312.255 Z-10.536
Z4
X29.002 Y223.068
Z-5.5
Z-6.501
X29.961 Y224.026 Z-8.161
X30.206 Y223.764 Z-7.707
X30.541 Y223.414 Z-7.1
X30.66 Y223.291 Z-6.888
X30.883 Y223.067 Z-6.501
X30.66 Y223.291 Z-6.888
X30.541 Y223.414 Z-7.1
X30.206 Y223.764 Z-7.707
X29.961 Y224.026 Z-8.161
X29.971 Y224.261 Z-8.18
X29.98 Y224.409 Z-8.195
X29.998 Y224.646 Z-8.227
X30.011 Y224.78 Z-8.248
X30.025 Y224.916 Z-8.274
X30.043 Y225.055 Z-8.303
X30.061 Y225.189 Z-8.335
X30.08 Y225.322 Z-8.369
X30.123 Y225.581 Z-8.442
X30.168 Y225.833 Z-8.52
X30.258 Y226.299 Z-8.677
X30.284 Y226.415 Z-8.721
X30.315 Y226.532 Z-8.776
X30.352 Y226.649 Z-8.84
X30.395 Y226.766 Z-8.914
X30.495 Y227.022 Z-9.087
X30.61 Y227.306 Z-9.286
X30.678 Y227.467 Z-9.404
X30.751 Y227.632 Z-9.53
X30.841 Y227.827 Z-9.686
X30.939 Y228.029 Z-9.857
X30.997 Y228.14 Z-9.956
X31.058 Y228.254 Z-10.061
X31.135 Y228.394 Z-10.196
X31.179 Y228.471 Z-10.273
X29.002 Y230.328 Z-6.501
X31.179 Y228.471 Z-10.273
X31.215 Y228.484 Z-10.261
X31.339 Y228.526 Z-10.223
X31.448 Y228.561 Z-10.192
X31.605 Y228.609 Z-10.154
X31.715 Y228.64 Z-10.131
X31.834 Y228.671 Z-10.11
X32.044 Y228.722 Z-10.08
X32.156 Y228.748 Z-10.068
X32.269 Y228.771 Z-10.058
X32.475 Y228.81 Z-10.048
X32.664 Y228.842 Z-10.046
X32.852 Y228.87 Z-10.049
X33.024 Y228.893 Z-10.058
X33.196 Y228.921 Z-10.082
X33.335 Y228.946 Z-10.113
X33.508 Y228.984 Z-10.165
X33.631 Y229.014 Z-10.212
X33.772 Y229.053 Z-10.274
X33.931 Y229.103 Z-10.355
X34.094 Y229.159 Z-10.452
X34.256 Y229.221 Z-10.56
X34.419 Y229.29 Z-10.679
X34.951 Y229.221 Z-10.56
X35.285 Y229.18 Z-10.489
X35.633 Y229.14 Z-10.42
X35.83 Y229.119 Z-10.384
X36.162 Y229.087 Z-10.328
X36.357 Y229.071 Z-10.3
X36.581 Y229.054 Z-10.271
X36.912 Y229.033 Z-10.235
X37.135 Y229.022 Z-10.215
X37.466 Y229.009 Z-10.192
X37.811 Y228.999 Z-10.175
X38.295 Y228.989 Z-10.158
X38.627 Y228.984 Z-10.149
X47.915
X48.209 Y228.982 Z-10.153
X48.502 Y228.981 Z-10.164
X48.68 Y228.979 Z-10.177
X48.859 Y228.977 Z-10.197
X49.039 Y228.975 Z-10.225
X49.22 Y228.973 Z-10.26
X49.306 Y228.972 Z-10.281
X49.455 Y228.97 Z-10.322
X49.626 Y228.967 Z-10.379
X49.732 Y228.966 Z-10.418
X49.851 Y228.965 Z-10.467
X49.965 Y228.964 Z-10.518
X50.084 Y228.961 Z-10.578
X50.228 Y228.96 Z-10.655
X50.434 Y228.957 Z-10.779
X50.521 Y228.956 Z-10.836
X50.601 Y229.077 Z-10.697
X50.693 Y229.22 Z-10.538
X50.762 Y229.333 Z-10.417
X50.854 Y229.487 Z-10.258
X50.918 Y229.599 Z-10.146
X51.003 Y229.753 Z-10
X51.112 Y229.964 Z-9.812
X51.21 Y230.165 Z-9.642
X51.293 Y230.347 Z-9.497
X51.374 Y230.532 Z-9.358
X51.486 Y230.804 Z-9.164
X51.553 Y230.974 Z-9.048
X51.65 Y231.228 Z-8.879
X51.691 Y231.343 Z-8.808
X51.727 Y231.457 Z-8.746
X51.757 Y231.572 Z-8.694
X51.782 Y231.687 Z-8.652
X51.847 Y232.034 Z-8.539
X51.89 Y232.279 Z-8.463
X51.932 Y232.532 Z-8.39
X51.97 Y232.791 Z-8.325
X51.988 Y232.926 Z-8.294
X52.004 Y233.061 Z-8.267
X52.018 Y233.197 Z-8.242
X52.03 Y233.33 Z-8.222
X52.047 Y233.567 Z-8.192
X52.055 Y233.712 Z-8.177
X52.065 Y233.941 Z-8.16
X51.931 Y234.084 Z-7.911
X51.592 Y234.44 Z-7.295
X51.366 Y234.675 Z-6.888
X51.142 Y234.899 Z-6.501
X51.366 Y234.675 Z-6.888
X51.592 Y234.44 Z-7.295
X51.931 Y234.084 Z-7.911
X52.065 Y233.941 Z-8.16
X53.023 Y234.898 Z-6.501
X52.065 Y233.941 Z-8.16
X52.055 Y233.712 Z-8.177
X52.047 Y233.567 Z-8.192
X52.03 Y233.33 Z-8.222
X52.018 Y233.197 Z-8.242
X52.004 Y233.061 Z-8.267
X51.988 Y232.926 Z-8.294
X51.97 Y232.791 Z-8.325
X51.932 Y232.532 Z-8.39
X51.89 Y232.279 Z-8.463
X51.847 Y232.034 Z-8.539
X51.782 Y231.687 Z-8.652
X51.757 Y231.572 Z-8.694
X51.727 Y231.457 Z-8.746
X51.691 Y231.343 Z-8.808
X51.65 Y231.228 Z-8.879
X51.553 Y230.974 Z-9.048
X51.486 Y230.804 Z-9.164
X51.374 Y230.532 Z-9.358
X51.293 Y230.347 Z-9.497
X51.21 Y230.165 Z-9.642
X51.112 Y229.964 Z-9.812
X51.003 Y229.753 Z-10
X50.918 Y229.599 Z-10.146
X50.854 Y229.487 Z-10.258
X50.762 Y229.333 Z-10.417
X50.693 Y229.22 Z-10.538
X50.601 Y229.077 Z-10.697
X50.521 Y228.956 Z-10.836
X50.648 Y228.756 Z-10.615
X50.751 Y228.588 Z-10.437
X50.821 Y228.468 Z-10.316
X50.898 Y228.331 Z-10.182
X51.021 Y228.101 Z-9.969
X51.125 Y227.894 Z-9.788
X51.221 Y227.693 Z-9.623
X51.298 Y227.522 Z-9.489
X51.376 Y227.345 Z-9.355
X51.502 Y227.041 Z-9.136
X51.606 Y226.78 Z-8.955
X51.652 Y226.657 Z-8.875
X51.692 Y226.535 Z-8.806
X51.726 Y226.413 Z-8.748
X51.754 Y226.29 Z-8.7
X51.824 Y225.935 Z-8.578
X51.872 Y225.682 Z-8.495
X51.918 Y225.42 Z-8.416
X51.956 Y225.175 Z-8.349
X51.979 Y225.011 Z-8.31
X51.997 Y224.868 Z-8.279
X52.012 Y224.73 Z-8.253
X52.025 Y224.592 Z-8.23
X52.036 Y224.458 Z-8.211
X52.052 Y224.216 Z-8.184
X52.059 Y224.069 Z-8.171
X52.07 Y223.797 Z-8.153
X51.743 Y223.454 Z-7.558
X51.5 Y223.202 Z-7.122
X51.142 Y222.844 Z-6.501
X51.5 Y223.202 Z-7.122
X51.743 Y223.454 Z-7.558
X52.07 Y223.797 Z-8.153
X53.023 Y222.844 Z-6.501
X52.07 Y223.797 Z-8.153
X52.059 Y224.069 Z-8.171
X52.052 Y224.216 Z-8.184
X52.036 Y224.458 Z-8.211
X52.025 Y224.592 Z-8.23
X52.012 Y224.73 Z-8.253
X51.997 Y224.868 Z-8.279
X51.979 Y225.011 Z-8.31
X51.956 Y225.175 Z-8.349
X51.918 Y225.42 Z-8.416
X51.872 Y225.682 Z-8.495
X51.824 Y225.935 Z-8.578
X51.754 Y226.29 Z-8.7
X51.726 Y226.413 Z-8.748
X51.692 Y226.535 Z-8.806
X51.652 Y226.657 Z-8.875
X51.606 Y226.78 Z-8.955
X51.502 Y227.041 Z-9.136
X51.376 Y227.345 Z-9.355
X51.298 Y227.522 Z-9.489
X51.221 Y227.693 Z-9.623
X51.125 Y227.894 Z-9.788
X51.021 Y228.101 Z-9.969
X50.898 Y228.331 Z-10.182
X50.821 Y228.468 Z-10.316
X50.751 Y228.588 Z-10.437
X50.648 Y228.756 Z-10.615
X50.521 Y228.956 Z-10.836
X50.434 Y228.957 Z-10.779
X50.228 Y228.96 Z-10.655
X50.084 Y228.961 Z-10.578
X49.965 Y228.964 Z-10.518
X49.851 Y228.965 Z-10.467
X49.732 Y228.966 Z-10.418
X49.626 Y228.967 Z-10.379
X49.455 Y228.97 Z-10.322
X49.306 Y228.972 Z-10.281
X49.22 Y228.973 Z-10.26
X49.039 Y228.975 Z-10.225
X48.859 Y228.977 Z-10.197
X48.68 Y228.979 Z-10.177
X48.502 Y228.981 Z-10.164
X48.209 Y228.982 Z-10.153
X47.915 Y228.984 Z-10.149
X38.627
X38.295 Y228.989 Z-10.158
X37.811 Y228.999 Z-10.175
X37.466 Y229.009 Z-10.192
X37.135 Y229.022 Z-10.215
X36.912 Y229.033 Z-10.235
X36.581 Y229.054 Z-10.271
X36.357 Y229.071 Z-10.3
X36.162 Y229.087 Z-10.328
X35.83 Y229.119 Z-10.384
X35.633 Y229.14 Z-10.42
X35.285 Y229.18 Z-10.489
X34.951 Y229.221 Z-10.56
X34.419 Y229.29 Z-10.679
X34.378 Y229.437 Z-10.457
X34.34 Y229.57 Z-10.26
X34.269 Y229.806 Z-9.92
X34.2 Y230.012 Z-9.63
X34.12 Y230.22 Z-9.341
X34.045 Y230.397 Z-9.104
X33.998 Y230.498 Z-8.972
X33.945 Y230.605 Z-8.835
X33.904 Y230.682 Z-8.74
X33.85 Y230.779 Z-8.622
X33.81 Y230.845 Z-8.544
X33.747 Y230.945 Z-8.431
X33.627 Y231.134 Z-8.225
X33.55 Y231.25 Z-8.104
X33.507 Y231.31 Z-8.047
X33.447 Y231.387 Z-7.978
X33.401 Y231.441 Z-7.935
X33.335 Y231.514 Z-7.884
X33.287 Y231.562 Z-7.855
X33.22 Y231.623 Z-7.826
X33.17 Y231.666 Z-7.811
X33.093 Y231.726 Z-7.799
X33.068 Y231.744
X32.969 Y231.81 Z-7.805
X32.839 Y231.897 Z-7.821
X32.694 Y231.998 Z-7.843
X32.484 Y232.15 Z-7.881
X32.355 Y232.248 Z-7.907
X32.104 Y232.445 Z-7.96
X31.915 Y232.6 Z-7.999
X31.76 Y232.733 Z-8.029
X31.709 Y232.782 Z-8.045
X31.674 Y232.819 Z-8.059
X31.575 Y232.928 Z-8.1
X31.473 Y233.044 Z-8.14
X31.372 Y233.163 Z-8.177
X31.269 Y233.291 Z-8.213
X31.172 Y233.42 Z-8.244
X31.075 Y233.556 Z-8.274
X30.979 Y233.698 Z-8.303
X30.885 Y233.848 Z-8.333
X30.793 Y234.003 Z-8.364
X30.702 Y234.168 Z-8.4
X30.616 Y234.336 Z-8.439
X30.534 Y234.508 Z-8.485
X30.437 Y234.726 Z-8.549
X30.41 Y234.789 Z-8.569
X30.392 Y234.849 Z-8.576
X30.343 Y235.022 Z-8.601
X30.298 Y235.192 Z-8.63
X30.238 Y235.441 Z-8.677
X30.205 Y235.59 Z-8.706
X30.157 Y235.83 Z-8.753
X30.125 Y236.014 Z-8.788
X30.084 Y236.279 Z-8.833
X30.063 Y236.449 Z-8.856
X30.052 Y236.574 Z-8.875
X30.04 Y236.812 Z-8.914
X30.032 Y237.094 Z-8.954
X30.03 Y237.379 Z-8.991
X30.033 Y237.596 Z-9.019
X30.042 Y237.859 Z-9.057
X30.051 Y238.048 Z-9.086
X30.055 Y238.112 Z-9.098
X30.076 Y238.292 Z-9.116
X30.111 Y238.54 Z-9.149
X30.151 Y238.78 Z-9.188
X30.199 Y239.025 Z-9.235
X30.26 Y239.286 Z-9.295
X30.305 Y239.455 Z-9.339
X30.334 Y239.553 Z-9.364
X30.388 Y239.72 Z-9.412
X30.433 Y239.848 Z-9.452
X30.518 Y240.066 Z-9.519
X30.59 Y240.23 Z-9.57
X30.649 Y240.354 Z-9.609
X30.743 Y240.532 Z-9.662
X30.801 Y240.632 Z-9.691
X30.884 Y240.768 Z-9.726
X30.998 Y240.937 Z-9.765
X31.126 Y241.113 Z-9.804
X31.238 Y241.259 Z-9.833
X31.373 Y241.426 Z-9.865
X31.51 Y241.589 Z-9.894
X31.63 Y241.73 Z-9.917
X31.734 Y241.845 Z-9.939
X31.817 Y241.93 Z-9.962
X31.903 Y242.013 Z-9.992
X32.035 Y242.131 Z-10.045
X32.115 Y242.178 Z-10.052
X32.469 Y242.379 Z-10.091
X32.652 Y242.481 Z-10.109
X32.874 Y242.601 Z-10.131
X33.185 Y242.761 Z-10.16
X33.398 Y242.863 Z-10.178
X33.602 Y242.954 Z-10.193
X33.745 Y243.013 Z-10.201
X33.926 Y243.084 Z-10.209
X34.166 Y243.166 Z-10.216
X34.353 Y243.222 Z-10.217
X34.501 Y243.261 Z-10.213
X34.704 Y243.308 Z-10.209
X34.962 Y243.36 Z-10.203
X35.21 Y243.401 Z-10.195
X35.45 Y243.434 Z-10.187
X35.703 Y243.462 Z-10.179
X35.959 Y243.485 Z-10.172
X36.003 Y243.488 Z-10.171
X36.419 Y243.514 Z-10.161
X36.793 Y243.53 Z-10.156
X37.299 Y243.545 Z-10.152
X37.498 Y243.549 Z-10.149
X47.915 Z-10.148
X48.31 Y243.55 Z-10.149
X48.611 Y243.554 Z-10.156
X48.787 Y243.558 Z-10.164
X48.963 Y243.565 Z-10.175
X49.138 Y243.574 Z-10.191
X49.332 Y243.587 Z-10.214
X49.528 Y243.604 Z-10.243
X49.742 Y243.626 Z-10.282
X49.86 Y243.641 Z-10.307
X49.978 Y243.657 Z-10.335
X50.198 Y243.692 Z-10.395
X50.323 Y243.714 Z-10.433
X50.441 Y243.736 Z-10.472
X50.605 Y243.77 Z-10.531
X50.68 Y243.787 Z-10.56
X53.023 Y241.444 Z-6.501
X50.68 Y243.787 Z-10.56
X50.774 Y243.94 Z-10.397
X50.911 Y244.173 Z-10.16
X51.034 Y244.395 Z-9.947
X51.126 Y244.571 Z-9.787
X51.217 Y244.751 Z-9.629
X51.298 Y244.917 Z-9.489
X51.438 Y245.217 Z-9.246
X51.552 Y245.467 Z-9.05
X51.601 Y245.581 Z-8.965
X51.644 Y245.695 Z-8.889
X51.683 Y245.809 Z-8.823
X51.716 Y245.923 Z-8.766
X51.744 Y246.037 Z-8.718
X51.84 Y246.482 Z-8.551
X51.868 Y246.618 Z-8.503
X51.894 Y246.75 Z-8.458
X51.935 Y246.979 Z-8.386
X51.962 Y247.144 Z-8.339
X51.982 Y247.281 Z-8.304
X52 Y247.419 Z-8.273
X52.016 Y247.556 Z-8.246
X52.029 Y247.689 Z-8.223
X52.04 Y247.82 Z-8.204
X52.055 Y248.052 Z-8.178
X52.063 Y248.195 Z-8.165
X52.066 Y248.283 Z-8.159
X51.919 Y248.441 Z-7.885
X51.696 Y248.676 Z-7.479
X51.366 Y249.017 Z-6.888
X51.142 Y249.241 Z-6.501
X51.366 Y249.017 Z-6.888
X51.696 Y248.676 Z-7.479
X51.919 Y248.441 Z-7.885
X52.066 Y248.283 Z-8.159
X53.023 Y249.24 Z-6.501
Z4
X41.326 Y272.231
Z-5.5
Z-6.501
X39.298 Y270.204 Z-10.013
X39.064 Y269.962 Z-10.418
X38.978 Y269.963 Z-10.411
X38.851 Y269.961 Z-10.407
X38.284 Y269.942 Z-10.4
X37.819 Y269.921 Z-10.39
X37.545 Y269.905 Z-10.384
X37.272 Y269.885 Z-10.377
X36.991 Y269.86 Z-10.368
X36.698 Y269.828 Z-10.358
X36.411 Y269.791 Z-10.345
X36.135 Y269.748 Z-10.329
X35.85 Y269.694 Z-10.308
X35.612 Y269.642 Z-10.287
X35.371 Y269.581 Z-10.262
X35.261 Y269.55 Z-10.248
X35.128 Y269.511 Z-10.232
X34.968 Y269.459 Z-10.207
X34.879 Y269.429 Z-10.195
X34.619 Y269.335 Z-10.152
X34.354 Y269.231 Z-10.106
X34.077 Y269.115 Z-10.053
X33.793 Y268.987 Z-9.997
X33.656 Y268.924 Z-9.968
X33.419 Y268.81 Z-9.92
X33.175 Y268.69 Z-9.869
X32.579 Y268.386 Z-9.742
X32.5 Y268.345 Z-9.725
X32.334 Y268.219 Z-9.644
X32.214 Y268.118 Z-9.595
X32.005 Y267.925 Z-9.525
X31.778 Y267.71 Z-9.447
X31.572 Y267.508 Z-9.376
X31.379 Y267.309 Z-9.308
X31.204 Y267.118 Z-9.246
X31.044 Y266.931 Z-9.187
X30.882 Y266.727 Z-9.126
X30.732 Y266.519 Z-9.068
X30.727 Y266.511 Z-9.066
X30.604 Y266.321 Z-9.015
X30.535 Y266.204 Z-8.982
X30.488 Y266.119 Z-8.962
X30.447 Y266.042 Z-8.941
X30.4 Y265.949 Z-8.918
X30.324 Y265.782 Z-8.878
X30.283 Y265.688 Z-8.858
X30.217 Y265.516 Z-8.822
X30.189 Y265.44 Z-8.808
X30.13 Y265.255 Z-8.774
X30.057 Y264.995 Z-8.734
X29.998 Y264.747 Z-8.702
X29.95 Y264.502 Z-8.676
X29.91 Y264.263 Z-8.655
X29.882 Y264.071 Z-8.642
X29.848 Y263.801 Z-8.627
X29.825 Y263.577 Z-8.617
X29.786 Y263.149 Z-8.603
X29.767 Y262.914 Z-8.597
X29.768 Y262.824 Z-8.588
X29.773 Y262.734 Z-8.585
X29.795 Y262.495 Z-8.591
X29.835 Y262.092 Z-8.605
X29.862 Y261.859 Z-8.614
X29.89 Y261.637 Z-8.626
X29.924 Y261.415 Z-8.64
X29.956 Y261.229 Z-8.655
X30 Y261 Z-8.677
X30.053 Y260.769 Z-8.703
X30.116 Y260.531 Z-8.735
X30.135 Y260.464 Z-8.746
X30.19 Y260.29 Z-8.774
X30.248 Y260.125 Z-8.806
X30.28 Y260.041 Z-8.82
X30.352 Y259.865 Z-8.859
X30.384 Y259.794 Z-8.873
X30.466 Y259.621 Z-8.914
X30.5 Y259.555 Z-8.928
X30.589 Y259.391 Z-8.969
X30.629 Y259.324 Z-8.983
X30.722 Y259.172 Z-9.021
X30.764 Y259.109 Z-9.035
X30.867 Y258.959 Z-9.072
X30.908 Y258.902 Z-9.084
X31.025 Y258.747 Z-9.122
X31.199 Y258.534 Z-9.171
X31.357 Y258.353 Z-9.211
X31.527 Y258.169 Z-9.253
X31.801 Y257.885 Z-9.315
X31.955 Y257.731 Z-9.346
X32.026 Y257.664 Z-9.362
X32.137 Y257.566 Z-9.394
X32.252 Y257.473 Z-9.437
X32.547 Y257.251 Z-9.553
X32.891 Y256.995 Z-9.687
X33.023 Y256.925 Z-9.697
X33.386 Y256.735 Z-9.727
X33.641 Y256.606 Z-9.75
X33.906 Y256.477 Z-9.777
X34.102 Y256.384 Z-9.8
X34.447 Y256.227 Z-9.841
X34.733 Y256.107 Z-9.878
X35.023 Y255.992 Z-9.918
X35.083 Y255.969 Z-9.928
X35.323 Y255.883 Z-9.962
X35.468 Y255.833 Z-9.986
X35.628 Y255.782 Z-10.008
X35.797 Y255.73 Z-10.034
X35.921 Y255.694 Z-10.05
X36.117 Y255.64 Z-10.079
X36.432 Y255.563 Z-10.117
X36.753 Y255.494 Z-10.151
X37.079 Y255.434 Z-10.18
X37.375 Y255.388 Z-10.201
X37.657 Y255.35 Z-10.217
X38.111 Y255.297 Z-10.238
X38.472 Y255.262 Z-10.247
X38.739 Y255.239 Z-10.25
X38.845 Y255.231 Z-10.254
X38.972 Y255.227 Z-10.262
X39.099 Z-10.276
X39.227 Y255.23 Z-10.297
X39.358 Y255.237 Z-10.323
X39.49 Y255.249 Z-10.357
X39.622 Y255.265 Z-10.397
X39.755 Y255.286 Z-10.443
X39.888 Y255.31 Z-10.496
X40.021 Y255.339 Z-10.556
X40.042 Y255.344 Z-10.566
X40.047 Y255.49 Z-10.35
X40.052 Y255.632 Z-10.147
X40.057 Y255.769 Z-9.955
X40.062 Y255.902 Z-9.775
X40.067 Y256.032 Z-9.605
X40.072 Y256.158 Z-9.448
X40.076 Y256.281 Z-9.301
X40.081 Y256.402 Z-9.167
X40.085 Y256.52 Z-9.046
X40.087 Y256.579 Z-8.99
X40.092 Y256.694 Z-8.888
X40.096 Y256.808 Z-8.8
X40.098 Y256.864 Z-8.762
X40.1 Y256.92 Z-8.727
X40.102 Y256.976 Z-8.697
X40.104 Y257.032 Z-8.67
X40.106 Y257.087 Z-8.647
X40.108 Y257.143 Z-8.629
X40.11 Y257.198 Z-8.615
X40.113 Y257.253 Z-8.604
X40.115 Y257.308 Z-8.599
X40.116 Y257.398 Z-8.596
Y267.706
X40.113 Y267.839 Z-8.602
X40.102 Y267.971 Z-8.621
X40.083 Y268.104 Z-8.653
X40.058 Y268.237 Z-8.697
X40.025 Y268.37 Z-8.753
X39.985 Y268.502 Z-8.823
X39.938 Y268.635 Z-8.905
X39.883 Y268.768 Z-8.999
X39.821 Y268.901 Z-9.106
X39.752 Y269.033 Z-9.226
X39.676 Y269.166 Z-9.359
X39.592 Y269.299 Z-9.504
X39.501 Y269.431 Z-9.661
X39.403 Y269.564 Z-9.831
X39.297 Y269.697 Z-10.014
X39.185 Y269.83 Z-10.21
X39.064 Y269.962 Z-10.418
X39.185 Y269.83 Z-10.21
X39.297 Y269.697 Z-10.014
X39.403 Y269.564 Z-9.831
X39.501 Y269.431 Z-9.661
X39.592 Y269.299 Z-9.504
X39.676 Y269.166 Z-9.359
X39.752 Y269.033 Z-9.226
X39.821 Y268.901 Z-9.106
X39.883 Y268.768 Z-8.999
X39.938 Y268.635 Z-8.905
X39.985 Y268.502 Z-8.823
X40.025 Y268.37 Z-8.753
X40.058 Y268.237 Z-8.697
X40.083 Y268.104 Z-8.653
X40.102 Y267.971 Z-8.621
X40.113 Y267.839 Z-8.602
X40.116 Y267.706 Z-8.596
Y257.398
X40.115 Y257.308 Z-8.599
X40.113 Y257.253 Z-8.604
X40.11 Y257.198 Z-8.615
X40.108 Y257.143 Z-8.629
X40.106 Y257.087 Z-8.647
X40.104 Y257.032 Z-8.67
X40.102 Y256.976 Z-8.697
X40.1 Y256.92 Z-8.727
X40.098 Y256.864 Z-8.762
X40.096 Y256.808 Z-8.8
X40.092 Y256.694 Z-8.888
X40.087 Y256.579 Z-8.99
X40.085 Y256.52 Z-9.046
X40.081 Y256.402 Z-9.167
X40.076 Y256.281 Z-9.301
X40.072 Y256.158 Z-9.448
X40.067 Y256.032 Z-9.605
X40.062 Y255.902 Z-9.775
X40.057 Y255.769 Z-9.955
X40.052 Y255.632 Z-10.147
X40.047 Y255.49 Z-10.35
X40.042 Y255.344 Z-10.566
X40.168 Y255.305 Z-10.507
X40.294 Y255.271 Z-10.456
X40.42 Y255.24 Z-10.41
X40.556 Y255.212 Z-10.368
X40.693 Y255.188 Z-10.333
X40.829 Y255.168 Z-10.305
X41.003 Y255.149 Z-10.281
X41.178 Y255.138 Z-10.268
X41.287 Y255.137 Z-10.26
X41.395 Y255.14 Z-10.257
X41.909 Y255.159 Z-10.252
X42.3 Y255.176 Z-10.249
X42.703 Y255.197 Z-10.244
X43.055 Y255.22 Z-10.24
X43.42 Y255.25 Z-10.235
X43.773 Y255.285 Z-10.229
X44.116 Y255.327 Z-10.223
X44.45 Y255.375 Z-10.214
X44.808 Y255.438 Z-10.201
X45.108 Y255.5 Z-10.189
X45.171 Y255.514 Z-10.185
X45.387 Y255.566 Z-10.176
X45.531 Y255.605 Z-10.165
X45.681 Y255.647 Z-10.156
X45.899 Y255.714 Z-10.137
X45.975 Y255.738 Z-10.132
X46.27 Y255.841 Z-10.105
X46.61 Y255.975 Z-10.07
X46.949 Y256.121 Z-10.035
X47.271 Y256.271 Z-10.001
X47.589 Y256.429 Z-9.968
X47.893 Y256.587 Z-9.937
X48.194 Y256.749 Z-9.907
X48.522 Y256.932 Z-9.877
X48.991 Y257.2 Z-9.834
X49.288 Y257.43 Z-9.718
X49.355 Y257.484 Z-9.693
X49.443 Y257.558 Z-9.664
X49.529 Y257.636 Z-9.641
X49.612 Y257.715 Z-9.624
X49.701 Y257.808 Z-9.612
X49.84 Y257.958 Z-9.599
X50.031 Y258.17 Z-9.576
X50.214 Y258.378 Z-9.552
X50.367 Y258.559 Z-9.53
X50.454 Y258.664 Z-9.518
X50.536 Y258.768 Z-9.503
X50.634 Y258.894 Z-9.488
X50.706 Y258.99 Z-9.473
X50.799 Y259.119 Z-9.457
X50.869 Y259.221 Z-9.44
X50.949 Y259.342 Z-9.423
X51.026 Y259.464 Z-9.402
X51.062 Y259.523 Z-9.393
X51.175 Y259.721 Z-9.358
X51.211 Y259.788 Z-9.347
X51.314 Y259.995 Z-9.309
X51.435 Y260.27 Z-9.259
X51.474 Y260.369 Z-9.24
X51.536 Y260.535 Z-9.213
X51.552 Y260.581 Z-9.203
X51.627 Y260.814 Z-9.168
X51.648 Y260.883 Z-9.156
X51.709 Y261.107 Z-9.126
X51.728 Y261.181 Z-9.115
X51.781 Y261.414 Z-9.088
X51.794 Y261.475 Z-9.08
X51.844 Y261.731 Z-9.056
X51.895 Y262.045 Z-9.03
X51.933 Y262.323 Z-9.012
X51.965 Y262.595 Z-8.999
X51.981 Y262.747 Z-8.994
X52.015 Y263.103 Z-8.985
X52.037 Y263.38 Z-8.981
X52.051 Y263.878 Z-8.936
X52.052 Y263.957 Z-8.931
X52.05 Y264.035 Z-8.929
X52.034 Y264.396 Z-8.928
X52.012 Y264.745 Z-8.923
X51.996 Y264.947 Z-8.919
X51.977 Y265.136 Z-8.913
X51.955 Y265.328 Z-8.906
X51.928 Y265.523 Z-8.897
X51.9 Y265.689 Z-8.889
X51.894 Y265.722 Z-8.887
X51.856 Y265.921 Z-8.875
X51.811 Y266.124 Z-8.864
X51.762 Y266.324 Z-8.854
X51.717 Y266.49 Z-8.848
X51.645 Y266.738 Z-8.843
X51.581 Y266.941
X51.515 Y267.136 Z-8.847
X51.464 Y267.282 Z-8.852
X51.445 Y267.327 Z-8.85
X51.358 Y267.534 Z-8.841
X51.24 Y267.795 Z-8.833
X51.142 Y268.004 Z-8.825
X51.045 Y268.2 Z-8.813
X50.95 Y268.379 Z-8.796
X50.873 Y268.516 Z-8.778
X50.805 Y268.625 Z-8.764
X50.689 Y268.789 Z-8.745
X50.561 Y268.962 Z-8.718
X50.449 Y269.106 Z-8.692
X50.261 Y269.34 Z-8.646
X50.149 Y269.476 Z-8.622
X49.966 Y269.663 Z-8.557
X49.864 Y269.761 Z-8.521
X49.772 Y269.846 Z-8.487
X49.679 Y269.925 Z-8.45
X49.608 Y269.981 Z-8.419
X49.543 Y270.028 Z-8.388
X49.446 Y270.091 Z-8.336
X49.342 Y270.152 Z-8.277
X49.216 Y270.221 Z-8.204
X48.99 Y270.335 Z-8.072
X48.898 Y270.368 Z-8.005
X48.78 Y270.406 Z-7.917
X48.711 Y270.424 Z-7.86
X48.634 Y270.438 Z-7.791
X48.507 Y270.455 Z-7.67
X48.362 Y270.471 Z-7.529
X48.159 Y270.476 Z-7.312
X48.03 Y270.473 Z-7.167
X47.947 Y270.467 Z-7.068
X47.84 Y270.453 Z-6.933
X47.711 Y270.432 Z-6.765
X47.512 Y270.395 Z-6.501
Z4
X29.002 Y275.953
Z-5.5
Z-6.501
X29.961 Y276.911 Z-8.161
X30.206 Y276.649 Z-7.707
X30.541 Y276.299 Z-7.1
X30.66 Y276.176 Z-6.888
X30.883 Y275.952 Z-6.501
X30.66 Y276.176 Z-6.888
X30.541 Y276.299 Z-7.1
X30.206 Y276.649 Z-7.707
X29.961 Y276.911 Z-8.161
X29.971 Y277.146 Z-8.18
X29.98 Y277.294 Z-8.195
X29.998 Y277.531 Z-8.227
X30.011 Y277.666 Z-8.248
X30.026 Y277.803 Z-8.274
X30.042 Y277.939 Z-8.303
X30.061 Y278.074 Z-8.335
X30.081 Y278.21 Z-8.369
X30.123 Y278.466 Z-8.442
X30.168 Y278.718 Z-8.52
X30.258 Y279.184 Z-8.677
X30.284 Y279.3 Z-8.721
X30.315 Y279.417 Z-8.776
X30.352 Y279.534 Z-8.84
X30.395 Y279.651 Z-8.914
X30.495 Y279.907 Z-9.087
X30.564 Y280.08 Z-9.206
X30.678 Y280.352 Z-9.404
X30.751 Y280.517 Z-9.53
X30.841 Y280.712 Z-9.686
X30.939 Y280.914 Z-9.857
X30.997 Y281.025 Z-9.956
X31.058 Y281.139 Z-10.061
X31.135 Y281.279 Z-10.196
X31.18 Y281.357 Z-10.273
X29.002 Y283.213 Z-6.501
X31.18 Y281.357 Z-10.273
X31.214 Y281.369 Z-10.261
X31.339 Y281.411 Z-10.223
X31.448 Y281.447 Z-10.193
X31.605 Y281.494 Z-10.155
X31.715 Y281.525 Z-10.132
X31.834 Y281.557 Z-10.111
X32.044 Y281.608 Z-10.081
X32.156 Y281.633 Z-10.068
X32.269 Y281.657 Z-10.059
X32.475 Y281.696 Z-10.049
X32.664 Y281.727 Z-10.046
X32.852 Y281.756 Z-10.05
X33.024 Y281.779 Z-10.059
X33.196 Y281.806 Z-10.083
X33.335 Y281.832 Z-10.113
X33.508 Y281.87 Z-10.165
X33.631 Y281.9 Z-10.213
X33.772 Y281.939 Z-10.274
X33.931 Y281.988 Z-10.356
X34.094 Y282.044 Z-10.452
X34.256 Y282.106 Z-10.56
X34.418 Y282.175 Z-10.679
X34.951 Y282.106 Z-10.56
X35.285 Y282.065 Z-10.489
X35.633 Y282.025 Z-10.42
X35.981 Y281.989 Z-10.358
X36.343 Y281.957 Z-10.302
X36.552 Y281.941 Z-10.274
X36.775 Y281.926 Z-10.249
X37.106 Y281.909 Z-10.218
X37.452 Y281.894 Z-10.193
X37.811 Y281.884 Z-10.175
X38.295 Y281.874 Z-10.158
X38.627 Y281.869 Z-10.149
X47.915 Y281.868
X48.062
X48.297 Y281.867 Z-10.155
X48.518 Y281.866 Z-10.165
X48.68 Y281.864 Z-10.177
X48.859 Y281.862 Z-10.198
X49.033 Y281.861 Z-10.223
X49.237 Y281.858 Z-10.264
X49.438 Y281.855 Z-10.316
X49.626 Y281.853 Z-10.378
X49.732 Y281.852 Z-10.417
X49.851 Y281.85 Z-10.467
X49.965 Y281.849 Z-10.518
X50.084 Y281.846 Z-10.577
X50.229 Y281.845 Z-10.655
X50.434 Y281.842 Z-10.779
X50.521 Y281.841 Z-10.836
X50.648 Y281.641 Z-10.615
X50.751 Y281.473 Z-10.437
X50.821 Y281.353 Z-10.316
X50.898 Y281.216 Z-10.182
X51.014 Y280.999 Z-9.98
X51.077 Y280.878 Z-9.873
X51.131 Y280.768 Z-9.778
X51.216 Y280.589 Z-9.632
X51.303 Y280.398 Z-9.481
X51.376 Y280.23 Z-9.355
X51.498 Y279.934 Z-9.142
X51.609 Y279.657 Z-8.95
X51.654 Y279.537 Z-8.872
X51.693 Y279.416 Z-8.804
X51.726 Y279.296 Z-8.747
X51.754 Y279.175 Z-8.7
X51.824 Y278.82 Z-8.578
X51.872 Y278.567 Z-8.495
X51.918 Y278.305 Z-8.416
X51.956 Y278.06 Z-8.349
X51.979 Y277.896 Z-8.31
X51.997 Y277.755 Z-8.279
X52.012 Y277.614 Z-8.253
X52.025 Y277.477 Z-8.23
X52.036 Y277.343 Z-8.211
X52.052 Y277.101 Z-8.184
X52.059 Y276.954 Z-8.171
X52.07 Y276.682 Z-8.153
X51.743 Y276.339 Z-7.558
X51.5 Y276.087 Z-7.122
X51.142 Y275.729 Z-6.501
X51.5 Y276.087 Z-7.122
X51.743 Y276.339 Z-7.558
X52.07 Y276.682 Z-8.153
X53.023 Y275.729 Z-6.501
X52.07 Y276.682 Z-8.153
X52.059 Y276.954 Z-8.171
X52.052 Y277.101 Z-8.184
X52.036 Y277.343 Z-8.211
X52.025 Y277.477 Z-8.23
X52.012 Y277.614 Z-8.253
X51.997 Y277.755 Z-8.279
X51.979 Y277.896 Z-8.31
X51.956 Y278.06 Z-8.349
X51.918 Y278.305 Z-8.416
X51.872 Y278.567 Z-8.495
X51.824 Y278.82 Z-8.578
X51.754 Y279.175 Z-8.7
X51.726 Y279.296 Z-8.747
X51.693 Y279.416 Z-8.804
X51.654 Y279.537 Z-8.872
X51.609 Y279.657 Z-8.95
X51.498 Y279.934 Z-9.142
X51.376 Y280.23 Z-9.355
X51.303 Y280.398 Z-9.481
X51.216 Y280.589 Z-9.632
X51.131 Y280.768 Z-9.778
X51.077 Y280.878 Z-9.873
X51.014 Y280.999 Z-9.98
X50.898 Y281.216 Z-10.182
X50.821 Y281.353 Z-10.316
X50.751 Y281.473 Z-10.437
X50.648 Y281.641 Z-10.615
X50.521 Y281.841 Z-10.836
X50.601 Y281.962 Z-10.697
X50.693 Y282.105 Z-10.538
X50.762 Y282.218 Z-10.417
X50.863 Y282.388 Z-10.242
X50.928 Y282.501 Z-10.131
X50.995 Y282.625 Z-10.014
X51.055 Y282.738 Z-9.91
X51.112 Y282.849 Z-9.812
X51.21 Y283.05 Z-9.642
X51.298 Y283.243 Z-9.489
X51.37 Y283.408 Z-9.365
X51.437 Y283.569 Z-9.248
X51.5 Y283.724 Z-9.14
X51.65 Y284.113 Z-8.879
X51.692 Y284.229 Z-8.807
X51.727 Y284.344 Z-8.745
X51.758 Y284.46 Z-8.693
X51.782 Y284.576 Z-8.65
X51.868 Y285.039 Z-8.501
X51.911 Y285.289 Z-8.427
X51.952 Y285.544 Z-8.357
X51.971 Y285.679 Z-8.324
X52.001 Y285.917 Z-8.272
X52.018 Y286.083 Z-8.242
X52.03 Y286.214 Z-8.222
X52.047 Y286.452 Z-8.192
X52.055 Y286.597 Z-8.177
X52.065 Y286.826 Z-8.16
X51.822 Y287.085 Z-7.711
X51.373 Y287.552 Z-6.902
X51.142 Y287.783 Z-6.501
X51.373 Y287.552 Z-6.902
X51.822 Y287.085 Z-7.711
X52.065 Y286.826 Z-8.16
X53.023 Y287.783 Z-6.501
X52.065 Y286.826 Z-8.16
X52.055 Y286.597 Z-8.177
X52.047 Y286.452 Z-8.192
X52.03 Y286.214 Z-8.222
X52.018 Y286.083 Z-8.242
X52.001 Y285.917 Z-8.272
X51.971 Y285.679 Z-8.324
X51.952 Y285.544 Z-8.357
X51.911 Y285.289 Z-8.427
X51.868 Y285.039 Z-8.501
X51.782 Y284.576 Z-8.65
X51.758 Y284.46 Z-8.693
X51.727 Y284.344 Z-8.745
X51.692 Y284.229 Z-8.807
X51.65 Y284.113 Z-8.879
X51.5 Y283.724 Z-9.14
X51.437 Y283.569 Z-9.248
X51.37 Y283.408 Z-9.365
X51.298 Y283.243 Z-9.489
X51.21 Y283.05 Z-9.642
X51.112 Y282.849 Z-9.812
X51.055 Y282.738 Z-9.91
X50.995 Y282.625 Z-10.014
X50.928 Y282.501 Z-10.131
X50.863 Y282.388 Z-10.242
X50.762 Y282.218 Z-10.417
X50.693 Y282.105 Z-10.538
X50.601 Y281.962 Z-10.697
X50.521 Y281.841 Z-10.836
X50.434 Y281.842 Z-10.779
X50.229 Y281.845 Z-10.655
X50.084 Y281.846 Z-10.577
X49.965 Y281.849 Z-10.518
X49.851 Y281.85 Z-10.467
X49.732 Y281.852 Z-10.417
X49.626 Y281.853 Z-10.378
X49.438 Y281.855 Z-10.316
X49.237 Y281.858 Z-10.264
X49.033 Y281.861 Z-10.223
X48.859 Y281.862 Z-10.198
X48.68 Y281.864 Z-10.177
X48.518 Y281.866 Z-10.165
X48.297 Y281.867 Z-10.155
X48.062 Y281.868 Z-10.149
X47.915
X38.627 Y281.869
X38.295 Y281.874 Z-10.158
X37.811 Y281.884 Z-10.175
X37.452 Y281.894 Z-10.193
X37.106 Y281.909 Z-10.218
X36.775 Y281.926 Z-10.249
X36.552 Y281.941 Z-10.274
X36.343 Y281.957 Z-10.302
X35.981 Y281.989 Z-10.358
X35.633 Y282.025 Z-10.42
X35.285 Y282.065 Z-10.489
X34.951 Y282.106 Z-10.56
X34.418 Y282.175 Z-10.679
X34.377 Y282.321 Z-10.458
X34.34 Y282.454 Z-10.262
X34.276 Y282.669 Z-9.952
X34.201 Y282.893 Z-9.636
X34.128 Y283.086 Z-9.368
X34.12 Y283.105 Z-9.342
X34.045 Y283.282 Z-9.105
X33.998 Y283.383 Z-8.972
X33.958 Y283.463 Z-8.869
X33.899 Y283.577 Z-8.728
X33.858 Y283.65 Z-8.639
X33.813 Y283.726 Z-8.549
X33.77 Y283.794 Z-8.471
X33.662 Y283.963 Z-8.285
X33.566 Y284.113 Z-8.127
X33.511 Y284.19 Z-8.051
X33.467 Y284.248 Z-7.999
X33.401 Y284.326 Z-7.935
X33.355 Y284.378 Z-7.897
X33.287 Y284.447 Z-7.855
X33.238 Y284.493 Z-7.832
X33.166 Y284.555 Z-7.81
X33.114 Y284.596 Z-7.801
X33.064 Y284.633 Z-7.799
X33.011 Y284.668 Z-7.801
X32.966 Y284.698 Z-7.805
X32.733 Y284.855 Z-7.836
X32.694 Y284.883 Z-7.843
X32.484 Y285.035 Z-7.881
X32.248 Y285.215 Z-7.93
X32.025 Y285.393 Z-7.976
X31.835 Y285.552 Z-8.014
X31.76 Y285.618 Z-8.029
X31.71 Y285.666 Z-8.044
X31.595 Y285.791 Z-8.092
X31.488 Y285.911 Z-8.135
X31.387 Y286.031 Z-8.172
X31.29 Y286.15 Z-8.207
X31.196 Y286.272 Z-8.237
X31.105 Y286.397 Z-8.265
X31.075 Y286.441 Z-8.274
X30.979 Y286.583 Z-8.303
X30.903 Y286.703 Z-8.327
X30.812 Y286.855 Z-8.357
X30.723 Y287.014 Z-8.391
X30.639 Y287.177 Z-8.428
X30.555 Y287.348 Z-8.472
X30.476 Y287.522 Z-8.521
X30.411 Y287.672 Z-8.568
X30.353 Y287.87 Z-8.596
X30.312 Y288.024 Z-8.621
X30.273 Y288.177 Z-8.648
X30.237 Y288.328 Z-8.677
X30.189 Y288.55 Z-8.72
X30.149 Y288.76 Z-8.762
X30.103 Y289.033 Z-8.811
X30.084 Y289.165 Z-8.833
X30.068 Y289.295 Z-8.851
X30.054 Y289.426 Z-8.869
X30.042 Y289.646 Z-8.906
X30.035 Y289.837 Z-8.935
X30.03 Y290.126 Z-8.973
X30.032 Y290.429 Z-9.012
X30.036 Y290.586 Z-9.033
X30.048 Y290.884 Z-9.078
X30.055 Y290.997 Z-9.098
X30.068 Y291.111 Z-9.109
X30.099 Y291.342 Z-9.137
X30.136 Y291.58 Z-9.173
X30.181 Y291.826 Z-9.218
X30.238 Y292.08 Z-9.273
X30.305 Y292.338 Z-9.338
X30.335 Y292.439 Z-9.365
X30.367 Y292.542 Z-9.395
X30.423 Y292.705 Z-9.443
X30.485 Y292.87 Z-9.493
X30.575 Y293.082 Z-9.561
X30.627 Y293.193 Z-9.594
X30.708 Y293.353 Z-9.643
X30.801 Y293.517 Z-9.691
X30.865 Y293.622 Z-9.718
X30.965 Y293.774 Z-9.755
X31.078 Y293.933 Z-9.791
X31.19 Y294.083 Z-9.822
X31.257 Y294.167 Z-9.838
X31.373 Y294.311 Z-9.865
X31.51 Y294.474 Z-9.894
X31.63 Y294.615 Z-9.917
X31.734 Y294.73 Z-9.939
X31.818 Y294.816 Z-9.963
X31.905 Y294.9 Z-9.992
X32.034 Y295.015 Z-10.045
X32.115 Y295.063 Z-10.052
X32.469 Y295.264 Z-10.091
X32.644 Y295.362 Z-10.108
X32.874 Y295.486 Z-10.131
X33.188 Y295.647 Z-10.161
X33.398 Y295.748 Z-10.179
X33.599 Y295.838 Z-10.193
X33.745 Y295.898 Z-10.201
X33.926 Y295.969 Z-10.209
X34.166 Y296.051 Z-10.216
X34.353 Y296.107 Z-10.217
X34.501 Y296.146 Z-10.213
X34.704 Y296.193 Z-10.209
X34.961 Y296.245 Z-10.203
X35.207 Y296.286 Z-10.195
X35.45 Y296.319 Z-10.187
X35.703 Y296.347 Z-10.179
X35.96 Y296.37 Z-10.172
X36.2 Y296.387 Z-10.167
X36.462 Y296.402 Z-10.161
X36.869 Y296.418 Z-10.156
X37.304 Y296.43 Z-10.153
X37.498 Y296.434 Z-10.149
X47.906 Y296.435
X48.025 Y296.434 Z-10.148
X48.31 Y296.435 Z-10.149
X48.611 Y296.439 Z-10.156
X48.787 Y296.443 Z-10.164
X48.963 Y296.45 Z-10.175
X49.138 Y296.459 Z-10.191
X49.332 Y296.472 Z-10.214
X49.528 Y296.489 Z-10.243
X49.742 Y296.511 Z-10.282
X49.86 Y296.526 Z-10.307
X49.978 Y296.542 Z-10.335
X50.198 Y296.577 Z-10.395
X50.341 Y296.602 Z-10.439
X50.459 Y296.625 Z-10.479
X50.587 Y296.652 Z-10.525
X50.679 Y296.672 Z-10.561
X53.023 Y294.329 Z-6.501
X50.679 Y296.672 Z-10.561
X50.696 Y296.698 Z-10.532
X50.774 Y296.825 Z-10.397
X50.844 Y296.943 Z-10.275
X50.919 Y297.073 Z-10.145
X51.026 Y297.267 Z-9.96
X51.126 Y297.456 Z-9.787
X51.217 Y297.636 Z-9.629
X51.298 Y297.802 Z-9.489
X51.374 Y297.963 Z-9.358
X51.552 Y298.352 Z-9.05
X51.601 Y298.466 Z-8.965
X51.644 Y298.58 Z-8.889
X51.683 Y298.694 Z-8.823
X51.716 Y298.808 Z-8.766
X51.744 Y298.922 Z-8.718
X51.84 Y299.367 Z-8.551
X51.868 Y299.507 Z-8.501
X51.917 Y299.759 Z-8.418
X51.941 Y299.896 Z-8.376
X51.962 Y300.029 Z-8.339
X51.982 Y300.166 Z-8.304
X52 Y300.304 Z-8.273
X52.016 Y300.441 Z-8.246
X52.029 Y300.574 Z-8.223
X52.04 Y300.705 Z-8.204
X52.055 Y300.937 Z-8.178
X52.063 Y301.08 Z-8.165
X52.066 Y301.168 Z-8.159
X51.919 Y301.326 Z-7.885
X51.696 Y301.561 Z-7.479
X51.366 Y301.902 Z-6.888
X51.142 Y302.126 Z-6.501
X51.366 Y301.902 Z-6.888
X51.696 Y301.561 Z-7.479
X51.919 Y301.326 Z-7.885
X52.066 Y301.168 Z-8.159
X53.023 Y302.125 Z-6.501
Z4
X88.922 Y301.231
Z-5.5
Z-6.501
X88.584 Y301.535 Z-7.053
X88.238 Y301.84 Z-7.611
X88.057 Y301.993 Z-7.897
X87.873 Y302.144 Z-8.184
X87.684 Y302.293 Z-8.47
X87.475 Y302.447 Z-8.778
X87.308 Y302.562 Z-9.013
X87.236 Y302.607 Z-9.107
X87.123 Y302.673 Z-9.251
X87.081 Y302.694 Z-9.299
X87.069 Y302.7 Z-9.312
X87.006 Y302.713 Z-9.353
X86.933 Y302.724 Z-9.396
X86.837 Y302.735 Z-9.445
X86.7 Y302.747 Z-9.513
X86.567 Y302.753 Z-9.575
X86.375 Y302.758 Z-9.664
X86.153 Y302.756 Z-9.767
X86.078 Y302.738 Z-9.776
X85.911 Y302.696 Z-9.794
X85.757 Y302.652 Z-9.811
X85.721 Y302.641 Z-9.814
X85.569 Y302.591 Z-9.825
X85.524 Y302.575 Z-9.827
X85.43 Y302.538 Z-9.828
X85.387 Y302.519 Z-9.826
X85.352 Y302.502 Z-9.822
X85.24 Y302.443 Z-9.802
X85.103 Y302.361 Z-9.765
X84.927 Y302.246 Z-9.706
X84.74 Y302.114 Z-9.633
X84.486 Y301.928 Z-9.528
X84.379 Y301.845 Z-9.483
X84.339 Y301.805 Z-9.456
X84.256 Y301.716 Z-9.404
X84.153 Y301.597 Z-9.347
X83.936 Y301.329 Z-9.233
X83.825 Y301.188 Z-9.173
X83.709 Y301.035 Z-9.111
X83.594 Y300.878 Z-9.048
X83.481 Y300.714 Z-8.986
X83.368 Y300.538 Z-8.921
X83.259 Y300.354 Z-8.856
X83.189 Y300.225 Z-8.813
X83.153 Y300.154 Z-8.789
X83.09 Y300.022 Z-8.747
X83.034 Y299.892 Z-8.709
X83.005 Y299.82 Z-8.687
X82.962 Y299.708 Z-8.657
X82.9 Y299.525 Z-8.609
X82.897 Y299.516 Z-8.608
X82.84 Y299.316 Z-8.562
X82.79 Y299.109 Z-8.522
X82.747 Y298.895 Z-8.487
X82.719 Y298.726 Z-8.463
X82.693 Y298.541 Z-8.441
X82.672 Y298.359 Z-8.423
X82.655 Y298.182 Z-8.408
X82.64 Y297.987 Z-8.395
X82.621 Y297.678 Z-8.378
X82.604 Y297.301 Z-8.363
X82.606 Y297.232 Z-8.361
X82.615 Y297.114 Z-8.366
X82.674 Y296.555 Z-8.412
X82.711 Y296.246 Z-8.437
X82.751 Y295.963 Z-8.459
X82.771 Y295.836 Z-8.47
X82.804 Y295.637 Z-8.485
X82.859 Y295.358 Z-8.504
X82.883 Y295.255 Z-8.513
X82.932 Y295.05 Z-8.526
X82.976 Y294.891 Z-8.538
X83.02 Y294.743 Z-8.546
X83.029 Y294.715 Z-8.548
X83.104 Y294.496 Z-8.56
X83.156 Y294.361 Z-8.57
X83.255 Y294.122 Z-8.585
X83.362 Y293.89 Z-8.607
X83.399 Y293.813 Z-8.616
X83.518 Y293.587 Z-8.646
X83.595 Y293.451 Z-8.669
X83.704 Y293.266 Z-8.704
X83.737 Y293.213 Z-8.716
X83.919 Y292.931 Z-8.788
X84.016 Y292.789 Z-8.832
X84.116 Y292.667 Z-8.854
X84.329 Y292.417 Z-8.911
X84.507 Y292.219 Z-8.964
X84.545 Y292.178 Z-8.976
X84.781 Y291.931 Z-9.052
X84.987 Y291.727 Z-9.117
X85.052 Y291.664 Z-9.138
X85.21 Y291.517 Z-9.185
X85.32 Y291.419 Z-9.217
X85.449 Y291.307 Z-9.25
X85.654 Y291.138 Z-9.297
X85.714 Y291.089 Z-9.31
X85.892 Y290.951 Z-9.341
X85.989 Y290.878 Z-9.356
X86.133 Y290.771 Z-9.375
X86.21 Y290.718 Z-9.387
X86.289 Y290.667 Z-9.403
X86.457 Y290.569 Z-9.447
X86.626 Y290.475 Z-9.495
X86.981 Y290.284 Z-9.587
X87.461 Y290.029 Z-9.706
X87.809 Y289.87 Z-9.759
X88.221 Y289.685 Z-9.82
X88.431 Y289.593 Z-9.851
X88.828 Y289.424 Z-9.909
X89.221 Y289.266 Z-9.962
X89.409 Y289.194 Z-9.986
X89.651 Y289.106 Z-10.013
X89.788 Y289.058 Z-10.028
X90.096 Y288.956 Z-10.057
X90.166 Y288.933 Z-10.064
X90.496 Y288.834 Z-10.09
X90.767 Y288.758 Z-10.113
X91.003 Y288.695 Z-10.131
X91.455 Y288.582 Z-10.169
X91.914 Y288.477 Z-10.211
X92.238 Y288.407 Z-10.246
X92.418 Y288.375 Z-10.256
X92.918 Y288.291 Z-10.289
X93.406 Y288.216 Z-10.326
X93.882 Y288.149 Z-10.363
X94.156 Y288.113 Z-10.383
X94.344 Y288.091 Z-10.397
X94.802 Y288.042 Z-10.427
X95.247 Y288.002 Z-10.448
X95.706 Y287.969 Z-10.462
X96.174 Y287.942 Z-10.469
X96.409 Y287.93 Z-10.47
X96.767 Y287.915 Z-10.468
X96.896 Y287.911 Z-10.472
X97.021 Y287.912 Z-10.48
X97.145 Y287.916 Z-10.495
X97.272 Y287.924 Z-10.515
X97.399 Y287.935 Z-10.541
X97.526 Y287.95 Z-10.573
X97.653 Y287.968 Z-10.612
X97.753 Y287.985 Z-10.646
X97.854 Y288.004 Z-10.684
X97.975 Y288.033 Z-10.73
X98.097 Y288.065 Z-10.783
Z4
X90.446 Y264.792
Z-5.5
Z-6.501
X90.325 Y264.678 Z-6.703
X90.022 Y264.396 Z-7.207
X89.736 Y264.137 Z-7.672
X89.519 Y263.948 Z-8.015
X89.316 Y263.781 Z-8.325
X89.135 Y263.64 Z-8.589
X88.966 Y263.518 Z-8.823
X88.796 Y263.404 Z-9.047
X88.625 Y263.296 Z-9.266
X88.422 Y263.174 Z-9.517
X88.216 Y263.057 Z-9.768
X88.078 Y263.007 Z-9.891
X88 Y262.98 Z-9.957
X87.934 Y262.981 Z-9.975
X87.781 Y262.985 Z-10.011
X87.597 Y262.996 Z-10.051
X87.186 Y263.063 Z-10.075
X86.846 Y263.125 Z-10.089
X86.693 Y263.157 Z-10.092
X86.554 Y263.191 Z-10.099
X86.427 Y263.228 Z-10.104
X86.31 Y263.265
X86.195 Y263.305 Z-10.099
X86.147 Y263.322 Z-10.096
X86.045 Y263.365 Z-10.083
X85.993 Y263.388 Z-10.074
X85.886 Y263.44 Z-10.049
X85.759 Y263.509 Z-10.014
X85.653 Y263.569 Z-9.981
X85.516 Y263.653 Z-9.935
X85.459 Y263.689 Z-9.916
X85.32 Y263.782 Z-9.867
X85.174 Y263.885 Z-9.815
X85.03 Y263.992 Z-9.765
X84.867 Y264.118 Z-9.712
X84.726 Y264.235 Z-9.669
X84.609 Y264.362 Z-9.597
X84.488 Y264.497 Z-9.525
X84.381 Y264.622 Z-9.463
X84.273 Y264.751 Z-9.403
X84.088 Y264.983 Z-9.303
X83.919 Y265.205 Z-9.212
X83.758 Y265.424 Z-9.122
X83.67 Y265.548 Z-9.072
X83.603 Y265.652 Z-9.034
X83.54 Y265.758 Z-9.005
X83.503 Y265.828 Z-8.989
X83.431 Y265.969 Z-8.961
X83.303 Y266.238 Z-8.899
X83.235 Y266.39 Z-8.863
X83.121 Y266.67 Z-8.791
X83.047 Y266.871 Z-8.741
X82.984 Y267.063 Z-8.695
X82.937 Y267.22 Z-8.657
X82.889 Y267.403 Z-8.618
X82.844 Y267.59 Z-8.583
X82.801 Y267.808 Z-8.548
X82.777 Y267.951 Z-8.527
X82.751 Y268.126 Z-8.507
X82.725 Y268.339 Z-8.487
X82.712 Y268.464 Z-8.476
X82.698 Y268.628 Z-8.466
X82.68 Y268.891 Z-8.454
X82.669 Y269.101 Z-8.447
X82.656 Y269.46 Z-8.442
X82.649 Y269.714 Z-8.44
X82.65 Y269.771 Z-8.439
X82.675 Y270.315 Z-8.442
X82.69 Y270.569 Z-8.446
X82.701 Y270.721 Z-8.45
X82.718 Y270.922 Z-8.458
X82.741 Y271.142 Z-8.471
X82.765 Y271.338 Z-8.484
X82.797 Y271.551 Z-8.504
X82.836 Y271.77 Z-8.529
X82.883 Y271.995 Z-8.561
X82.94 Y272.223 Z-8.601
X83.007 Y272.452 Z-8.647
X83.014 Y272.473 Z-8.652
X83.084 Y272.679 Z-8.699
X83.098 Y272.716 Z-8.71
X83.169 Y272.896 Z-8.755
X83.191 Y272.949 Z-8.771
X83.263 Y273.11 Z-8.814
X83.293 Y273.174 Z-8.834
X83.359 Y273.308 Z-8.872
X83.439 Y273.461 Z-8.918
X83.546 Y273.651 Z-8.976
X83.67 Y273.859 Z-9.041
X83.793 Y274.055 Z-9.102
X83.988 Y274.347 Z-9.192
X84.094 Y274.503 Z-9.24
X84.177 Y274.615 Z-9.279
X84.264 Y274.724 Z-9.329
X84.342 Y274.812 Z-9.377
X84.462 Y274.938 Z-9.459
X84.703 Y275.181 Z-9.626
X84.941 Y275.417 Z-9.791
X85.166 Y275.588 Z-9.876
X85.363 Y275.733 Z-9.952
X85.559 Y275.871 Z-10.028
X85.752 Y276 Z-10.102
X85.977 Y276.141 Z-10.187
X86.053 Y276.186 Z-10.216
X86.201 Y276.269 Z-10.267
X86.35 Y276.346 Z-10.315
X86.463 Y276.4 Z-10.349
X86.595 Y276.456 Z-10.382
X86.682 Y276.489 Z-10.4
X86.779 Y276.522 Z-10.418
X86.915 Y276.562 Z-10.434
X87.024 Y276.591 Z-10.445
X87.174 Y276.626 Z-10.456
X87.403 Y276.67 Z-10.467
X87.579 Y276.698 Z-10.474
X87.795 Y276.728 Z-10.481
X88.065 Y276.759 Z-10.489
X88.269 Y276.779 Z-10.495
X88.614 Y276.806 Z-10.508
X88.696 Y276.812 Z-10.511
X88.975 Y276.809 Z-10.487
X89.255 Y276.803 Z-10.46
X89.439 Y276.793 Z-10.445
X89.619 Y276.777 Z-10.434
X89.828 Y276.754 Z-10.413
X90.014 Y276.728 Z-10.388
X90.2 Y276.696 Z-10.353
X90.402 Y276.653 Z-10.309
X90.679 Y276.585 Z-10.24
X90.915 Y276.52 Z-10.179
X91.175 Y276.442 Z-10.114
X91.349 Y276.386 Z-10.073
X91.538 Y276.31 Z-10.009
X91.745 Y276.22 Z-9.942
X91.961 Y276.122 Z-9.877
X92.179 Y276.015 Z-9.814
X92.337 Y275.932 Z-9.767
X92.515 Y275.834 Z-9.713
X92.714 Y275.714 Z-9.649
X92.91 Y275.586 Z-9.578
X93.013 Y275.515 Z-9.537
X93.23 Y275.358 Z-9.449
X93.455 Y275.188 Z-9.352
X93.698 Y274.998 Z-9.242
X93.812 Y274.904 Z-9.194
X93.933 Y274.794 Z-9.152
X93.992 Y274.74 Z-9.132
X94.286 Y274.435 Z-8.993
X94.508 Y274.197 Z-8.889
X94.666 Y274.02 Z-8.813
X94.81 Y273.851 Z-8.745
X94.915 Y273.721 Z-8.693
X95.025 Y273.58 Z-8.637
X95.138 Y273.424 Z-8.578
X95.222 Y273.302 Z-8.532
X95.242 Y273.271 Z-8.521
X95.344 Y273.112 Z-8.463
X95.434 Y272.96 Z-8.41
X95.548 Y272.757 Z-8.343
X95.621 Y272.618 Z-8.298
X95.746 Y272.369 Z-8.221
X95.836 Y272.181 Z-8.166
X95.977 Y271.874 Z-8.08
X96.047 Y271.718 Z-8.038
X96.086 Y271.637 Z-8.02
X96.121 Y271.572 Z-8.011
X96.161 Y271.504 Z-8.008
X96.205 Y271.433 Z-8.015
X96.224 Y271.404 Z-8.022
X96.267 Y271.338 Z-8.043
X96.314 Y271.271 Z-8.072
X96.364 Y271.208 Z-8.105
X96.419 Y271.143 Z-8.148
X96.475 Y271.083 Z-8.194
X96.54 Y271.019 Z-8.252
X96.602 Y270.961 Z-8.312
X96.676 Y270.898 Z-8.387
X96.745 Y270.843 Z-8.46
X96.836 Y270.776 Z-8.56
X96.912 Y270.723 Z-8.649
X97.008 Y270.662 Z-8.763
X97.09 Y270.611 Z-8.866
X97.212 Y270.543 Z-9.021
X97.312 Y270.489 Z-9.152
X97.32 Y270.368 Z-9.095
X97.339 Y270.102 Z-8.981
X97.346 Y269.996 Z-8.939
X97.36 Y269.759 Z-8.854
X97.369 Y269.603 Z-8.804
X97.379 Y269.412 Z-8.75
X97.388 Y269.175 Z-8.691
X97.393 Y269.042 Z-8.663
X97.398 Y268.863 Z-8.629
X97.404 Y268.611 Z-8.589
X97.409 Y268.345 Z-8.554
X97.413 Y268.015 Z-8.521
X97.416 Y267.526 Z-8.481
Y267.482 Z-8.479
Y267.191
X96.274 Y266.049 Z-6.501
X97.416 Y267.191 Z-8.479
X98.558 Y266.049 Z-6.501
X97.416 Y267.191 Z-8.479
Y267.482
Y267.526 Z-8.481
X97.413 Y268.015 Z-8.521
X97.409 Y268.345 Z-8.554
X97.404 Y268.611 Z-8.589
X97.398 Y268.863 Z-8.629
X97.393 Y269.042 Z-8.663
X97.388 Y269.175 Z-8.691
X97.379 Y269.412 Z-8.75
X97.369 Y269.603 Z-8.804
X97.36 Y269.759 Z-8.854
X97.346 Y269.996 Z-8.939
X97.339 Y270.102 Z-8.981
X97.32 Y270.368 Z-9.095
X97.312 Y270.489 Z-9.152
X97.386 Y270.57 Z-9.056
X97.455 Y270.652 Z-8.968
X97.491 Y270.695 Z-8.924
X97.579 Y270.806 Z-8.825
X97.659 Y270.919 Z-8.737
X97.689 Y270.962 Z-8.708
X97.761 Y271.075 Z-8.643
X97.827 Y271.19 Z-8.59
X97.851 Y271.236 Z-8.574
X97.909 Y271.352 Z-8.544
X97.961 Y271.47 Z-8.526
X97.977 Y271.51 Z-8.523
X98.028 Y271.649 Z-8.527
X98.06 Y271.755 Z-8.54
X98.134 Y272.023 Z-8.602
X98.225 Y272.334 Z-8.682
X98.293 Y272.551 Z-8.741
X98.393 Y272.848 Z-8.822
X98.461 Y273.039 Z-8.874
X98.57 Y273.326 Z-8.949
X98.689 Y273.621 Z-9.024
X98.931 Y274.195 Z-9.167
X98.965 Y274.265 Z-9.182
X99.022 Y274.377 Z-9.212
X99.083 Y274.483 Z-9.25
X99.234 Y274.726 Z-9.353
X99.375 Y274.944 Z-9.444
X99.499 Y275.128 Z-9.519
X99.608 Y275.282 Z-9.578
X99.719 Y275.43 Z-9.632
X99.828 Y275.57 Z-9.68
X99.968 Y275.74 Z-9.739
X100.124 Y275.922 Z-9.804
X100.334 Y276.154 Z-9.893
X100.385 Y276.209 Z-9.916
X100.545 Y276.362 Z-9.967
X100.761 Y276.557 Z-10.04
X100.914 Y276.686 Z-10.093
X101.065 Y276.807 Z-10.142
X101.189 Y276.896 Z-10.18
X101.314 Y276.982 Z-10.213
X101.454 Y277.068 Z-10.248
X101.614 Y277.159 Z-10.283
X101.86 Y277.287 Z-10.336
X101.972 Y277.341 Z-10.361
X102.187 Y277.441 Z-10.413
X102.452 Y277.534 Z-10.444
X102.586 Y277.578 Z-10.463
X102.835 Y277.654 Z-10.497
X103.041 Y277.711 Z-10.524
X103.247 Y277.759 Z-10.546
X103.359 Y277.782 Z-10.554
X103.502 Y277.807 Z-10.562
X103.703 Y277.836 Z-10.565
X103.928 Y277.862 Z-10.563
X104.179 Y277.885 Z-10.555
X104.447 Y277.906 Z-10.543
X104.599 Y277.916 Z-10.535
X104.753 Y277.923 Z-10.534
X104.852 Z-10.535
X105.488 Y277.899 Z-10.528
X105.661 Y277.89 Z-10.524
X105.987 Y277.867 Z-10.518
X106.287 Y277.839 Z-10.507
X106.533 Y277.807 Z-10.493
X106.552 Y277.804 Z-10.492
X106.765 Y277.768 Z-10.475
X106.805 Y277.761 Z-10.472
X106.998 Y277.721 Z-10.449
X107.062 Y277.706 Z-10.442
X107.246 Y277.66 Z-10.416
X107.494 Y277.591 Z-10.382
X107.732 Y277.516 Z-10.348
X107.973 Y277.435 Z-10.318
X108.192 Y277.355 Z-10.293
X108.365 Y277.289 Z-10.275
X108.588 Y277.181 Z-10.226
X108.816 Y277.067 Z-10.178
X109.048 Y276.945 Z-10.129
X109.277 Y276.816 Z-10.077
X109.487 Y276.692 Z-10.023
X109.68 Y276.569 Z-9.964
X109.772 Y276.508 Z-9.931
X109.864 Y276.445 Z-9.895
X109.962 Y276.373 Z-9.857
X110.06 Y276.295 Z-9.822
X110.161 Y276.207 Z-9.788
X110.368 Y276.017 Z-9.718
X110.598 Y275.798 Z-9.635
X110.844 Y275.555 Z-9.547
X110.876 Y275.523 Z-9.536
X111.035 Y275.339 Z-9.459
X111.141 Y275.213 Z-9.409
X111.244 Y275.088 Z-9.363
X111.34 Y274.968 Z-9.321
X111.443 Y274.831 Z-9.277
X111.569 Y274.658 Z-9.226
X111.692 Y274.478 Z-9.179
X111.779 Y274.341 Z-9.145
X111.88 Y274.174 Z-9.107
X111.981 Y273.996 Z-9.068
X112.051 Y273.863 Z-9.038
X112.187 Y273.589 Z-8.98
X112.265 Y273.422 Z-8.946
X112.392 Y273.136 Z-8.887
X112.505 Y272.872 Z-8.833
X112.556 Y272.741 Z-8.812
X112.609 Y272.585 Z-8.799
X112.649 Y272.465 Z-8.791
X112.728 Y272.194 Z-8.757
X112.815 Y271.886 Z-8.722
X112.878 Y271.646 Z-8.696
X112.955 Y271.331 Z-8.669
X112.998 Y271.132 Z-8.654
X113.027 Y270.985 Z-8.645
X113.055 Y270.829 Z-8.636
X113.083 Y270.654 Z-8.627
X113.117 Y270.4 Z-8.619
X113.133 Y270.251 Z-8.614
X113.156 Y270.008 Z-8.606
X113.177 Y269.7 Z-8.601
X113.197 Y269.319 Z-8.597
X113.212 Y268.953 Z-8.594
X113.213 Y268.854 Z-8.597
X113.195 Y268.325 Z-8.617
X113.191 Y268.236 Z-8.62
X113.168 Y267.809 Z-8.642
X113.145 Y267.512 Z-8.662
X113.131 Y267.363 Z-8.672
X113.106 Y267.132 Z-8.692
X113.074 Y266.902 Z-8.716
X113.034 Y266.658 Z-8.744
X112.986 Y266.419 Z-8.777
X112.93 Y266.18 Z-8.814
X112.882 Y265.999 Z-8.844
X112.86 Y265.926 Z-8.857
X112.803 Y265.746 Z-8.891
X112.748 Y265.588 Z-8.923
X112.698 Y265.457 Z-8.947
X112.667 Y265.379 Z-8.964
X112.605 Y265.234 Z-8.991
X112.578 Y265.173 Z-9.004
X112.506 Y265.018 Z-9.034
X112.479 Y264.963 Z-9.046
X112.399 Y264.804 Z-9.077
X112.369 Y264.747 Z-9.09
X112.254 Y264.535 Z-9.135
X112.131 Y264.319 Z-9.18
X111.971 Y264.052 Z-9.235
X111.761 Y263.712 Z-9.305
X111.719 Y263.647 Z-9.32
X111.64 Y263.533 Z-9.354
X111.556 Y263.422 Z-9.398
X111.502 Y263.355 Z-9.429
X111.281 Y263.144 Z-9.483
X111.17 Y263.042 Z-9.508
X110.962 Y262.856 Z-9.552
X110.928 Y262.827 Z-9.557
X110.79 Y262.713 Z-9.579
X110.701 Y262.644 Z-9.591
X110.632 Y262.593 Z-9.596
X110.587 Y262.562 Z-9.598
X110.504 Y262.508
X110.455 Y262.478 Z-9.595
X110.436 Y262.467 Z-9.593
X110.327 Y262.41 Z-9.579
X110.249 Y262.373 Z-9.564
X110.222 Y262.361 Z-9.558
X110.054 Y262.29 Z-9.521
X110.009 Y262.272 Z-9.51
X109.802 Y262.197 Z-9.461
X109.547 Y262.114 Z-9.401
X109.364 Y262.062 Z-9.364
X109.202 Y262.038 Z-9.303
X109.034 Y262.019 Z-9.239
X108.952 Y262.013 Z-9.206
X108.873 Y262.01 Z-9.172
X108.821 Z-9.147
X108.774 Y262.012 Z-9.119
X108.711 Y262.019 Z-9.08
X108.602 Y262.035 Z-9.006
X108.457 Y262.062 Z-8.902
X108.274 Y262.101 Z-8.769
X108.181 Y262.137 Z-8.678
X108.012 Y262.206 Z-8.511
X107.811 Y262.296 Z-8.302
X107.693 Y262.358 Z-8.17
X107.597 Y262.413 Z-8.054
X107.475 Y262.493 Z-7.892
X107.372 Y262.567 Z-7.745
X107.253 Y262.657 Z-7.571
X107.076 Y262.799 Z-7.299
X106.885 Y262.959 Z-6.996
X106.582 Y263.224 Z-6.501
Z4
X89.954 Y218.721
Z-5.5
Z-6.501
X90.913 Y219.679 Z-8.161
X91.153 Y219.423 Z-7.718
X91.384 Y219.181 Z-7.299
X91.612 Y218.944 Z-6.888
X91.836 Y218.72 Z-6.501
X91.612 Y218.944 Z-6.888
X91.384 Y219.181 Z-7.299
X91.153 Y219.423 Z-7.718
X90.913 Y219.679 Z-8.161
X90.918 Y219.789 Z-8.169
X90.925 Y219.932 Z-8.182
X90.94 Y220.168 Z-8.208
X90.951 Y220.3 Z-8.227
X90.963 Y220.433 Z-8.248
X90.978 Y220.57 Z-8.274
X90.995 Y220.706 Z-8.303
X91.017 Y220.866 Z-8.341
X91.054 Y221.107 Z-8.405
X91.098 Y221.362 Z-8.481
X91.143 Y221.605 Z-8.56
X91.211 Y221.955 Z-8.678
X91.237 Y222.071 Z-8.723
X91.268 Y222.187 Z-8.777
X91.305 Y222.302 Z-8.84
X91.347 Y222.418 Z-8.914
X91.444 Y222.665 Z-9.081
X91.562 Y222.959 Z-9.286
X91.63 Y223.119 Z-9.403
X91.708 Y223.296 Z-9.539
X91.793 Y223.479 Z-9.686
X91.892 Y223.681 Z-9.857
X91.949 Y223.792 Z-9.956
X92.01 Y223.906 Z-10.061
X92.078 Y224.029 Z-10.179
X92.132 Y224.124 Z-10.272
X89.954 Y225.98 Z-6.501
X92.132 Y224.124 Z-10.272
X92.308 Y224.184 Z-10.217
X92.417 Y224.219 Z-10.188
X92.541 Y224.256 Z-10.158
X92.651 Y224.288 Z-10.135
X92.786 Y224.324 Z-10.11
X92.897 Y224.352 Z-10.093
X93.013 Y224.379 Z-10.078
X93.126 Y224.404 Z-10.067
X93.335 Y224.446 Z-10.052
X93.543 Y224.483 Z-10.047
X93.733 Y224.512 Z-10.048
X93.907 Y224.537 Z-10.054
X93.977 Y224.546 Z-10.058
X94.096 Y224.565 Z-10.073
X94.269 Y224.596 Z-10.108
X94.426 Y224.629 Z-10.154
X94.566 Y224.663 Z-10.205
X94.724 Y224.706 Z-10.275
X94.848 Y224.744 Z-10.337
X95.046 Y224.811 Z-10.453
X95.209 Y224.873 Z-10.56
X95.372 Y224.942 Z-10.679
X95.6 Y224.912 Z-10.627
X96.085 Y224.851 Z-10.521
X96.419 Y224.811 Z-10.453
X96.616 Y224.789 Z-10.414
X96.963 Y224.754 Z-10.353
X97.158 Y224.736 Z-10.322
X97.49 Y224.709 Z-10.276
X97.728 Y224.693 Z-10.249
X98.059 Y224.676 Z-10.218
X98.267 Y224.667 Z-10.203
X98.612 Y224.655 Z-10.182
X98.944 Y224.647 Z-10.168
X99.413 Y224.639 Z-10.154
X99.634 Y224.635 Z-10.149
X109.091 Y224.634 Z-10.15
X109.308 Z-10.157
X109.488 Y224.633 Z-10.167
X109.684 Y224.631 Z-10.182
X109.883 Y224.629 Z-10.207
X110.063 Y224.627 Z-10.238
X110.265 Y224.625 Z-10.283
X110.458 Y224.622 Z-10.338
X110.612 Y224.62 Z-10.39
X110.717 Y224.619 Z-10.431
X110.842 Y224.617 Z-10.483
X110.987 Y224.616 Z-10.552
X111.114 Y224.613 Z-10.618
X111.262 Y224.612 Z-10.703
X111.39 Y224.61 Z-10.781
X111.473 Y224.609 Z-10.835
X111.544 Y224.716 Z-10.712
X111.654 Y224.887 Z-10.522
X111.723 Y225 Z-10.402
X111.807 Y225.141 Z-10.257
X111.871 Y225.253 Z-10.145
X111.947 Y225.391 Z-10.014
X112.007 Y225.505 Z-9.91
X112.064 Y225.617 Z-9.811
X112.16 Y225.813 Z-9.645
X112.253 Y226.015 Z-9.485
X112.321 Y226.173 Z-9.366
X112.394 Y226.348 Z-9.239
X112.508 Y226.633 Z-9.043
X112.603 Y226.883 Z-8.878
X112.644 Y226.997 Z-8.807
X112.679 Y227.111 Z-8.746
X112.709 Y227.225 Z-8.695
X112.733 Y227.338 Z-8.652
X112.799 Y227.69 Z-8.538
X112.844 Y227.938 Z-8.461
X112.885 Y228.186 Z-8.39
X112.92 Y228.424 Z-8.329
X112.94 Y228.581 Z-8.294
X112.967 Y228.815 Z-8.248
X112.982 Y228.981 Z-8.222
X112.992 Y229.116 Z-8.204
X113.008 Y229.369 Z-8.177
X113.018 Y229.594 Z-8.16
X112.883 Y229.738 Z-7.91
X112.545 Y230.092 Z-7.296
X112.318 Y230.328 Z-6.888
X112.094 Y230.552 Z-6.501
X112.318 Y230.328 Z-6.888
X112.545 Y230.092 Z-7.296
X112.883 Y229.738 Z-7.91
X113.018 Y229.594 Z-8.16
X113.975 Y230.551 Z-6.501
X113.018 Y229.594 Z-8.16
X113.008 Y229.369 Z-8.177
X112.992 Y229.116 Z-8.204
X112.982 Y228.981 Z-8.222
X112.967 Y228.815 Z-8.248
X112.94 Y228.581 Z-8.294
X112.92 Y228.424 Z-8.329
X112.885 Y228.186 Z-8.39
X112.844 Y227.938 Z-8.461
X112.799 Y227.69 Z-8.538
X112.733 Y227.338 Z-8.652
X112.709 Y227.225 Z-8.695
X112.679 Y227.111 Z-8.746
X112.644 Y226.997 Z-8.807
X112.603 Y226.883 Z-8.878
X112.508 Y226.633 Z-9.043
X112.394 Y226.348 Z-9.239
X112.321 Y226.173 Z-9.366
X112.253 Y226.015 Z-9.485
X112.16 Y225.813 Z-9.645
X112.064 Y225.617 Z-9.811
X112.007 Y225.505 Z-9.91
X111.947 Y225.391 Z-10.014
X111.871 Y225.253 Z-10.145
X111.807 Y225.141 Z-10.257
X111.723 Y225 Z-10.402
X111.654 Y224.887 Z-10.522
X111.544 Y224.716 Z-10.712
X111.473 Y224.609 Z-10.835
X111.612 Y224.39 Z-10.594
X111.692 Y224.26 Z-10.457
X111.762 Y224.14 Z-10.334
X111.853 Y223.979 Z-10.177
X111.972 Y223.757 Z-9.971
X112.079 Y223.544 Z-9.786
X112.173 Y223.346 Z-9.623
X112.252 Y223.171 Z-9.486
X112.324 Y223.007 Z-9.362
X112.392 Y222.845 Z-9.243
X112.507 Y222.563 Z-9.045
X112.558 Y222.434 Z-8.956
X112.605 Y222.31 Z-8.875
X112.645 Y222.187 Z-8.805
X112.679 Y222.063 Z-8.746
X112.707 Y221.939 Z-8.698
X112.802 Y221.456 Z-8.534
X112.846 Y221.213 Z-8.458
X112.87 Y221.073 Z-8.415
X112.892 Y220.937 Z-8.378
X112.912 Y220.801 Z-8.342
X112.932 Y220.658 Z-8.308
X112.96 Y220.418 Z-8.259
X112.975 Y220.269 Z-8.234
X112.988 Y220.113 Z-8.212
X112.998 Y219.975 Z-8.195
X113.012 Y219.717 Z-8.17
X113.022 Y219.45 Z-8.153
X112.807 Y219.224 Z-7.761
X112.452 Y218.854 Z-7.12
X112.094 Y218.496 Z-6.5
X112.452 Y218.854 Z-7.12
X112.807 Y219.224 Z-7.761
X113.022 Y219.45 Z-8.153
X113.975 Y218.497 Z-6.501
X113.022 Y219.45 Z-8.153
X113.012 Y219.717 Z-8.17
X112.998 Y219.975 Z-8.195
X112.988 Y220.113 Z-8.212
X112.975 Y220.269 Z-8.234
X112.96 Y220.418 Z-8.259
X112.932 Y220.658 Z-8.308
X112.912 Y220.801 Z-8.342
X112.892 Y220.937 Z-8.378
X112.87 Y221.073 Z-8.415
X112.846 Y221.213 Z-8.458
X112.802 Y221.456 Z-8.534
X112.707 Y221.939 Z-8.698
X112.679 Y222.063 Z-8.746
X112.645 Y222.187 Z-8.805
X112.605 Y222.31 Z-8.875
X112.558 Y222.434 Z-8.956
X112.507 Y222.563 Z-9.045
X112.392 Y222.845 Z-9.243
X112.324 Y223.007 Z-9.362
X112.252 Y223.171 Z-9.486
X112.173 Y223.346 Z-9.623
X112.079 Y223.544 Z-9.786
X111.972 Y223.757 Z-9.971
X111.853 Y223.979 Z-10.177
X111.762 Y224.14 Z-10.334
X111.692 Y224.26 Z-10.457
X111.612 Y224.39 Z-10.594
X111.473 Y224.609 Z-10.835
X111.39 Y224.61 Z-10.781
X111.262 Y224.612 Z-10.703
X111.114 Y224.613 Z-10.618
X110.987 Y224.616 Z-10.552
X110.842 Y224.617 Z-10.483
X110.717 Y224.619 Z-10.431
X110.612 Y224.62 Z-10.39
X110.458 Y224.622 Z-10.338
X110.265 Y224.625 Z-10.283
X110.063 Y224.627 Z-10.238
X109.883 Y224.629 Z-10.207
X109.684 Y224.631 Z-10.182
X109.488 Y224.633 Z-10.167
X109.308 Y224.634 Z-10.157
X109.091 Z-10.15
X99.634 Y224.635 Z-10.149
X99.413 Y224.639 Z-10.154
X98.944 Y224.647 Z-10.168
X98.612 Y224.655 Z-10.182
X98.267 Y224.667 Z-10.203
X98.059 Y224.676 Z-10.218
X97.728 Y224.693 Z-10.249
X97.49 Y224.709 Z-10.276
X97.158 Y224.736 Z-10.322
X96.963 Y224.754 Z-10.353
X96.616 Y224.789 Z-10.414
X96.419 Y224.811 Z-10.453
X96.085 Y224.851 Z-10.521
X95.6 Y224.912 Z-10.627
X95.372 Y224.942 Z-10.679
X95.33 Y225.089 Z-10.457
X95.292 Y225.223 Z-10.261
X95.228 Y225.437 Z-9.951
X95.16 Y225.641 Z-9.662
X95.08 Y225.853 Z-9.369
X95.066 Y225.887 Z-9.322
X94.991 Y226.063 Z-9.087
X94.95 Y226.151 Z-8.972
X94.911 Y226.231 Z-8.869
X94.857 Y226.334 Z-8.74
X94.816 Y226.408 Z-8.65
X94.762 Y226.499 Z-8.544
X94.722 Y226.563 Z-8.47
X94.602 Y226.75 Z-8.264
X94.519 Y226.88 Z-8.127
X94.459 Y226.963 Z-8.047
X94.415 Y227.02 Z-7.995
X94.354 Y227.094 Z-7.935
X94.307 Y227.145 Z-7.898
X94.239 Y227.215 Z-7.855
X94.19 Y227.261 Z-7.832
X94.122 Y227.319 Z-7.811
X94.07 Y227.36 Z-7.802
X94.016 Y227.4 Z-7.799
X93.966 Y227.434 Z-7.801
X93.808 Y227.539 Z-7.818
X93.682 Y227.626 Z-7.837
X93.557 Y227.715 Z-7.858
X93.425 Y227.812 Z-7.883
X93.198 Y227.985 Z-7.93
X92.978 Y228.161 Z-7.976
X92.786 Y228.321 Z-8.014
X92.712 Y228.386 Z-8.029
X92.662 Y228.435 Z-8.045
X92.549 Y228.557 Z-8.092
X92.44 Y228.679 Z-8.135
X92.339 Y228.798 Z-8.173
X92.242 Y228.918 Z-8.206
X92.149 Y229.039 Z-8.237
X92.058 Y229.163 Z-8.265
X91.968 Y229.294 Z-8.292
X91.93 Y229.353 Z-8.303
X91.854 Y229.473 Z-8.327
X91.764 Y229.623 Z-8.358
X91.677 Y229.779 Z-8.39
X91.591 Y229.944 Z-8.428
X91.507 Y230.115 Z-8.472
X91.428 Y230.289 Z-8.521
X91.363 Y230.441 Z-8.569
X91.306 Y230.636 Z-8.596
X91.264 Y230.792 Z-8.621
X91.225 Y230.945 Z-8.648
X91.19 Y231.095 Z-8.677
X91.141 Y231.319 Z-8.72
X91.101 Y231.528 Z-8.762
X91.056 Y231.799 Z-8.811
X91.037 Y231.934 Z-8.833
X91.02 Y232.062 Z-8.851
X91.006 Y232.192 Z-8.869
X90.999 Y232.327 Z-8.892
X90.987 Y232.604 Z-8.935
X90.983 Y232.894 Z-8.973
X90.985 Y233.197 Z-9.012
X90.988 Y233.353 Z-9.033
X91.001 Y233.652 Z-9.078
X91.007 Y233.765 Z-9.098
X91.021 Y233.879 Z-9.109
X91.051 Y234.108 Z-9.136
X91.089 Y234.349 Z-9.173
X91.133 Y234.591 Z-9.217
X91.19 Y234.848 Z-9.273
X91.257 Y235.105 Z-9.338
X91.287 Y235.206 Z-9.365
X91.319 Y235.309 Z-9.395
X91.375 Y235.473 Z-9.442
X91.438 Y235.638 Z-9.493
X91.528 Y235.851 Z-9.561
X91.577 Y235.955 Z-9.593
X91.658 Y236.116 Z-9.642
X91.753 Y236.285 Z-9.691
X91.821 Y236.396 Z-9.719
X91.921 Y236.547 Z-9.756
X92.03 Y236.701 Z-9.791
X92.142 Y236.85 Z-9.822
X92.214 Y236.941 Z-9.839
X92.33 Y237.084 Z-9.866
X92.457 Y237.236 Z-9.893
X92.587 Y237.388 Z-9.918
X92.687 Y237.498 Z-9.94
X92.77 Y237.583 Z-9.963
X92.856 Y237.666 Z-9.992
X92.988 Y237.783 Z-10.046
X93.068 Y237.83 Z-10.053
X93.456 Y238.052 Z-10.094
X93.817 Y238.249 Z-10.13
X94.03 Y238.36 Z-10.15
X94.207 Y238.447 Z-10.166
X94.415 Y238.545 Z-10.182
X94.554 Y238.606 Z-10.193
X94.751 Y238.688 Z-10.205
X94.943 Y238.76 Z-10.212
X95.127 Y238.822 Z-10.216
X95.203 Y238.844 Z-10.215
X95.305 Y238.874 Z-10.216
X95.457 Y238.914 Z-10.214
X95.505 Y238.927
X95.723 Y238.976 Z-10.208
X95.981 Y239.024 Z-10.2
X96.229 Y239.063 Z-10.192
X96.467 Y239.094 Z-10.185
X96.716 Y239.121 Z-10.177
X96.956 Y239.141 Z-10.17
X97.185 Y239.157 Z-10.165
X97.634 Y239.179 Z-10.157
X98.052 Y239.193 Z-10.154
X98.314 Y239.199 Z-10.152
X98.514 Y239.202 Z-10.149
X109.28 Z-10.15
X109.455 Y239.204 Z-10.153
X109.739 Y239.211 Z-10.164
X109.898 Y239.216 Z-10.174
X110.107 Y239.227 Z-10.194
X110.286 Y239.24 Z-10.215
X110.48 Y239.256 Z-10.243
X110.695 Y239.279 Z-10.283
X110.911 Y239.307 Z-10.331
X111.054 Y239.328 Z-10.368
X111.275 Y239.366 Z-10.434
X111.393 Y239.389 Z-10.472
X111.534 Y239.418 Z-10.523
X111.632 Y239.439 Z-10.56
X113.975 Y237.096 Z-6.501
X111.632 Y239.439 Z-10.56
X111.645 Y239.46 Z-10.538
X111.735 Y239.607 Z-10.381
X111.866 Y239.831 Z-10.155
X111.976 Y240.03 Z-9.964
X112.088 Y240.242 Z-9.77
X112.227 Y240.521 Z-9.53
X112.323 Y240.724 Z-9.363
X112.446 Y240.992 Z-9.15
X112.503 Y241.117 Z-9.052
X112.552 Y241.232 Z-8.966
X112.597 Y241.348 Z-8.889
X112.636 Y241.463 Z-8.822
X112.669 Y241.579 Z-8.764
X112.697 Y241.694 Z-8.716
X112.796 Y242.155 Z-8.543
X112.845 Y242.4 Z-8.459
X112.888 Y242.634 Z-8.385
X112.913 Y242.79 Z-8.341
X112.935 Y242.936 Z-8.303
X112.952 Y243.072 Z-8.273
X112.968 Y243.205 Z-8.247
X112.982 Y243.348 Z-8.222
X113.002 Y243.606 Z-8.187
X113.015 Y243.845 Z-8.165
X113.019 Y243.937 Z-8.158
X112.874 Y244.092 Z-7.89
X112.648 Y244.329 Z-7.479
X112.319 Y244.669 Z-6.89
X112.095 Y244.893 Z-6.501
X112.319 Y244.669 Z-6.89
X112.648 Y244.329 Z-7.479
X112.874 Y244.092 Z-7.89
X113.019 Y243.937 Z-8.158
X113.975 Y244.893 Z-6.501
Z4
X106.493 Y212.195
Z-5.5
Z-10.136
X106.652 Y212.156 Z-10.125
X106.863 Y212.098 Z-10.102
X106.915 Y212.084 Z-10.097
X107.223 Y211.99 Z-10.061
X107.584 Y211.867 Z-10.015
X107.918 Y211.741 Z-9.967
X108.254 Y211.606 Z-9.914
X108.595 Y211.459 Z-9.858
X108.917 Y211.315 Z-9.803
X109.23 Y211.169 Z-9.748
X109.302 Y211.136 Z-9.736
X109.844 Y210.875 Z-9.638
X110.163 Y210.719 Z-9.58
X110.237 Y210.665 Z-9.543
X110.333 Y210.59 Z-9.501
X110.426 Y210.513 Z-9.465
X110.515 Y210.433 Z-9.437
X110.711 Y210.246 Z-9.382
X111.015 Y209.952 Z-9.297
X111.249 Y209.716 Z-9.229
X111.461 Y209.492 Z-9.166
X111.653 Y209.277 Z-9.108
X111.838 Y209.055 Z-9.051
X112.017 Y208.824 Z-8.994
X112.193 Y208.573 Z-8.936
X112.219 Y208.535 Z-8.928
X112.366 Y208.296 Z-8.876
X112.499 Y208.049 Z-8.824
X112.547 Y207.951 Z-8.803
X112.621 Y207.79 Z-8.775
X112.675 Y207.659 Z-8.749
X112.73 Y207.517 Z-8.727
X112.755 Y207.448 Z-8.714
X112.828 Y207.229 Z-8.683
X112.851 Y207.155 Z-8.671
X112.914 Y206.928 Z-8.644
X112.932 Y206.859 Z-8.635
X112.988 Y206.614 Z-8.611
X112.997 Y206.576 Z-8.606
X113.051 Y206.292 Z-8.583
X113.095 Y206.017 Z-8.564
X113.133 Y205.736 Z-8.549
X113.163 Y205.47 Z-8.537
X113.184 Y205.265 Z-8.531
X113.212 Y204.943 Z-8.521
X113.215 Y204.906
X113.251 Y204.432 Z-8.511
X113.256 Y204.325 Z-8.512
Y204.251 Z-8.518
X113.236 Y203.988 Z-8.522
X113.193 Y203.483 Z-8.53
X113.171 Y203.267 Z-8.537
X113.135 Y202.954 Z-8.548
X113.1 Y202.691 Z-8.559
X113.055 Y202.414 Z-8.576
X113.048 Y202.37 Z-8.579
X113.004 Y202.14 Z-8.597
X112.965 Y201.959 Z-8.615
X112.942 Y201.862 Z-8.623
X112.889 Y201.657 Z-8.648
X112.867 Y201.578 Z-8.656
X112.802 Y201.368 Z-8.685
X112.778 Y201.295 Z-8.693
X112.703 Y201.09 Z-8.727
X112.67 Y201.005 Z-8.739
X112.633 Y200.917 Z-8.754
X112.593 Y200.825 Z-8.773
X112.539 Y200.71 Z-8.792
X112.498 Y200.626 Z-8.809
X112.474 Y200.578 Z-8.82
X112.391 Y200.426 Z-8.848
X112.35 Y200.353 Z-8.864
X112.229 Y200.158 Z-8.904
X112.195 Y200.104 Z-8.916
X112.054 Y199.901 Z-8.961
X111.87 Y199.659 Z-9.016
X111.677 Y199.425 Z-9.074
X111.489 Y199.213 Z-9.127
X111.29 Y199.001 Z-9.184
X111.094 Y198.801 Z-9.239
X110.904 Y198.613 Z-9.291
X110.527 Y198.252 Z-9.394
X110.438 Y198.171 Z-9.42
X110.349 Y198.096 Z-9.452
X110.257 Y198.023 Z-9.491
X110.174 Y197.961 Z-9.53
X109.851 Y197.799 Z-9.593
X109.295 Y197.524 Z-9.699
X108.939 Y197.353 Z-9.765
X108.625 Y197.208 Z-9.821
X108.302 Y197.065 Z-9.878
X107.972 Y196.927 Z-9.933
X107.63 Y196.793 Z-9.987
X107.284 Y196.67 Z-10.037
X106.957 Y196.565 Z-10.078
X106.648 Y196.478 Z-10.111
X106.559 Y196.455 Z-10.118
X106.336 Y196.401 Z-10.139
X106.188 Y196.368 Z-10.148
X106.02 Y196.334 Z-10.162
X105.766 Y196.287 Z-10.175
X105.447 Y196.237 Z-10.19
X105.087 Y196.188 Z-10.203
X104.713 Y196.148 Z-10.216
X104.362 Y196.117 Z-10.224
X104.005 Y196.091 Z-10.231
X103.647 Y196.072 Z-10.238
X103.301 Y196.057 Z-10.244
X102.693 Y196.037 Z-10.253
X101.947 Y196.02 Z-10.263
X101.569 Y196.027 Z-10.26
X100.908 Y196.042 Z-10.251
X100.354 Y196.061 Z-10.243
X99.97 Y196.08 Z-10.237
X99.592 Y196.104 Z-10.23
X99.225 Y196.133 Z-10.222
X98.866 Y196.17 Z-10.212
X98.518 Y196.212 Z-10.201
X98.182 Y196.263 Z-10.187
X97.853 Y196.32 Z-10.171
X97.742 Y196.343 Z-10.162
X97.536 Y196.386 Z-10.15
X97.378 Y196.424 Z-10.136
X97.227 Y196.461 Z-10.125
X97.017 Y196.518 Z-10.103
X96.953 Y196.535 Z-10.097
X96.647 Y196.63 Z-10.062
X96.296 Y196.751 Z-10.017
X95.972 Y196.873 Z-9.971
X95.639 Y197.008 Z-9.92
X95.3 Y197.153 Z-9.866
X94.966 Y197.304 Z-9.81
X94.656 Y197.449 Z-9.757
X94.238 Y197.65 Z-9.685
X93.754 Y197.888 Z-9.599
X93.684 Y197.938 Z-9.564
X93.588 Y198.013 Z-9.519
X93.495 Y198.09 Z-9.482
X93.405 Y198.17 Z-9.452
X93.177 Y198.39 Z-9.39
X92.999 Y198.564 Z-9.341
X92.907 Y198.656 Z-9.317
X92.674 Y198.894 Z-9.252
X92.454 Y199.131 Z-9.188
X92.255 Y199.358 Z-9.129
X92.073 Y199.58 Z-9.074
X91.893 Y199.82 Z-9.018
X91.727 Y200.062 Z-8.964
X91.57 Y200.318 Z-8.909
X91.523 Y200.405 Z-8.889
X91.439 Y200.565 Z-8.859
X91.378 Y200.693 Z-8.831
X91.319 Y200.825 Z-8.809
X91.254 Y200.983 Z-8.779
X91.21 Y201.099 Z-8.762
X91.177 Y201.193 Z-8.745
X91.114 Y201.387 Z-8.719
X91.084 Y201.488 Z-8.703
X91.029 Y201.688 Z-8.68
X91.006 Y201.779 Z-8.668
X90.956 Y202.001 Z-8.647
X90.943 Y202.064 Z-8.64
X90.894 Y202.326 Z-8.62
X90.848 Y202.622 Z-8.6
X90.813 Y202.897 Z-8.585
X90.784 Y203.164 Z-8.575
X90.765 Y203.354 Z-8.569
X90.737 Y203.689 Z-8.56
X90.701 Y204.194 Z-8.55
X90.697 Y204.296 Z-8.552
X90.696 Y204.37 Z-8.558
X90.715 Y204.629 Z-8.56
X90.746 Y205.006 Z-8.565
X90.778 Y205.352 Z-8.572
X90.812 Y205.654 Z-8.581
X90.847 Y205.92 Z-8.592
X90.889 Y206.19 Z-8.607
X90.916 Y206.345 Z-8.62
X90.939 Y206.464 Z-8.627
X90.98 Y206.657 Z-8.645
X90.999 Y206.741 Z-8.651
X91.054 Y206.959 Z-8.676
X91.072 Y207.023 Z-8.682
X91.14 Y207.25 Z-8.713
X91.159 Y207.307 Z-8.719
X91.237 Y207.526 Z-8.753
X91.298 Y207.68 Z-8.776
X91.345 Y207.789 Z-8.797
X91.389 Y207.886 Z-8.812
X91.43 Y207.972 Z-8.828
X91.463 Y208.039 Z-8.843
X91.534 Y208.172 Z-8.866
X91.577 Y208.249 Z-8.882
X91.694 Y208.443 Z-8.92
X91.736 Y208.509 Z-8.935
X91.865 Y208.699 Z-8.974
X92.047 Y208.943 Z-9.028
X92.231 Y209.171 Z-9.081
X92.423 Y209.392 Z-9.135
X92.614 Y209.6 Z-9.187
X92.806 Y209.8 Z-9.24
X92.996 Y209.992 Z-9.291
X93.365 Y210.353 Z-9.387
X93.475 Y210.454 Z-9.419
X93.565 Y210.53 Z-9.453
X93.658 Y210.604 Z-9.493
X93.739 Y210.664 Z-9.533
X93.882 Y210.737 Z-9.56
X94.609 Y211.102 Z-9.698
X94.946 Y211.265 Z-9.76
X95.261 Y211.412 Z-9.817
X95.583 Y211.556 Z-9.874
X95.909 Y211.693 Z-9.928
X96.243 Y211.826 Z-9.98
X96.592 Y211.952 Z-10.031
X96.927 Y212.061 Z-10.075
X97.228 Y212.146 Z-10.107
X97.312 Y212.168 Z-10.113
X97.536 Y212.222 Z-10.134
X97.682 Y212.254 Z-10.143
X97.854 Y212.29 Z-10.157
X98.054 Y212.327 Z-10.168
X98.179 Y212.35 Z-10.176
X98.417 Y212.387 Z-10.186
X98.781 Y212.436 Z-10.2
X99.147 Y212.475 Z-10.213
X99.495 Y212.506 Z-10.221
X99.884 Y212.533 Z-10.23
X100.352 Y212.558 Z-10.24
X100.746 Y212.573 Z-10.246
X101.562 Y212.595 Z-10.259
X101.923 Y212.602 Z-10.264
X102.607 Y212.588 Z-10.255
X103.101 Y212.574 Z-10.249
X103.498 Y212.559 Z-10.244
X103.886 Y212.541 Z-10.238
X104.265 Y212.516 Z-10.231
X104.635 Y212.486 Z-10.223
X104.997 Y212.45 Z-10.213
X105.349 Y212.406 Z-10.202
X105.689 Y212.356 Z-10.188
X106.018 Y212.298 Z-10.171
X106.127 Y212.276 Z-10.162
X106.339 Y212.231 Z-10.15
X106.493 Y212.195 Z-10.136
Z4
X89.954 Y178.519
Z-5.5
Z-6.501
X90.917 Y179.481 Z-8.169
X91.129 Y179.252 Z-7.772
X91.473 Y178.89 Z-7.144
X91.701 Y178.653 Z-6.734
X91.835 Y178.519 Z-6.501
X91.701 Y178.653 Z-6.734
X91.473 Y178.89 Z-7.144
X91.129 Y179.252 Z-7.772
X90.917 Y179.481 Z-8.169
X90.926 Y179.652 Z-8.183
X90.941 Y179.894 Z-8.21
X90.952 Y180.026 Z-8.229
X90.964 Y180.161 Z-8.25
X90.979 Y180.299 Z-8.276
X90.995 Y180.436 Z-8.304
X91.014 Y180.573 Z-8.336
X91.033 Y180.708 Z-8.37
X91.075 Y180.967 Z-8.441
X91.119 Y181.221 Z-8.518
X91.208 Y181.692 Z-8.672
X91.232 Y181.804 Z-8.714
X91.261 Y181.915 Z-8.764
X91.295 Y182.027 Z-8.823
X91.335 Y182.139 Z-8.891
X91.431 Y182.395 Z-9.059
X91.543 Y182.683 Z-9.253
X91.609 Y182.844 Z-9.368
X91.685 Y183.021 Z-9.498
X91.767 Y183.204 Z-9.641
X91.87 Y183.419 Z-9.819
X91.977 Y183.629 Z-10.005
X92.051 Y183.766 Z-10.132
X92.115 Y183.881 Z-10.243
X92.203 Y184.033 Z-10.396
X92.301 Y184.194 Z-10.565
X89.954 Y186.54 Z-6.501
X92.301 Y184.194 Z-10.565
X92.433 Y184.223 Z-10.515
X92.546 Y184.246 Z-10.475
X92.681 Y184.272 Z-10.43
X92.796 Y184.292 Z-10.395
X92.924 Y184.313 Z-10.36
X93.145 Y184.344 Z-10.306
X93.262 Y184.358 Z-10.281
X93.38 Y184.37 Z-10.259
X93.577 Y184.388 Z-10.229
X93.771 Y184.402 Z-10.204
X93.947 Y184.412 Z-10.187
X94.123 Y184.42 Z-10.174
X94.406 Y184.428 Z-10.16
X94.582 Y184.431 Z-10.154
X94.884 Y184.434 Z-10.149
X109.091 Y184.436 Z-10.15
X109.308 Y184.435 Z-10.158
X109.505 Y184.436 Z-10.17
X109.692 Y184.438 Z-10.186
X109.864 Y184.439 Z-10.207
X110.063 Y184.441 Z-10.241
X110.265 Y184.444 Z-10.286
X110.405 Y184.445 Z-10.325
X110.506 Y184.446 Z-10.358
X110.626 Y184.447 Z-10.4
X110.737 Y184.448 Z-10.444
X110.862 Y184.45 Z-10.498
X110.969 Y184.451 Z-10.55
X111.163 Y184.453 Z-10.651
X111.264 Y184.454 Z-10.711
X111.47 Y184.456 Z-10.84
X111.612 Y184.68 Z-10.594
X111.692 Y184.81 Z-10.457
X111.762 Y184.93 Z-10.334
X111.853 Y185.091 Z-10.177
X111.972 Y185.313 Z-9.971
X112.079 Y185.526 Z-9.786
X112.173 Y185.724 Z-9.623
X112.252 Y185.899 Z-9.486
X112.324 Y186.063 Z-9.362
X112.392 Y186.225 Z-9.243
X112.507 Y186.507 Z-9.045
X112.558 Y186.636 Z-8.956
X112.605 Y186.76 Z-8.875
X112.645 Y186.883 Z-8.805
X112.679 Y187.007 Z-8.746
X112.707 Y187.131 Z-8.698
X112.802 Y187.614 Z-8.534
X112.846 Y187.857 Z-8.458
X112.87 Y187.997 Z-8.415
X112.892 Y188.133 Z-8.378
X112.912 Y188.269 Z-8.342
X112.932 Y188.412 Z-8.308
X112.96 Y188.652 Z-8.259
X112.975 Y188.801 Z-8.234
X112.988 Y188.957 Z-8.212
X112.998 Y189.095 Z-8.195
X113.012 Y189.353 Z-8.17
X113.021 Y189.594 Z-8.154
X113.028 Y189.85 Z-8.142
X112.676 Y190.216 Z-7.508
X112.095 Y190.797 Z-6.501
X112.676 Y190.216 Z-7.508
X113.028 Y189.85 Z-8.142
X113.975 Y190.797 Z-6.501
X113.028 Y189.85 Z-8.142
X113.021 Y189.594 Z-8.154
X113.012 Y189.353 Z-8.17
X112.998 Y189.095 Z-8.195
X112.988 Y188.957 Z-8.212
X112.975 Y188.801 Z-8.234
X112.96 Y188.652 Z-8.259
X112.932 Y188.412 Z-8.308
X112.912 Y188.269 Z-8.342
X112.892 Y188.133 Z-8.378
X112.87 Y187.997 Z-8.415
X112.846 Y187.857 Z-8.458
X112.802 Y187.614 Z-8.534
X112.707 Y187.131 Z-8.698
X112.679 Y187.007 Z-8.746
X112.645 Y186.883 Z-8.805
X112.605 Y186.76 Z-8.875
X112.558 Y186.636 Z-8.956
X112.507 Y186.507 Z-9.045
X112.392 Y186.225 Z-9.243
X112.324 Y186.063 Z-9.362
X112.252 Y185.899 Z-9.486
X112.173 Y185.724 Z-9.623
X112.079 Y185.526 Z-9.786
X111.972 Y185.313 Z-9.971
X111.853 Y185.091 Z-10.177
X111.762 Y184.93 Z-10.334
X111.692 Y184.81 Z-10.457
X111.612 Y184.68 Z-10.594
X111.47 Y184.456 Z-10.84
X111.572 Y184.301 Z-10.663
X111.632 Y184.208 Z-10.56
X111.757 Y184.003 Z-10.343
X111.841 Y183.858 Z-10.198
X111.905 Y183.744 Z-10.088
X111.974 Y183.615 Z-9.968
X112.033 Y183.501 Z-9.866
X112.094 Y183.378 Z-9.76
X112.186 Y183.183 Z-9.601
X112.266 Y183.003 Z-9.462
X112.345 Y182.815 Z-9.324
X112.411 Y182.651 Z-9.21
X112.518 Y182.374 Z-9.026
X112.615 Y182.111 Z-8.857
X112.653 Y182.002 Z-8.792
X112.685 Y181.893 Z-8.736
X112.713 Y181.784 Z-8.688
X112.736 Y181.675 Z-8.648
X112.8 Y181.322 Z-8.536
X112.842 Y181.081 Z-8.464
X112.882 Y180.838 Z-8.395
X112.904 Y180.688 Z-8.356
X112.936 Y180.45 Z-8.301
X112.956 Y180.282 Z-8.267
X112.979 Y180.046 Z-8.228
X112.991 Y179.881 Z-8.205
X113.007 Y179.633 Z-8.179
X113.017 Y179.395 Z-8.16
X113.022 Y179.258 Z-8.153
X113.028 Y179.018 Z-8.142
X112.677 Y178.653 Z-7.51
X112.095 Y178.071 Z-6.501
X112.677 Y178.653 Z-7.51
X113.028 Y179.018 Z-8.142
X113.975 Y178.071 Z-6.501
Z4
X96.362 Y170.9
Z-5.5
Z-6.501
X96.142 Y171.104 Z-6.867
X95.926 Y171.3 Z-7.22
X95.721 Y171.479 Z-7.549
X95.534 Y171.635 Z-7.837
X95.367 Y171.764 Z-8.083
X95.225 Y171.864 Z-8.277
X95.099 Y171.945 Z-8.439
X94.99 Y172.007 Z-8.569
X94.819 Y172.096 Z-8.761
X94.643 Y172.179 Z-8.952
X94.438 Y172.269 Z-9.171
X94.38 Y172.285 Z-9.217
X94.236 Y172.32 Z-9.333
X94.146 Y172.34 Z-9.402
X94.083 Y172.351 Z-9.448
X94.065 Y172.354 Z-9.461
X93.985 Y172.352 Z-9.495
X93.927 Y172.349 Z-9.516
X93.733 Y172.331 Z-9.587
X93.641 Y172.309 Z-9.6
X93.435 Y172.253 Z-9.631
X93.242 Y172.192 Z-9.659
X93.114 Y172.147 Z-9.673
X93.02 Y172.108 Z-9.679
X92.96 Y172.078 Z-9.677
X92.892 Y172.04 Z-9.666
X92.782 Y171.969 Z-9.64
X92.715 Y171.923 Z-9.62
X92.557 Y171.807 Z-9.567
X92.369 Y171.66 Z-9.496
X92.187 Y171.513 Z-9.425
X92.164 Y171.49 Z-9.409
X92.015 Y171.336 Z-9.305
X91.946 Y171.259 Z-9.26
X91.879 Y171.18 Z-9.221
X91.82 Y171.104 Z-9.189
X91.682 Y170.911 Z-9.123
X91.598 Y170.79 Z-9.082
X91.509 Y170.657 Z-9.037
X91.405 Y170.496 Z-8.981
X91.312 Y170.343 Z-8.928
X91.224 Y170.188 Z-8.875
X91.137 Y170.021 Z-8.817
X91.078 Y169.898 Z-8.774
X91 Y169.717 Z-8.712
X90.93 Y169.536 Z-8.653
X90.866 Y169.344 Z-8.594
X90.814 Y169.163 Z-8.544
X90.792 Y169.076 Z-8.521
X90.761 Y168.945 Z-8.491
X90.723 Y168.758 Z-8.451
X90.695 Y168.595 Z-8.422
X90.667 Y168.396 Z-8.39
X90.646 Y168.215 Z-8.367
X90.63 Y168.045 Z-8.349
X90.615 Y167.855 Z-8.332
X90.599 Y167.59 Z-8.316
X90.593 Y167.254 Z-8.283
X90.592 Y167.085 Z-8.269
X90.604 Y166.72 Z-8.259
X90.619 Y166.406 Z-8.252
X90.642 Y166.08 Z-8.249
X90.658 Y165.914 Z-8.248
X90.67 Y165.807 Z-8.25
X90.7 Y165.573 Z-8.254
X90.705 Y165.538 Z-8.255
X90.734 Y165.363 Z-8.261
X90.769 Y165.179 Z-8.27
X90.8 Y165.04 Z-8.279
X90.844 Y164.869 Z-8.293
X90.901 Y164.673 Z-8.312
X90.963 Y164.49 Z-8.333
X90.978 Y164.448 Z-8.339
X91.046 Y164.275 Z-8.361
X91.103 Y164.142 Z-8.379
X91.158 Y164.019 Z-8.398
X91.256 Y163.818 Z-8.428
X91.333 Y163.668 Z-8.451
X91.422 Y163.505 Z-8.477
X91.575 Y163.235 Z-8.519
X91.652 Y163.104 Z-8.539
X91.697 Y163.031 Z-8.552
X91.744 Y162.96 Z-8.57
X91.802 Y162.882 Z-8.596
X91.863 Y162.805 Z-8.629
X92.026 Y162.61 Z-8.722
X92.202 Y162.405 Z-8.822
X92.314 Y162.277 Z-8.888
X92.404 Y162.198 Z-8.913
X92.535 Y162.087 Z-8.949
X92.685 Y161.966 Z-8.994
X92.821 Y161.861 Z-9.038
X92.973 Y161.751 Z-9.089
X93.129 Y161.646 Z-9.145
X93.291 Y161.545 Z-9.205
X93.459 Y161.451 Z-9.266
X93.617 Y161.37 Z-9.323
X93.726 Y161.321 Z-9.358
X93.86 Y161.267 Z-9.399
X93.936 Y161.239 Z-9.419
X94.049 Y161.203 Z-9.445
X94.198 Y161.162 Z-9.474
X94.265 Y161.146 Z-9.484
X94.412 Y161.116 Z-9.505
X94.633 Y161.077 Z-9.531
X94.803 Y161.053 Z-9.546
X94.984 Y161.031 Z-9.56
X95.173 Y161.013 Z-9.573
X95.267 Y161.008 Z-9.584
X95.592 Y161.004 Z-9.639
X95.92 Y161.006 Z-9.697
X95.973 Y161.01 Z-9.701
X96.212 Y161.032 Z-9.725
X96.451 Y161.06 Z-9.751
X96.674 Y161.094 Z-9.778
X96.838 Y161.125 Z-9.801
X97.045 Y161.173 Z-9.828
X97.199 Y161.217 Z-9.846
X97.345 Y161.267 Z-9.859
X97.517 Y161.335 Z-9.873
X97.706 Y161.421 Z-9.891
X97.904 Y161.521 Z-9.915
X98.105 Y161.631 Z-9.947
X98.179 Y161.684
X98.36 Y161.817 Z-9.953
X98.524 Y161.948 Z-9.962
X98.674 Y162.074 Z-9.972
X98.808 Y162.195 Z-9.979
X98.916 Y162.301 Z-9.981
X99.028 Y162.418 Z-9.979
X99.153 Y162.556 Z-9.971
X99.285 Y162.709 Z-9.957
X99.356 Y162.796 Z-9.95
X99.426 Y162.889 Z-9.948
X99.523 Y163.027 Z-9.954
X99.662 Y163.238 Z-9.97
X99.986 Y163.776
X100.175 Y164.097 Z-9.971
X100.319 Y164.349 Z-9.973
X100.49 Y164.659
X100.622 Y164.908 Z-9.974
X100.767 Y165.196
X100.908 Y165.488
X101.085 Y165.869 Z-9.976
X101.261 Y166.262 Z-9.98
X101.506 Y166.828 Z-9.99
X101.668 Y167.214 Z-9.997
X101.776 Y167.469 Z-10.003
X101.838 Y167.613 Z-10.007
X102.039 Y168.07 Z-10.015
X102.245 Y168.524 Z-10.025
X102.391 Y168.834 Z-10.034
X102.596 Y169.251 Z-10.044
X102.741 Y169.532 Z-10.046
X102.89 Y169.809
X103.072 Y170.141 Z-10.04
X103.201 Y170.368 Z-10.035
X103.414 Y170.719 Z-10.04
X103.537 Y170.917 Z-10.046
X103.628 Y171.059 Z-10.053
X103.73 Y171.201 Z-10.051
X103.829 Y171.334
X103.968 Y171.513 Z-10.055
X104.089 Y171.658 Z-10.06
X104.194 Y171.777 Z-10.064
X104.303 Y171.892 Z-10.066
X104.408 Y171.994 Z-10.065
X104.518 Y172.093 Z-10.058
X104.664 Y172.215 Z-10.045
X104.833 Y172.347 Z-10.028
X105.005 Y172.476 Z-10.008
X105.157 Y172.586 Z-9.992
X105.233 Y172.628 Z-9.976
X105.349 Y172.689 Z-9.957
X105.522 Y172.769 Z-9.939
X105.72 Y172.856 Z-9.919
X105.859 Y172.913 Z-9.903
X106 Y172.966 Z-9.885
X106.152 Y173.016 Z-9.863
X106.318 Y173.063 Z-9.834
X106.407 Y173.085 Z-9.818
X106.6 Y173.126 Z-9.785
X106.707 Y173.146 Z-9.766
X106.891 Y173.174 Z-9.738
X107.044 Y173.194 Z-9.719
X107.186 Y173.209 Z-9.703
X107.35 Y173.223 Z-9.689
X107.501 Y173.226 Z-9.665
X107.76 Y173.225 Z-9.629
